; generated by Slic3r 1.2.9 on 2016-06-07 at 11:02:56

; external perimeters extrusion width = 0.40mm
; perimeters extrusion width = 0.48mm
; infill extrusion width = 0.48mm
; solid infill extrusion width = 0.48mm
; top infill extrusion width = 0.48mm

M107
G28 ; home all axes
G21; [mm] mode
G90; absolute mode

T<EXT+0>
M140 S<BED>
M104 S<TEMP>
M190 S<BED>
M109 S<TEMP>

G21 ; set units to millimeters
G90 ; use absolute coordinates
G1 Z0.300 F7800.000
G1 A-2.50000 F2400.00000
G92 A0
G1 Z1.300 F7800.000
G1 X0.000 Y22.404 F7800.000
G1 Z0.300 F7800.000
G1 A2.50000 F2400.00000
G1 A14.54931 F2400.000 ; pressure advance
G92 A2.50000 ; restore E
G1 X-15.348 Y22.404 A3.52530 F1800.000
G1 X-15.890 Y22.348 A3.56170
G1 X-16.912 Y22.130 A3.63154
G1 X-17.431 Y21.962 A3.66796
G1 X-18.385 Y21.537 A3.73779
G1 X-18.857 Y21.264 A3.77419
G1 X-19.703 Y20.650 A3.84402
G1 X-20.108 Y20.285 A3.88044
G1 X-20.807 Y19.508 A3.95027
G1 X-21.128 Y19.067 A3.98667
G1 X-21.650 Y18.162 A4.05650
G1 X-21.872 Y17.664 A4.09290
G1 X-22.195 Y16.670 A4.16273
G1 X-22.308 Y16.137 A4.19913
G1 X-22.432 Y14.825 A4.28718
G1 X-22.432 Y-14.825 A6.26796
G1 X-22.308 Y-16.137 A6.35601
G1 X-22.195 Y-16.670 A6.39241
G1 X-21.872 Y-17.664 A6.46224
G1 X-21.650 Y-18.162 A6.49865
G1 X-21.285 Y-18.796 A6.54753
G1 X-21.128 Y-19.067 A6.56848
G1 X-20.807 Y-19.508 A6.60488
G1 X-20.108 Y-20.285 A6.67471
G1 X-19.703 Y-20.650 A6.71113
G1 X-18.857 Y-21.264 A6.78096
G1 X-18.385 Y-21.537 A6.81735
G1 X-17.431 Y-21.962 A6.88719
G1 X-16.912 Y-22.130 A6.92361
G1 X-15.890 Y-22.348 A6.99344
G1 X-15.348 Y-22.404 A7.02984
G1 X15.348 Y-22.404 A9.08045
G1 X15.890 Y-22.348 A9.11685
G1 X16.912 Y-22.130 A9.18668 F1800.000
G1 X17.431 Y-21.962 A9.22311
G1 X18.385 Y-21.537 A9.29294
G1 X18.857 Y-21.264 A9.32933
G1 X19.703 Y-20.650 A9.39917
G1 X20.108 Y-20.285 A9.43558
G1 X20.807 Y-19.508 A9.50541
G1 X21.128 Y-19.067 A9.54182
G1 X21.650 Y-18.162 A9.61164
G1 X21.872 Y-17.664 A9.64805
G1 X22.195 Y-16.670 A9.71788
G1 X22.308 Y-16.137 A9.75428
G1 X22.432 Y-14.825 A9.84233
G1 X22.432 Y14.825 A11.82311
G1 X22.308 Y16.137 A11.91116
G1 X22.195 Y16.670 A11.94756
G1 X21.872 Y17.664 A12.01739
G1 X21.650 Y18.162 A12.05379
G1 X21.128 Y19.067 A12.12362
G1 X20.807 Y19.508 A12.16003
G1 X20.108 Y20.285 A12.22986
G1 X19.703 Y20.650 A12.26627
G1 X18.857 Y21.264 A12.33611
G1 X18.385 Y21.537 A12.37250
G1 X17.431 Y21.962 A12.44233
G1 X16.912 Y22.130 A12.47875
G1 X15.890 Y22.348 A12.54859
G1 X15.348 Y22.404 A12.58499
G1 X0.060 Y22.404 A13.60628
G1 X0.000 Y21.869 F7800.000
G1 X-15.348 Y21.869 A14.63159 F1800.000
G1 X-15.778 Y21.824 A14.66051
G1 X-16.801 Y21.606 A14.73034
G1 X-17.213 Y21.472 A14.75928
G1 X-18.168 Y21.047 A14.82911
G1 X-18.542 Y20.831 A14.85803
G1 X-19.388 Y20.216 A14.92786
G1 X-19.710 Y19.927 A14.95680
G1 X-20.409 Y19.150 A15.02663
G1 X-20.664 Y18.799 A15.05555
G1 X-21.186 Y17.894 A15.12538
G1 X-21.363 Y17.499 A15.15430
G1 X-21.686 Y16.505 A15.22413
G1 X-21.776 Y16.081 A15.25305
G1 X-21.896 Y14.825 A15.33736
G1 X-21.896 Y-14.825 A17.31814
G1 X-21.776 Y-16.081 A17.40245
G1 X-21.686 Y-16.505 A17.43137
G1 X-21.363 Y-17.499 A17.50120
G1 X-21.186 Y-17.894 A17.53012
G1 X-20.821 Y-18.528 A17.57900
G1 X-20.664 Y-18.800 A17.59995
G1 X-20.409 Y-19.150 A17.62887
G1 X-19.710 Y-19.927 A17.69870
G1 X-19.388 Y-20.216 A17.72764
G1 X-18.542 Y-20.831 A17.79747
G1 X-18.168 Y-21.047 A17.82639
G1 X-17.213 Y-21.472 A17.89622
G1 X-16.801 Y-21.606 A17.92516
G1 X-15.778 Y-21.824 A17.99499
G1 X-15.348 Y-21.869 A18.02391
G1 X15.348 Y-21.869 A20.07452
G1 X15.778 Y-21.824 A20.10344
G1 X16.801 Y-21.606 A20.17328 F1800.000
G1 X17.213 Y-21.472 A20.20221
G1 X18.168 Y-21.047 A20.27205
G1 X18.542 Y-20.831 A20.30096
G1 X19.388 Y-20.216 A20.37080
G1 X19.710 Y-19.927 A20.39973
G1 X20.409 Y-19.150 A20.46956
G1 X20.664 Y-18.799 A20.49848
G1 X21.186 Y-17.894 A20.56831
G1 X21.363 Y-17.499 A20.59724
G1 X21.686 Y-16.505 A20.66707
G1 X21.776 Y-16.081 A20.69599
G1 X21.896 Y-14.825 A20.78029
G1 X21.896 Y14.825 A22.76107
G1 X21.776 Y16.081 A22.84538
G1 X21.686 Y16.505 A22.87430
G1 X21.363 Y17.499 A22.94413
G1 X21.186 Y17.894 A22.97306
G1 X20.664 Y18.799 A23.04288
G1 X20.409 Y19.150 A23.07181
G1 X19.710 Y19.927 A23.14164
G1 X19.388 Y20.216 A23.17057
G1 X18.542 Y20.831 A23.24041
G1 X18.168 Y21.047 A23.26932
G1 X17.213 Y21.472 A23.33915
G1 X16.801 Y21.606 A23.36809
G1 X15.778 Y21.824 A23.43793
G1 X15.348 Y21.869 A23.46685
G1 X0.060 Y21.869 A24.48814
G1 X0.000 Y21.333 F7800.000
G1 X-15.348 Y21.333 A25.51345 F1800.000
G1 X-15.667 Y21.300 A25.53489
G1 X-16.689 Y21.082 A25.60472
G1 X-16.995 Y20.983 A25.62618
G1 X-17.950 Y20.558 A25.69601
G1 X-18.228 Y20.397 A25.71745
G1 X-19.073 Y19.783 A25.78728
G1 X-19.312 Y19.568 A25.80873
G1 X-20.011 Y18.791 A25.87856
G1 X-20.200 Y18.532 A25.90001
G1 X-20.723 Y17.626 A25.96983
G1 X-20.853 Y17.333 A25.99128
G1 X-21.176 Y16.339 A26.06111
G1 X-21.243 Y16.025 A26.08255
G1 X-21.361 Y14.825 A26.16311
G1 X-21.361 Y-14.825 A28.14389
G1 X-21.243 Y-16.025 A28.22446
G1 X-21.176 Y-16.339 A28.24590
G1 X-20.853 Y-17.333 A28.31573
G1 X-20.723 Y-17.626 A28.33717
G1 X-20.357 Y-18.260 A28.38605
G1 X-20.200 Y-18.532 A28.40700
G1 X-20.011 Y-18.791 A28.42845
G1 X-19.312 Y-19.568 A28.49828
G1 X-19.073 Y-19.783 A28.51973
G1 X-18.228 Y-20.397 A28.58956
G1 X-17.950 Y-20.558 A28.61100
G1 X-16.995 Y-20.983 A28.68083
G1 X-16.689 Y-21.082 A28.70229
G1 X-15.667 Y-21.300 A28.77212
G1 X-15.348 Y-21.333 A28.79356
G1 X15.348 Y-21.333 A30.84417
G1 X15.667 Y-21.300 A30.86561
G1 X16.689 Y-21.082 A30.93545 F1800.000
G1 X16.995 Y-20.983 A30.95690
G1 X17.950 Y-20.558 A31.02673
G1 X18.228 Y-20.397 A31.04817
G1 X19.073 Y-19.783 A31.11800
G1 X19.312 Y-19.568 A31.13946
G1 X20.011 Y-18.791 A31.20929
G1 X20.200 Y-18.532 A31.23073
G1 X20.723 Y-17.626 A31.30056
G1 X20.853 Y-17.333 A31.32200
G1 X21.176 Y-16.339 A31.39183
G1 X21.243 Y-16.025 A31.41328
G1 X21.361 Y-14.825 A31.49384
G1 X21.361 Y14.825 A33.47462
G1 X21.243 Y16.025 A33.55518
G1 X21.176 Y16.339 A33.57662
G1 X20.853 Y17.333 A33.64645
G1 X20.723 Y17.626 A33.66790
G1 X20.200 Y18.532 A33.73772
G1 X20.011 Y18.791 A33.75917
G1 X19.312 Y19.568 A33.82900
G1 X19.073 Y19.783 A33.85045
G1 X18.228 Y20.397 A33.92028
G1 X17.950 Y20.558 A33.94172
G1 X16.995 Y20.983 A34.01155
G1 X16.689 Y21.082 A34.03301
G1 X15.667 Y21.300 A34.10284
G1 X15.348 Y21.333 A34.12429
G1 X0.060 Y21.333 A35.14558
G1 F6240
G1 A23.09627 F2400.000 ; pressure discharge
G92 A35.14558 ; restore E
G1 X-6.440 Y21.333 A32.77058
G1 A32.64558 F2400.00000
G92 A0
G1 Z1.300 F7800.000
G1 X-15.250 Y1.062 F7800.000
G1 Z0.300 F7800.000
G1 A2.50000 F2400.00000
G1 X-15.317 Y-0.000 A2.57107 F1800.000
G1 X-15.196 Y-1.920 A2.69959
G1 X-14.835 Y-3.809 A2.82807
G1 X-14.241 Y-5.639 A2.95663
G1 X-13.410 Y-7.398 A3.08653
G1 X-12.391 Y-9.003 A3.21357
G1 X-11.165 Y-10.485 A3.34205
G1 X-9.763 Y-11.802 A3.47054
G1 X-8.208 Y-12.931 A3.59894
G1 X-6.521 Y-13.859 A3.72758
G1 X-4.733 Y-14.567 A3.85607
G1 X-2.870 Y-15.045 A3.98455
G1 X-0.958 Y-15.287 A4.11327 F1800.000
G1 X1.031 Y-15.278 A4.24617
G1 X2.870 Y-15.045 A4.37001
G1 X4.733 Y-14.567 A4.49849
G1 X6.521 Y-13.859 A4.62698
G1 X8.207 Y-12.932 A4.75551
G1 X9.763 Y-11.802 A4.88402
G1 X11.165 Y-10.485 A5.01251
G1 X12.391 Y-9.003 A5.14099
G1 X13.422 Y-7.379 A5.26952
G1 X14.241 Y-5.638 A5.39800
G1 X14.835 Y-3.809 A5.52650
G1 X15.196 Y-1.920 A5.65498
G1 X15.315 Y-0.022 A5.78203
G1 X15.196 Y1.919 A5.91194
G1 X14.835 Y3.809 A6.04049
G1 X14.241 Y5.638 A6.16899
G1 X13.422 Y7.379 A6.29747
G1 X12.391 Y9.003 A6.42600
G1 X11.165 Y10.485 A6.55448
G1 X9.763 Y11.802 A6.68297
G1 X8.208 Y12.931 A6.81138
G1 X6.521 Y13.859 A6.94001
G1 X4.733 Y14.567 A7.06850
G1 X2.870 Y15.045 A7.19698
G1 X0.962 Y15.286 A7.32549
G1 X-0.962 Y15.286 A7.45397
G1 X-2.870 Y15.045 A7.58248
G1 X-4.733 Y14.567 A7.71095
G1 X-6.521 Y13.859 A7.83945
G1 X-8.208 Y12.931 A7.96808
G1 X-9.763 Y11.802 A8.09649
G1 X-11.165 Y10.485 A8.22497
G1 X-12.391 Y9.003 A8.35346
G1 X-13.422 Y7.379 A8.48199
G1 X-14.241 Y5.638 A8.61047
G1 X-14.835 Y3.809 A8.73896
G1 X-15.196 Y1.920 A8.86745
G1 X-15.246 Y1.122 A8.92089
G1 X-14.715 Y1.028 F7800.000
G1 X-14.780 Y-0.000 A8.98971 F1800.000
G1 X-14.663 Y-1.853 A9.11373
G1 X-14.316 Y-3.676 A9.23771
G1 X-13.742 Y-5.441 A9.36174
G1 X-12.940 Y-7.139 A9.48713
G1 X-11.957 Y-8.688 A9.60970
G1 X-10.774 Y-10.118 A9.73368
G1 X-9.421 Y-11.388 A9.85766
G1 X-7.921 Y-12.478 A9.98156
G1 X-6.293 Y-13.374 A10.10570
G1 X-4.567 Y-14.057 A10.22969
G1 X-2.769 Y-14.518 A10.35366
G1 X-0.926 Y-14.751 A10.47780 F1800.000
G1 X0.996 Y-14.742 A10.60620
G1 X2.769 Y-14.518 A10.72562
G1 X4.567 Y-14.057 A10.84959
G1 X6.293 Y-13.374 A10.97358
G1 X7.920 Y-12.479 A11.09761
G1 X9.421 Y-11.388 A11.22161
G1 X10.774 Y-10.118 A11.34560
G1 X11.957 Y-8.688 A11.46958
G1 X12.952 Y-7.120 A11.59361
G1 X13.742 Y-5.441 A11.71759
G1 X14.316 Y-3.676 A11.84158
G1 X14.663 Y-1.853 A11.96556
G1 X14.779 Y-0.022 A12.08813
G1 X14.664 Y1.852 A12.21354
G1 X14.316 Y3.676 A12.33757
G1 X13.742 Y5.441 A12.46156
G1 X12.952 Y7.120 A12.58554
G1 X11.957 Y8.688 A12.70957
G1 X10.774 Y10.118 A12.83355
G1 X9.421 Y11.388 A12.95753
G1 X7.921 Y12.478 A13.08144
G1 X6.293 Y13.374 A13.20557
G1 X4.567 Y14.057 A13.32956
G1 X2.769 Y14.518 A13.45353
G1 X0.928 Y14.751 A13.57754
G1 X-0.928 Y14.751 A13.70151
G1 X-2.769 Y14.518 A13.82552
G1 X-4.567 Y14.057 A13.94950
G1 X-6.293 Y13.374 A14.07348
G1 X-7.921 Y12.478 A14.19762
G1 X-9.421 Y11.388 A14.32152
G1 X-10.774 Y10.118 A14.44551
G1 X-11.957 Y8.688 A14.56949
G1 X-12.952 Y7.120 A14.69351
G1 X-13.742 Y5.441 A14.81750
G1 X-14.316 Y3.676 A14.94149
G1 X-14.663 Y1.853 A15.06547
G1 X-14.712 Y1.088 A15.11666
G1 X-14.181 Y0.994 F7800.000
G1 X-14.243 Y-0.000 A15.18323 F1800.000
G1 X-14.131 Y-1.785 A15.30274
G1 X-13.796 Y-3.542 A15.42222
G1 X-13.243 Y-5.244 A15.54172
G1 X-12.470 Y-6.880 A15.66261
G1 X-11.523 Y-8.372 A15.78070
G1 X-10.383 Y-9.750 A15.90018
G1 X-9.079 Y-10.975 A16.01966
G1 X-7.633 Y-12.025 A16.13906
G1 X-6.064 Y-12.888 A16.25869
G1 X-4.401 Y-13.546 A16.37818
G1 X-2.669 Y-13.991 A16.49765
G1 X-0.893 Y-14.215 A16.61720 F1800.000
G1 X0.961 Y-14.207 A16.74110
G1 X2.669 Y-13.991 A16.85610
G1 X4.401 Y-13.546 A16.97557
G1 X6.064 Y-12.888 A17.09505
G1 X7.632 Y-12.026 A17.21458
G1 X9.079 Y-10.975 A17.33409
G1 X10.383 Y-9.750 A17.45357
G1 X11.523 Y-8.372 A17.57305
G1 X12.482 Y-6.862 A17.69257
G1 X13.243 Y-5.243 A17.81205
G1 X13.796 Y-3.542 A17.93154
G1 X14.131 Y-1.785 A18.05102
G1 X14.242 Y-0.021 A18.16911
G1 X14.131 Y1.785 A18.29002
G1 X13.796 Y3.542 A18.40952
G1 X13.243 Y5.243 A18.52901
G1 X12.482 Y6.862 A18.64849
G1 X11.523 Y8.372 A18.76801
G1 X10.383 Y9.750 A18.88749
G1 X9.079 Y10.975 A19.00697
G1 X7.633 Y12.025 A19.12637
G1 X6.064 Y12.888 A19.24600
G1 X4.401 Y13.546 A19.36549
G1 X2.669 Y13.991 A19.48496
G1 X0.894 Y14.215 A19.60447
G1 X-0.894 Y14.215 A19.72394
G1 X-2.669 Y13.991 A19.84344
G1 X-4.401 Y13.546 A19.96292
G1 X-6.064 Y12.888 A20.08240
G1 X-7.633 Y12.025 A20.20203
G1 X-9.079 Y10.975 A20.32143
G1 X-10.383 Y9.750 A20.44092
G1 X-11.523 Y8.372 A20.56039
G1 X-12.482 Y6.862 A20.67992
G1 X-13.243 Y5.243 A20.79940
G1 X-13.796 Y3.542 A20.91888
G1 X-14.131 Y1.785 A21.03836
G1 X-14.177 Y1.054 A21.08731
G1 X-14.539 Y0.817 F7800.000
G1 X-18.454 Y0.994 F7800.000
G1 X-18.454 Y-14.753 A22.13933 F1800.000
G1 X-18.367 Y-15.578 A22.19473
G1 X-18.133 Y-16.298 A22.24531
G1 X-17.755 Y-16.953 A22.29588
G1 X-17.248 Y-17.516 A22.34645
G1 X-16.636 Y-17.961 A22.39703
G1 X-15.944 Y-18.269 A22.44760
G1 X-15.204 Y-18.426 A22.49818
G1 X15.204 Y-18.426 A24.52953
G1 X15.778 Y-18.304 A24.56879
G1 X15.944 Y-18.269 A24.58010 F1800.000
G1 X16.636 Y-17.961 A24.63068
G1 X17.248 Y-17.516 A24.68126
G1 X17.755 Y-16.953 A24.73183
G1 X18.133 Y-16.298 A24.78240
G1 X18.367 Y-15.578 A24.83297
G1 X18.454 Y-14.753 A24.88838
G1 X18.454 Y14.753 A26.85955
G1 X18.367 Y15.578 A26.91496
G1 X18.133 Y16.298 A26.96553
G1 X17.755 Y16.953 A27.01610
G1 X17.248 Y17.516 A27.06668
G1 X16.636 Y17.961 A27.11725
G1 X15.944 Y18.269 A27.16783
G1 X15.203 Y18.426 A27.21840
G1 X-15.204 Y18.426 A29.24976
G1 X-15.944 Y18.269 A29.30033
G1 X-16.636 Y17.961 A29.35091
G1 X-17.248 Y17.516 A29.40148
G1 X-17.755 Y16.953 A29.45205
G1 X-18.133 Y16.298 A29.50263
G1 X-18.367 Y15.578 A29.55320
G1 X-18.454 Y14.753 A29.60860
G1 X-18.454 Y1.054 A30.52375
G1 X-18.989 Y0.994 F7800.000
G1 X-18.989 Y-14.781 A31.57765 F1800.000
G1 X-18.894 Y-15.690 A31.63869
G1 X-18.625 Y-16.517 A31.69678
G1 X-18.190 Y-17.270 A31.75488
G1 X-17.608 Y-17.916 A31.81297
G1 X-16.905 Y-18.427 A31.87107
G1 X-16.110 Y-18.781 A31.92917
G1 X-15.260 Y-18.962 A31.98726
G1 X15.260 Y-18.962 A34.02614
G1 X15.890 Y-18.828 A34.06915
G1 X16.110 Y-18.781 A34.08423 F1800.000
G1 X16.905 Y-18.427 A34.14233
G1 X17.608 Y-17.916 A34.20043
G1 X18.190 Y-17.270 A34.25852
G1 X18.625 Y-16.517 A34.31662
G1 X18.894 Y-15.690 A34.37471
G1 X18.989 Y-14.781 A34.43575
G1 X18.989 Y14.781 A36.41068
G1 X18.894 Y15.690 A36.47172
G1 X18.625 Y16.517 A36.52982
G1 X18.190 Y17.270 A36.58791
G1 X17.608 Y17.916 A36.64600
G1 X16.905 Y18.427 A36.70410
G1 X16.110 Y18.781 A36.76220
G1 X15.260 Y18.962 A36.82030
G1 X-15.260 Y18.962 A38.85917
G1 X-16.110 Y18.781 A38.91727
G1 X-16.905 Y18.427 A38.97536
G1 X-17.608 Y17.916 A39.03346
G1 X-18.190 Y17.270 A39.09155
G1 X-18.625 Y16.517 A39.14965
G1 X-18.894 Y15.690 A39.20774
G1 X-18.989 Y14.781 A39.26878
G1 X-18.989 Y1.054 A40.18581
G1 X-19.525 Y0.994 F7800.000
G1 X-19.525 Y-14.809 A41.24158 F1800.000
G1 X-19.421 Y-15.802 A41.30826
G1 X-19.117 Y-16.736 A41.37387
G1 X-18.626 Y-17.587 A41.43949
G1 X-17.969 Y-18.317 A41.50510
G1 X-17.174 Y-18.894 A41.57072
G1 X-16.277 Y-19.293 A41.63634
G1 X-15.316 Y-19.498 A41.70196
G1 X15.316 Y-19.498 A43.74835
G1 X16.001 Y-19.352 A43.79513
G1 X16.277 Y-19.293 A43.81397 F1800.000
G1 X17.174 Y-18.894 A43.87959
G1 X17.969 Y-18.317 A43.94521
G1 X18.626 Y-17.587 A44.01083
G1 X19.117 Y-16.736 A44.07644
G1 X19.421 Y-15.802 A44.14206
G1 X19.525 Y-14.809 A44.20874
G1 X19.525 Y14.809 A46.18742
G1 X19.421 Y15.802 A46.25409
G1 X19.117 Y16.736 A46.31971
G1 X18.626 Y17.587 A46.38532
G1 X17.969 Y18.317 A46.45094
G1 X17.174 Y18.894 A46.51656
G1 X16.277 Y19.293 A46.58218
G1 X15.316 Y19.498 A46.64780
G1 X-15.316 Y19.498 A48.69419
G1 X-16.277 Y19.293 A48.75981
G1 X-17.174 Y18.894 A48.82543
G1 X-17.969 Y18.317 A48.89105
G1 X-18.626 Y17.587 A48.95667
G1 X-19.117 Y16.736 A49.02228
G1 X-19.421 Y15.802 A49.08790
G1 X-19.525 Y14.809 A49.15457
G1 X-19.525 Y1.054 A50.07347
G1 X-19.179 Y0.794 F7800.000
G1 X-13.837 Y7.392 F7800.000
G1 X-18.132 Y3.097 A50.47965 F1800.000
G1 X-18.132 Y2.339 A50.53035
G1 X-14.511 Y5.960 A50.87280
G1 X-14.886 Y4.827 A50.95262
G1 X-18.132 Y1.580 A51.25960
G1 X-18.132 Y0.822 A51.31030
G1 X-15.196 Y3.758 A51.58791
G1 X-15.375 Y2.821 A51.65168
G1 X-18.132 Y0.064 A51.91239
G1 X-18.132 Y-0.694 A51.96309
G1 X-15.526 Y1.912 A52.20953
G1 X-15.577 Y1.103 A52.26374
G1 X-18.132 Y-1.452 A52.50537
G1 X-18.132 Y-2.211 A52.55606
G1 X-15.628 Y0.294 A52.79288
G1 X-15.604 Y-0.441 A52.84202
G1 X-18.132 Y-2.969 A53.08106
G1 X-18.132 Y-3.727 A53.13176
G1 X-15.559 Y-1.154 A53.37504
G1 X-15.514 Y-1.867 A53.42279
G1 X-18.132 Y-4.485 A53.67038
G1 X-18.132 Y-5.243 A53.72108
G1 X-15.392 Y-2.503 A53.98016
G1 X-15.271 Y-3.140 A54.02350
G1 X-18.132 Y-6.001 A54.29407
G1 X-18.132 Y-6.760 A54.34476
G1 X-15.149 Y-3.777 A54.62682
G1 X-14.966 Y-4.352 A54.66717
G1 X-18.132 Y-7.518 A54.96654
G1 X-18.132 Y-8.276 A55.01724
G1 X-14.780 Y-4.924 A55.33419
G1 X-14.594 Y-5.496 A55.37443
G1 X-18.132 Y-9.034 A55.70896
G1 X-18.132 Y-9.792 A55.75966
G1 X-14.370 Y-6.030 A56.11540
G1 X-14.127 Y-6.545 A56.15348
G1 X-18.132 Y-10.550 A56.53222
G1 X-18.132 Y-11.309 A56.58291
G1 X-13.884 Y-7.060 A56.98466
G1 X-13.632 Y-7.567 A57.02249
G1 X-18.132 Y-12.067 A57.44799
G1 X-18.132 Y-12.825 A57.49869
G1 X-13.338 Y-8.031 A57.95203
G1 X-13.044 Y-8.495 A57.98876
G1 X-18.132 Y-13.583 A58.46994
G1 X-18.132 Y-14.341 A58.52063
G1 X-12.749 Y-8.958 A59.02964
G1 X-12.426 Y-9.393 A59.06587
G1 X-18.108 Y-15.075 A59.60318
G1 X-18.009 Y-15.735 A59.64776
G1 X-12.083 Y-9.808 A60.20818
G1 X-11.739 Y-10.223 A60.24419
G1 X-17.811 Y-16.295 A60.81838
G1 X-17.534 Y-16.776 A60.85549
G1 X-11.396 Y-10.638 A61.43589
G1 X-11.009 Y-11.009 A61.47175
G1 X-17.172 Y-17.172 A62.05460
G1 X-16.766 Y-17.524 A62.09054
G1 X-10.618 Y-11.376 A62.67195
G1 X-10.227 Y-11.743 A62.70782
G1 X-16.287 Y-17.804 A63.28094
G1 X-15.732 Y-18.007 A63.32046
G1 X-9.825 Y-12.099 A63.87912
G1 X-9.385 Y-12.418 A63.91542
G1 X-15.072 Y-18.105 A64.45317
G1 X-14.314 Y-18.105 A64.50387
G1 X-8.946 Y-12.737 A65.01145
G1 X-8.507 Y-13.056 A65.04774
G1 X-13.556 Y-18.105 A65.52515
G1 X-12.798 Y-18.105 A65.57585
G1 X-8.038 Y-13.346 A66.02590
G1 X-7.549 Y-13.614 A66.06323
G1 X-12.039 Y-18.105 A66.48784
G1 X-11.281 Y-18.105 A66.53854
G1 X-7.060 Y-13.883 A66.93771
G1 X-6.568 Y-14.150 A66.97511
G1 X-10.523 Y-18.105 A67.34908
G1 X-9.765 Y-18.105 A67.39978
G1 X-6.025 Y-14.365 A67.75342
G1 X-5.482 Y-14.580 A67.79248
G1 X-9.007 Y-18.105 A68.12579
G1 X-8.249 Y-18.105 A68.17648
G1 X-4.939 Y-14.795 A68.48945
G1 X-4.356 Y-14.970 A68.53015
G1 X-7.490 Y-18.105 A68.82654
G1 X-6.732 Y-18.105 A68.87723
G1 X-3.753 Y-15.125 A69.15898
G1 X-3.149 Y-15.280 A69.20062
G1 X-5.974 Y-18.105 A69.46772
G1 X-5.216 Y-18.105 A69.51842
G1 X-2.512 Y-15.401 A69.77406
G1 X-1.839 Y-15.486 A69.81943
G1 X-4.458 Y-18.105 A70.06704
G1 X-3.700 Y-18.105 A70.11773
G1 X-1.166 Y-15.571 A70.35730
G1 X-0.443 Y-15.607 A70.40569
G1 X-2.941 Y-18.105 A70.64192
G1 X-2.183 Y-18.105 A70.69262
G1 X0.318 Y-15.603 A70.92918
G1 X1.080 Y-15.600 A70.98011
G1 X-1.425 Y-18.105 A71.21700
G1 X-0.667 Y-18.105 A71.26770
G1 X1.935 Y-15.503 A71.51373
G1 X2.803 Y-15.393 A71.57222
G1 X0.091 Y-18.105 A71.82862
G1 X0.850 Y-18.105 A71.87931
G1 X3.777 Y-15.178 A72.15612
G1 X4.797 Y-14.916 A72.22654
G1 X1.608 Y-18.105 A72.52811
G1 X2.366 Y-18.105 A72.57881
G1 X6.009 Y-14.461 A72.92335
G1 X7.416 Y-13.813 F7800.000
G1 X3.124 Y-18.105 A73.32922 F1800.000
G1 X3.882 Y-18.105 A73.37992
G1 X9.453 Y-12.534 A73.90670
G1 X12.659 Y-9.328 F7800.000
G1 X18.132 Y-3.855 A74.42421 F1800.000
G1 X18.132 Y-4.613 A74.47491
G1 X4.640 Y-18.105 A75.75074
G1 X5.399 Y-18.105 A75.80143
G1 X18.132 Y-5.371 A77.00556
G1 X18.132 Y-6.129 A77.05626
G1 X6.157 Y-18.105 A78.18869
G1 X6.915 Y-18.105 A78.23939
G1 X18.132 Y-6.887 A79.30013
G1 X18.132 Y-7.646 A79.35082
G1 X7.673 Y-18.105 A80.33987
G1 X8.431 Y-18.105 A80.39056
G1 X18.132 Y-8.404 A81.30791
G1 X18.132 Y-9.162 A81.35861
G1 X9.189 Y-18.105 A82.20426
G1 X9.948 Y-18.105 A82.25496
G1 X18.132 Y-9.920 A83.02892
G1 X18.132 Y-10.678 A83.07961
G1 X10.706 Y-18.105 A83.78187
G1 X11.464 Y-18.105 A83.83257
G1 X18.132 Y-11.437 A84.46314
G1 X18.132 Y-12.195 A84.51383
G1 X12.222 Y-18.105 A85.07271
G1 X12.980 Y-18.105 A85.12340
G1 X18.132 Y-12.953 A85.61058
G1 X18.132 Y-13.711 A85.66128
G1 X13.738 Y-18.105 A86.07676
G1 X14.497 Y-18.105 A86.12746
G1 X18.132 Y-14.469 A86.47124
G1 X18.060 Y-15.299 A86.52695
G1 X15.312 Y-18.048 A86.78688
G1 X16.738 Y-17.380 F7800.000
G1 X17.325 Y-16.792 A86.84245 F1800.000
G1 X13.837 Y-7.392 F7800.000
G1 X18.132 Y-3.097 A87.24862 F1800.000
G1 X18.132 Y-2.338 A87.29932
G1 X14.511 Y-5.960 A87.64177
G1 X14.886 Y-4.827 A87.72159
G1 X18.132 Y-1.580 A88.02857
G1 X18.132 Y-0.822 A88.07926
G1 X15.196 Y-3.758 A88.35687
G1 X15.375 Y-2.821 A88.42065
G1 X18.132 Y-0.064 A88.68136
G1 X18.132 Y0.694 A88.73205
G1 X15.526 Y-1.912 A88.97850
G1 X15.577 Y-1.103 A89.03270
G1 X18.132 Y1.452 A89.27433
G1 X18.132 Y2.211 A89.32503
G1 X15.628 Y-0.294 A89.56184
G1 X15.602 Y0.439 A89.61087
G1 X18.132 Y2.969 A89.85008
G1 X18.132 Y3.727 A89.90078
G1 X15.559 Y1.153 A90.14414
G1 X15.514 Y1.867 A90.19194
G1 X18.132 Y4.485 A90.43954
G1 X18.132 Y5.243 A90.49023
G1 X15.392 Y2.503 A90.74931
G1 X15.271 Y3.140 A90.79265
G1 X18.132 Y6.001 A91.06322
G1 X18.132 Y6.760 A91.11392
G1 X15.149 Y3.777 A91.39597
G1 X14.966 Y4.352 A91.43632
G1 X18.132 Y7.518 A91.73570
G1 X18.132 Y8.276 A91.78639
G1 X14.780 Y4.924 A92.10335
G1 X14.594 Y5.496 A92.14359
G1 X18.132 Y9.034 A92.47813
G1 X18.132 Y9.792 A92.52882
G1 X14.370 Y6.031 A92.88453
G1 X14.128 Y6.546 A92.92263
G1 X18.132 Y10.550 A93.30129
G1 X18.132 Y11.309 A93.35198
G1 X13.885 Y7.062 A93.75358
G1 X13.632 Y7.567 A93.79136
G1 X18.132 Y12.067 A94.21687
G1 X18.132 Y12.825 A94.26756
G1 X13.338 Y8.031 A94.72091
G1 X13.044 Y8.495 A94.75764
G1 X18.132 Y13.583 A95.23882
G1 X18.132 Y14.341 A95.28951
G1 X12.749 Y8.959 A95.79853
G1 X12.426 Y9.393 A95.83476
G1 X18.108 Y15.075 A96.37206
G1 X18.009 Y15.735 A96.41664
G1 X12.083 Y9.808 A96.97707
G1 X11.739 Y10.223 A97.01307
G1 X17.811 Y16.295 A97.58726
G1 X17.534 Y16.776 A97.62437
G1 X11.396 Y10.638 A98.20478
G1 X11.009 Y11.009 A98.24064
G1 X17.172 Y17.172 A98.82349
G1 X16.766 Y17.524 A98.85943
G1 X10.618 Y11.376 A99.44084
G1 X10.227 Y11.743 A99.47671
G1 X16.287 Y17.804 A100.04982
G1 X15.732 Y18.007 A100.08935
G1 X9.824 Y12.099 A100.64801
G1 X9.385 Y12.418 A100.68430
G1 X15.072 Y18.105 A101.22205
G1 X14.314 Y18.105 A101.27275
G1 X8.946 Y12.737 A101.78033
G1 X8.507 Y13.056 A101.81662
G1 X13.556 Y18.105 A102.29403
G1 X12.797 Y18.105 A102.34473
G1 X8.038 Y13.346 A102.79477
G1 X7.549 Y13.614 A102.83210
G1 X12.039 Y18.105 A103.25671
G1 X11.281 Y18.105 A103.30741
G1 X7.060 Y13.883 A103.70658
G1 X6.568 Y14.150 A103.74398
G1 X10.523 Y18.105 A104.11795
G1 X9.765 Y18.105 A104.16865
G1 X6.025 Y14.365 A104.52229
G1 X5.482 Y14.580 A104.56135
G1 X9.007 Y18.105 A104.89465
G1 X8.248 Y18.105 A104.94535
G1 X4.939 Y14.795 A105.25832
G1 X4.356 Y14.970 A105.29901
G1 X7.490 Y18.105 A105.59540
G1 X6.732 Y18.105 A105.64610
G1 X3.753 Y15.125 A105.92784
G1 X3.149 Y15.280 A105.96949
G1 X5.974 Y18.105 A106.23658
G1 X5.216 Y18.105 A106.28728
G1 X2.512 Y15.401 A106.54292
G1 X1.839 Y15.486 A106.58829
G1 X4.458 Y18.105 A106.83590
G1 X3.699 Y18.105 A106.88659
G1 X1.166 Y15.571 A107.12616
G1 X0.445 Y15.608 A107.17446
G1 X2.941 Y18.105 A107.41055
G1 X2.183 Y18.105 A107.46125
G1 X-0.314 Y15.608 A107.69734
G1 X-1.072 Y15.608 A107.74803
G1 X1.425 Y18.105 A107.98413
G1 X0.667 Y18.105 A108.03482
G1 X-1.935 Y15.503 A108.28086
G1 X-2.803 Y15.393 A108.33934
G1 X-0.091 Y18.105 A108.59575
G1 X-0.850 Y18.105 A108.64644
G1 X-3.777 Y15.177 A108.92325
G1 X-4.797 Y14.916 A108.99367
G1 X-1.608 Y18.105 A109.29524
G1 X-2.366 Y18.105 A109.34594
G1 X-6.009 Y14.461 A109.69048
G1 X-7.416 Y13.812 F7800.000
G1 X-3.124 Y18.105 A110.09638 F1800.000
G1 X-3.882 Y18.105 A110.14707
G1 X-9.453 Y12.534 A110.67386
G1 X-12.659 Y9.328 F7800.000
G1 X-18.132 Y3.855 A111.19138 F1800.000
G1 X-18.132 Y4.613 A111.24208
G1 X-4.640 Y18.105 A112.51790
G1 X-5.399 Y18.105 A112.56860
G1 X-18.132 Y5.371 A113.77272
G1 X-18.132 Y6.129 A113.82341
G1 X-6.157 Y18.105 A114.95584
G1 X-6.915 Y18.105 A115.00654
G1 X-18.132 Y6.888 A116.06727
G1 X-18.132 Y7.646 A116.11797
G1 X-7.673 Y18.105 A117.10700
G1 X-8.431 Y18.105 A117.15770
G1 X-18.132 Y8.404 A118.07504
G1 X-18.132 Y9.162 A118.12574
G1 X-9.189 Y18.105 A118.97139
G1 X-9.948 Y18.105 A119.02208
G1 X-18.132 Y9.920 A119.79603
G1 X-18.132 Y10.678 A119.84673
G1 X-10.706 Y18.105 A120.54899
G1 X-11.464 Y18.105 A120.59968
G1 X-18.132 Y11.437 A121.23025
G1 X-18.132 Y12.195 A121.28094
G1 X-12.222 Y18.105 A121.83981
G1 X-12.980 Y18.105 A121.89050
G1 X-18.132 Y12.953 A122.37768
G1 X-18.132 Y13.711 A122.42837
G1 X-13.738 Y18.105 A122.84385
G1 X-14.497 Y18.105 A122.89454
G1 X-18.132 Y14.469 A123.23833
G1 X-18.060 Y15.299 A123.29403
G1 X-15.312 Y18.048 A123.55395
G1 X-16.738 Y17.380 F7800.000
G1 X-17.325 Y16.793 A123.60945 F1800.000
M104 P220 ; set temperature
G1 Z0.600 F7800.000
G1 X-14.828 Y0.699 F7800.000
G1 A153.04462 F2400.000 ; pressure advance
G92 A123.60945 ; restore E
G1 X-14.871 Y0.010 A123.64549 F3600.000
G1 X-14.755 Y-1.864 A123.74360
G1 X-14.405 Y-3.699 A123.84119
G1 X-13.827 Y-5.477 A123.93887
G1 X-12.997 Y-7.220 A124.03972
G1 X-12.032 Y-8.742 A124.13389
G1 X-10.841 Y-10.181 A124.23145
G1 X-9.480 Y-11.459 A124.32903
G1 X-7.972 Y-12.555 A124.42642
G1 X-6.332 Y-13.457 A124.52420
G1 X-4.595 Y-14.144 A124.62177
G1 X-2.787 Y-14.609 A124.71933
G1 X-0.934 Y-14.843 A124.81691
G1 X0.934 Y-14.843 A124.91447 F3600.000
G1 X2.787 Y-14.609 A125.01206
G1 X4.595 Y-14.144 A125.10961
G1 X6.332 Y-13.457 A125.20719
G1 X7.972 Y-12.555 A125.30497
G1 X9.480 Y-11.459 A125.40236
G1 X10.841 Y-10.181 A125.49993
G1 X12.032 Y-8.742 A125.59750
G1 X12.997 Y-7.220 A125.69167
G1 X13.827 Y-5.477 A125.79252
G1 X14.405 Y-3.699 A125.89020
G1 X14.755 Y-1.864 A125.98777
G1 X14.872 Y-0.000 A126.08536
G1 X14.755 Y1.864 A126.18295
G1 X14.405 Y3.699 A126.28051
G1 X13.827 Y5.477 A126.37820
G1 X12.997 Y7.220 A126.47905
G1 X12.032 Y8.742 A126.57322
G1 X10.841 Y10.181 A126.67079
G1 X9.480 Y11.459 A126.76836
G1 X7.972 Y12.555 A126.86575
G1 X6.332 Y13.457 A126.96353
G1 X4.595 Y14.144 A127.06110
G1 X2.787 Y14.609 A127.15866
G1 X0.931 Y14.843 A127.25637
G1 X-1.002 Y14.834 A127.35739
G1 X-2.787 Y14.609 A127.45136
G1 X-4.595 Y14.144 A127.54892
G1 X-6.332 Y13.457 A127.64649
G1 X-7.969 Y12.557 A127.74410
G1 X-9.482 Y11.457 A127.84185
G1 X-10.841 Y10.181 A127.93924
G1 X-12.032 Y8.742 A128.03681
G1 X-13.034 Y7.161 A128.13457
G1 X-13.828 Y5.475 A128.23196
G1 X-14.405 Y3.699 A128.32953
G1 X-14.755 Y1.864 A128.42710
G1 X-14.824 Y0.759 A128.48497
G1 X-14.410 Y0.673 F7800.000
G1 X-14.452 Y0.010 A128.51964 F3600.000
G1 X-14.338 Y-1.811 A128.61500
G1 X-13.998 Y-3.594 A128.70983
G1 X-13.437 Y-5.322 A128.80470
G1 X-12.630 Y-7.017 A128.90280
G1 X-11.692 Y-8.495 A128.99427
G1 X-10.535 Y-9.893 A129.08908
G1 X-9.212 Y-11.136 A129.18390
G1 X-7.747 Y-12.201 A129.27854
G1 X-6.153 Y-13.077 A129.37356
G1 X-4.466 Y-13.745 A129.46838
G1 X-2.708 Y-14.196 A129.56319
G1 X-0.907 Y-14.424 A129.65802
G1 X0.907 Y-14.424 A129.75282 F3600.000
G1 X2.708 Y-14.196 A129.84765
G1 X4.466 Y-13.745 A129.94246
G1 X6.153 Y-13.077 A130.03727
G1 X7.747 Y-12.201 A130.13230
G1 X9.212 Y-11.136 A130.22694
G1 X10.535 Y-9.893 A130.32176
G1 X11.692 Y-8.495 A130.41657
G1 X12.630 Y-7.017 A130.50803
G1 X13.437 Y-5.321 A130.60613
G1 X13.998 Y-3.594 A130.70102
G1 X14.338 Y-1.812 A130.79583
G1 X14.452 Y-0.000 A130.89066
G1 X14.338 Y1.812 A130.98550
G1 X13.998 Y3.594 A131.08031
G1 X13.437 Y5.321 A131.17519
G1 X12.630 Y7.017 A131.27329
G1 X11.692 Y8.495 A131.36476
G1 X10.535 Y9.893 A131.45957
G1 X9.212 Y11.136 A131.55439
G1 X7.747 Y12.201 A131.64903
G1 X6.153 Y13.077 A131.74405
G1 X4.466 Y13.745 A131.83887
G1 X2.708 Y14.196 A131.93368
G1 X0.906 Y14.424 A132.02858
G1 X-0.975 Y14.415 A132.12684
G1 X-2.708 Y14.196 A132.21811
G1 X-4.466 Y13.745 A132.31292
G1 X-6.153 Y13.077 A132.40773
G1 X-7.744 Y12.202 A132.50258
G1 X-9.215 Y11.133 A132.59758
G1 X-10.535 Y9.893 A132.69222
G1 X-11.692 Y8.495 A132.78703
G1 X-12.666 Y6.959 A132.88205
G1 X-13.438 Y5.320 A132.97668
G1 X-13.998 Y3.594 A133.07149
G1 X-14.338 Y1.812 A133.16631
G1 X-14.406 Y0.732 A133.22281
G1 X-14.034 Y0.649 F7800.000
G1 A108.51489 F2400.000 ; pressure advance
G92 A133.22281 ; restore E
G1 X-14.074 Y0.010 A133.24960 F1800.000
G1 X-13.963 Y-1.764 A133.32402
G1 X-13.632 Y-3.500 A133.39801
G1 X-13.086 Y-5.182 A133.47200
G1 X-12.299 Y-6.834 A133.54861
G1 X-11.386 Y-8.273 A133.61995
G1 X-10.260 Y-9.635 A133.69392
G1 X-8.971 Y-10.844 A133.76791
G1 X-7.544 Y-11.881 A133.84175
G1 X-5.992 Y-12.735 A133.91590
G1 X-4.349 Y-13.386 A133.98988
G1 X-2.637 Y-13.825 A134.06386
G1 X-0.884 Y-14.047 A134.13785
G1 X0.884 Y-14.047 A134.21183 F1800.000
G1 X2.637 Y-13.825 A134.28582
G1 X4.349 Y-13.386 A134.35979
G1 X5.992 Y-12.735 A134.43377
G1 X7.544 Y-11.881 A134.50792
G1 X8.971 Y-10.844 A134.58177
G1 X10.260 Y-9.635 A134.65575
G1 X11.386 Y-8.273 A134.72973
G1 X12.299 Y-6.834 A134.80106
G1 X13.086 Y-5.182 A134.87768
G1 X13.632 Y-3.500 A134.95168
G1 X13.963 Y-1.764 A135.02566
G1 X14.074 Y-0.000 A135.09966
G1 X13.963 Y1.764 A135.17366
G1 X13.632 Y3.500 A135.24763
G1 X13.086 Y5.182 A135.32164
G1 X12.299 Y6.834 A135.39825
G1 X11.386 Y8.273 A135.46958
G1 X10.260 Y9.635 A135.54356
G1 X8.971 Y10.844 A135.61755
G1 X7.544 Y11.881 A135.69139
G1 X5.992 Y12.735 A135.76554
G1 X4.349 Y13.386 A135.83952
G1 X2.637 Y13.825 A135.91349
G1 X0.883 Y14.047 A135.98751
G1 X-0.950 Y14.038 A136.06426
G1 X-2.637 Y13.825 A136.13543
G1 X-4.349 Y13.386 A136.20941
G1 X-5.992 Y12.735 A136.28339
G1 X-7.541 Y11.883 A136.35740
G1 X-8.974 Y10.842 A136.43153
G1 X-10.260 Y9.635 A136.50537
G1 X-11.386 Y8.273 A136.57935
G1 X-12.335 Y6.777 A136.65349
G1 X-13.086 Y5.181 A136.72733
G1 X-13.632 Y3.500 A136.80131
G1 X-13.963 Y1.764 A136.87529
G1 X-14.030 Y0.709 A136.91957
G1 X-14.392 Y0.471 F7800.000
G1 X-18.979 Y0.649 F7800.000
G1 A161.66924 F2400.000 ; pressure advance
G92 A136.91957 ; restore E
G1 X-18.979 Y-14.923 A137.73310 F3600.000
G1 X-18.886 Y-15.806 A137.77952
G1 X-18.628 Y-16.601 A137.82319
G1 X-18.210 Y-17.325 A137.86686
G1 X-17.650 Y-17.946 A137.91053
G1 X-16.974 Y-18.438 A137.95420
G1 X-16.211 Y-18.778 A137.99787
G1 X-15.393 Y-18.951 A138.04154
G1 X15.393 Y-18.951 A139.64995
G1 X16.211 Y-18.778 A139.69362
G1 X16.974 Y-18.438 A139.73729 F3600.000
G1 X17.650 Y-17.946 A139.78096
G1 X18.210 Y-17.325 A139.82463
G1 X18.628 Y-16.601 A139.86830
G1 X18.886 Y-15.806 A139.91197
G1 X18.979 Y-14.923 A139.95839
G1 X18.979 Y14.923 A141.51767
G1 X18.886 Y15.806 A141.56408
G1 X18.628 Y16.601 A141.60775
G1 X18.210 Y17.325 A141.65142
G1 X17.650 Y17.946 A141.69509
G1 X16.974 Y18.438 A141.73876
G1 X16.211 Y18.778 A141.78243
G1 X15.393 Y18.951 A141.82611
G1 X-15.393 Y18.951 A143.43451
G1 X-16.211 Y18.778 A143.47818
G1 X-16.974 Y18.438 A143.52185
G1 X-17.650 Y17.946 A143.56553
G1 X-18.210 Y17.325 A143.60920
G1 X-18.628 Y16.601 A143.65286
G1 X-18.886 Y15.806 A143.69654
G1 X-18.979 Y14.923 A143.74295
G1 X-18.979 Y0.709 A144.48556
G1 X-19.398 Y0.649 F7800.000
G1 X-19.398 Y-14.945 A145.30024 F3600.000
G1 X-19.298 Y-15.894 A145.35010
G1 X-19.012 Y-16.773 A145.39838
G1 X-18.551 Y-17.573 A145.44664
G1 X-17.932 Y-18.259 A145.49491
G1 X-17.185 Y-18.802 A145.54319
G1 X-16.341 Y-19.178 A145.59146
G1 X-15.437 Y-19.370 A145.63973
G1 X15.480 Y-19.361 A147.25498
G1 X16.341 Y-19.178 A147.30096 F3600.000
G1 X17.185 Y-18.802 A147.34923
G1 X17.932 Y-18.259 A147.39750
G1 X18.551 Y-17.573 A147.44577
G1 X19.012 Y-16.773 A147.49404
G1 X19.298 Y-15.894 A147.54231
G1 X19.398 Y-14.945 A147.59217
G1 X19.398 Y14.945 A149.15375
G1 X19.298 Y15.894 A149.20361
G1 X19.012 Y16.773 A149.25188
G1 X18.551 Y17.573 A149.30015
G1 X17.932 Y18.259 A149.34842
G1 X17.185 Y18.802 A149.39669
G1 X16.341 Y19.178 A149.44496
G1 X15.437 Y19.370 A149.49324
G1 X-15.437 Y19.370 A151.10624
G1 X-16.341 Y19.178 A151.15451
G1 X-17.185 Y18.802 A151.20278
G1 X-17.932 Y18.259 A151.25106
G1 X-18.551 Y17.573 A151.29933
G1 X-19.012 Y16.773 A151.34760
G1 X-19.298 Y15.894 A151.39587
G1 X-19.398 Y14.945 A151.44573
G1 X-19.398 Y0.709 A152.18948
G1 X-19.775 Y0.649 F7800.000
G1 A127.44334 F2400.000 ; pressure advance
G92 A152.18948 ; restore E
G1 X-19.775 Y-14.965 A152.84306 F1800.000
G1 X-19.669 Y-15.973 A152.88550
G1 X-19.359 Y-16.927 A152.92750
G1 X-18.857 Y-17.796 A152.96949
G1 X-18.186 Y-18.541 A153.01148
G1 X-17.374 Y-19.131 A153.05348
G1 X-16.458 Y-19.539 A153.09548
G1 X-15.477 Y-19.748 A153.13748
G1 X15.477 Y-19.748 A154.43319
G1 X15.558 Y-19.730 A154.43668
G1 X16.458 Y-19.539 A154.47518 F1800.000
G1 X17.374 Y-19.131 A154.51718
G1 X18.186 Y-18.541 A154.55918
G1 X18.857 Y-17.796 A154.60117
G1 X19.359 Y-16.927 A154.64317
G1 X19.669 Y-15.973 A154.68516
G1 X19.775 Y-14.965 A154.72760
G1 X19.775 Y14.965 A155.98044
G1 X19.669 Y15.973 A156.02288
G1 X19.359 Y16.927 A156.06487
G1 X18.857 Y17.796 A156.10687
G1 X18.186 Y18.541 A156.14886
G1 X17.374 Y19.131 A156.19086
G1 X16.458 Y19.539 A156.23286
G1 X15.477 Y19.748 A156.27485
G1 X-15.477 Y19.748 A157.57056
G1 X-16.458 Y19.539 A157.61256
G1 X-17.374 Y19.131 A157.65456
G1 X-18.186 Y18.541 A157.69655
G1 X-18.857 Y17.796 A157.73855
G1 X-19.359 Y16.927 A157.78054
G1 X-19.669 Y15.973 A157.82254
G1 X-19.775 Y14.965 A157.86498
G1 X-19.775 Y0.709 A158.46172
G1 X-19.429 Y0.449 F7800.000
G1 X-14.106 Y-5.521 F7800.000
G1 X-18.732 Y-0.896 A158.80487 F1800.000
G1 X-18.732 Y-0.301 A158.83607
G1 X-14.392 Y-4.640 A159.15799
G1 X-14.660 Y-3.778 A159.20535
G1 X-18.732 Y0.294 A159.50741
G1 X-18.732 Y0.889 A159.53861
G1 X-14.800 Y-3.043 A159.83026
G1 X-14.940 Y-2.308 A159.86951
G1 X-18.732 Y1.483 A160.15076
G1 X-18.732 Y2.078 A160.18196
G1 X-15.023 Y-1.631 A160.45710
G1 X-15.062 Y-0.997 A160.49044
G1 X-18.732 Y2.673 A160.76265
G1 X-18.732 Y3.268 A160.79385
G1 X-15.102 Y-0.362 A161.06314
G1 X-15.100 Y0.231 A161.09425
G1 X-18.732 Y3.863 A161.36367
G1 X-18.732 Y4.457 A161.39486
G1 X-15.065 Y0.790 A161.66690
G1 X-15.029 Y1.350 A161.69631
G1 X-18.732 Y5.052 A161.97095
G1 X-18.732 Y5.647 A162.00215
G1 X-14.984 Y1.899 A162.28014
G1 X-14.889 Y2.399 A162.30681
G1 X-18.732 Y6.242 A162.59187
G1 X-18.732 Y6.836 A162.62307
G1 X-14.794 Y2.898 A162.91519
G1 X-14.699 Y3.398 A162.94186
G1 X-18.732 Y7.431 A163.24106
G1 X-18.732 Y8.026 A163.27226
G1 X-14.583 Y3.877 A163.58005
G1 X-14.437 Y4.326 A163.60481
G1 X-18.732 Y8.621 A163.92342
G1 X-18.732 Y9.215 A163.95462
G1 X-14.291 Y4.775 A164.28405
G1 X-14.145 Y5.223 A164.30881
G1 X-18.732 Y9.810 A164.64906
G1 X-18.732 Y10.405 A164.68026
G1 X-13.983 Y5.656 A165.03253
G1 X-13.793 Y6.061 A165.05598
G1 X-18.732 Y11.000 A165.42236
G1 X-18.732 Y11.594 A165.45356
G1 X-13.602 Y6.465 A165.83407
G1 X-13.412 Y6.870 A165.85751
G1 X-18.732 Y12.189 A166.25214
G1 X-18.732 Y12.784 A166.28334
G1 X-13.218 Y7.270 A166.69237
G1 X-12.987 Y7.634 A166.71498
G1 X-18.732 Y13.379 A167.14113
G1 X-18.732 Y13.974 A167.17233
G1 X-12.756 Y7.998 A167.61562
G1 X-12.525 Y8.362 A167.63822
G1 X-18.732 Y14.568 A168.09863
G1 X-18.716 Y15.147 A168.12900
G1 X-12.294 Y8.726 A168.60533
G1 X-12.038 Y9.065 A168.62761
G1 X-18.659 Y15.685 A169.11874
G1 X-18.536 Y16.157 A169.14433
G1 X-11.769 Y9.390 A169.64634
G1 X-11.500 Y9.716 A169.66850
G1 X-18.382 Y16.598 A170.17904
G1 X-18.164 Y16.975 A170.20187
G1 X-11.231 Y10.041 A170.71623
G1 X-10.956 Y10.361 A170.73836
G1 X-17.923 Y17.329 A171.25520
G1 X-17.634 Y17.634 A171.27727
G1 X-10.649 Y10.649 A171.79544
G1 X-10.343 Y10.938 A171.81751
G1 X-17.326 Y17.920 A172.33552
G1 X-16.981 Y18.171 A172.35786
G1 X-10.036 Y11.226 A172.87307
G1 X-9.729 Y11.514 A172.89514
G1 X-16.587 Y18.371 A173.40383
G1 X-16.171 Y18.550 A173.42756
G1 X-9.400 Y11.779 A173.92989
G1 X-9.055 Y12.029 A173.95222
G1 X-15.681 Y18.655 A174.44371
G1 X-15.136 Y18.704 A174.47242
G1 X-8.711 Y12.279 A174.94903
G1 X-8.366 Y12.530 A174.97136
G1 X-14.541 Y18.704 A175.42940
G1 X-13.946 Y18.704 A175.46060
G1 X-8.018 Y12.776 A175.90039
G1 X-7.634 Y12.987 A175.92336
G1 X-13.351 Y18.704 A176.34750
G1 X-12.757 Y18.704 A176.37870
G1 X-7.250 Y13.198 A176.78719
G1 X-6.866 Y13.409 A176.81016
G1 X-12.162 Y18.704 A177.20300
G1 X-11.567 Y18.704 A177.23420
G1 X-6.483 Y13.620 A177.61138
G1 X-6.067 Y13.799 A177.63512
G1 X-10.972 Y18.704 A177.99900
G1 X-10.378 Y18.704 A178.03020
G1 X-5.641 Y13.968 A178.38157
G1 X-5.215 Y14.136 A178.40561
G1 X-9.783 Y18.704 A178.74447
G1 X-9.188 Y18.704 A178.77567
G1 X-4.789 Y14.305 A179.10201
G1 X-4.335 Y14.446 A179.12693
G1 X-8.593 Y18.704 A179.44279
G1 X-7.999 Y18.704 A179.47399
G1 X-3.862 Y14.568 A179.78084
G1 X-3.389 Y14.689 A179.80647
G1 X-7.404 Y18.704 A180.10431
G1 X-6.809 Y18.704 A180.13551
G1 X-2.916 Y14.811 A180.42434
G1 X-2.405 Y14.895 A180.45146
G1 X-6.214 Y18.704 A180.73401
G1 X-5.619 Y18.704 A180.76521
G1 X-1.877 Y14.962 A181.04282
G1 X-1.349 Y15.029 A181.07073
G1 X-5.025 Y18.704 A181.34339
G1 X-4.430 Y18.704 A181.37459
G1 X-0.807 Y15.082 A181.64332
G1 X-0.215 Y15.084 A181.67437
G1 X-3.835 Y18.704 A181.94290
G1 X-3.240 Y18.704 A181.97410
G1 X0.377 Y15.087 A182.24242
G1 X0.969 Y15.090 A182.27348
G1 X-2.646 Y18.704 A182.54160
G1 X-2.051 Y18.704 A182.57280
G1 X1.639 Y15.015 A182.84650
G1 X2.319 Y14.929 A182.88249
G1 X-1.456 Y18.704 A183.16257
G1 X-0.861 Y18.704 A183.19377
G1 X3.011 Y14.832 A183.48103
G1 X3.811 Y14.627 A183.52437
G1 X-0.267 Y18.704 A183.82687
G1 X0.328 Y18.704 A183.85807
G1 X4.611 Y14.421 A184.17581
G1 X5.555 Y14.072 F7800.000
G1 X0.923 Y18.704 A184.51944 F1800.000
G1 X1.518 Y18.704 A184.55064
G1 X6.540 Y13.682 A184.92319
G1 X7.853 Y12.964 F7800.000
G1 X2.113 Y18.704 A185.34906 F1800.000
G1 X2.707 Y18.704 A185.38026
G1 X9.778 Y11.633 A185.90480
G1 X11.411 Y10.000 F7800.000
G1 X18.732 Y2.680 A186.44786 F1800.000
G1 X18.732 Y3.275 A186.47906
G1 X3.302 Y18.704 A187.62367
G1 X3.897 Y18.704 A187.65487
G1 X18.732 Y3.869 A188.75535
G1 X18.732 Y4.464 A188.78655
G1 X4.492 Y18.704 A189.84292
G1 X5.086 Y18.704 A189.87412
G1 X18.732 Y5.059 A190.88636
G1 X18.732 Y5.654 A190.91756
G1 X5.681 Y18.704 A191.88569
G1 X6.276 Y18.704 A191.91689
G1 X18.732 Y6.249 A192.84089
G1 X18.732 Y6.843 A192.87209
G1 X6.871 Y18.704 A193.75197
G1 X7.465 Y18.704 A193.78317
G1 X18.732 Y7.438 A194.61893
G1 X18.732 Y8.033 A194.65013
G1 X8.060 Y18.704 A195.44177
G1 X8.655 Y18.704 A195.47297
G1 X18.732 Y8.628 A196.22048
G1 X18.732 Y9.222 A196.25168
G1 X9.250 Y18.704 A196.95508
G1 X9.845 Y18.704 A196.98628
G1 X18.732 Y9.817 A197.64555
G1 X18.732 Y10.412 A197.67675
G1 X10.439 Y18.704 A198.29190
G1 X11.034 Y18.704 A198.32310
G1 X18.732 Y11.007 A198.89413
G1 X18.732 Y11.601 A198.92533
G1 X11.629 Y18.704 A199.45224
G1 X12.224 Y18.704 A199.48344
G1 X18.732 Y12.196 A199.96623
G1 X18.732 Y12.791 A199.99743
G1 X12.818 Y18.704 A200.43610
G1 X13.413 Y18.704 A200.46730
G1 X18.732 Y13.386 A200.86184
G1 X18.732 Y13.980 A200.89304
G1 X14.008 Y18.704 A201.24347
G1 X14.603 Y18.704 A201.27466
G1 X18.732 Y14.575 A201.58097
G1 X18.690 Y15.212 A201.61442
G1 X15.197 Y18.704 A201.87352
G1 X15.933 Y18.563 A201.91283
G1 X18.546 Y15.951 A202.10661
G1 X17.770 Y17.321 F7800.000
G1 X17.232 Y17.860 A202.14654 F1800.000
G1 X12.957 Y7.860 F7800.000
G1 X18.732 Y2.085 A202.57495 F1800.000
G1 X18.732 Y1.490 A202.60615
G1 X13.614 Y6.608 A202.98576
G1 X14.106 Y5.521 F7800.000
G1 X18.732 Y0.896 A203.32891 F1800.000
G1 X18.732 Y0.301 A203.36011
G1 X14.392 Y4.640 A203.68202
G1 X14.660 Y3.778 A203.72939
G1 X18.732 Y-0.294 A204.03145
G1 X18.732 Y-0.889 A204.06265
G1 X14.800 Y3.043 A204.35430
G1 X14.940 Y2.308 A204.39355
G1 X18.732 Y-1.483 A204.67480
G1 X18.732 Y-2.078 A204.70600
G1 X15.023 Y1.631 A204.98113
G1 X15.063 Y0.996 A205.01449
G1 X18.732 Y-2.673 A205.28665
G1 X18.732 Y-3.268 A205.31785
G1 X15.103 Y0.361 A205.58705
G1 X15.100 Y-0.231 A205.61809
G1 X18.732 Y-3.863 A205.88751
G1 X18.732 Y-4.457 A205.91871
G1 X15.065 Y-0.790 A206.19075
G1 X15.029 Y-1.350 A206.22015
G1 X18.732 Y-5.052 A206.49480
G1 X18.732 Y-5.647 A206.52600
G1 X14.984 Y-1.899 A206.80399
G1 X14.889 Y-2.399 A206.83066
G1 X18.732 Y-6.242 A207.11572
G1 X18.732 Y-6.836 A207.14692
G1 X14.794 Y-2.898 A207.43904
G1 X14.698 Y-3.398 A207.46571
G1 X18.732 Y-7.431 A207.76491
G1 X18.732 Y-8.026 A207.79611
G1 X14.583 Y-3.877 A208.10390
G1 X14.437 Y-4.326 A208.12866
G1 X18.732 Y-8.621 A208.44727
G1 X18.732 Y-9.215 A208.47847
G1 X14.291 Y-4.775 A208.80790
G1 X14.145 Y-5.223 A208.83266
G1 X18.732 Y-9.810 A209.17292
G1 X18.732 Y-10.405 A209.20412
G1 X13.983 Y-5.656 A209.55640
G1 X13.791 Y-6.059 A209.57981
G1 X18.732 Y-11.000 A209.94633
G1 X18.732 Y-11.595 A209.97753
G1 X13.599 Y-6.462 A210.35827
G1 X13.407 Y-6.865 A210.38168
G1 X18.732 Y-12.189 A210.77665
G1 X18.732 Y-12.784 A210.80785
G1 X13.216 Y-7.268 A211.21705
G1 X12.987 Y-7.634 A211.23969
G1 X18.732 Y-13.379 A211.66584
G1 X18.732 Y-13.974 A211.69703
G1 X12.756 Y-7.998 A212.14031
G1 X12.525 Y-8.362 A212.16291
G1 X18.732 Y-14.568 A212.62331
G1 X18.716 Y-15.147 A212.65368
G1 X12.294 Y-8.726 A213.13002
G1 X12.038 Y-9.065 A213.15229
G1 X18.659 Y-15.685 A213.64343
G1 X18.536 Y-16.157 A213.66901
G1 X11.769 Y-9.390 A214.17103
G1 X11.500 Y-9.716 A214.19319
G1 X18.382 Y-16.598 A214.70372
G1 X18.164 Y-16.975 A214.72656
G1 X11.231 Y-10.041 A215.24092
G1 X10.956 Y-10.361 A215.26304
G1 X17.923 Y-17.329 A215.77989
G1 X17.634 Y-17.634 A215.80196
G1 X10.649 Y-10.649 A216.32012
G1 X10.343 Y-10.938 A216.34219
G1 X17.326 Y-17.920 A216.86021
G1 X16.981 Y-18.171 A216.88254
G1 X10.036 Y-11.226 A217.39775
G1 X9.729 Y-11.514 A217.41982
G1 X16.587 Y-18.371 A217.92852
G1 X16.171 Y-18.550 A217.95225
G1 X9.400 Y-11.779 A218.45456
G1 X9.056 Y-12.029 A218.47689
G1 X15.681 Y-18.655 A218.96836
G1 X15.136 Y-18.704 A218.99707
G1 X8.711 Y-12.280 A219.47367
G1 X8.367 Y-12.530 A219.49600
G1 X14.541 Y-18.704 A219.95403
G1 X13.946 Y-18.704 A219.98523
G1 X8.017 Y-12.776 A220.42505
G1 X7.634 Y-12.987 A220.44802
G1 X13.351 Y-18.704 A220.87217
G1 X12.757 Y-18.704 A220.90337
G1 X7.250 Y-13.198 A221.31187
G1 X6.866 Y-13.409 A221.33484
G1 X12.162 Y-18.704 A221.72768
G1 X11.567 Y-18.704 A221.75888
G1 X6.483 Y-13.620 A222.13607
G1 X6.067 Y-13.799 A222.15980
G1 X10.972 Y-18.704 A222.52369
G1 X10.378 Y-18.704 A222.55489
G1 X5.641 Y-13.968 A222.90626
G1 X5.215 Y-14.136 A222.93030
G1 X9.783 Y-18.704 A223.26915
G1 X9.188 Y-18.704 A223.30035
G1 X4.789 Y-14.305 A223.62669
G1 X4.335 Y-14.446 A223.65161
G1 X8.593 Y-18.704 A223.96748
G1 X7.998 Y-18.704 A223.99867
G1 X3.862 Y-14.568 A224.30553
G1 X3.389 Y-14.689 A224.33116
G1 X7.404 Y-18.704 A224.62900
G1 X6.809 Y-18.704 A224.66019
G1 X2.916 Y-14.811 A224.94902
G1 X2.405 Y-14.895 A224.97615
G1 X6.214 Y-18.704 A225.25870
G1 X5.619 Y-18.704 A225.28990
G1 X1.877 Y-14.962 A225.56750
G1 X1.349 Y-15.029 A225.59542
G1 X5.025 Y-18.704 A225.86807
G1 X4.430 Y-18.704 A225.89927
G1 X0.815 Y-15.090 A226.16739
G1 X0.221 Y-15.090 A226.19859
G1 X3.835 Y-18.704 A226.46672
G1 X3.240 Y-18.704 A226.49792
G1 X-0.374 Y-15.090 A226.76604
G1 X-0.969 Y-15.090 A226.79724
G1 X2.646 Y-18.704 A227.06536
G1 X2.051 Y-18.704 A227.09656
G1 X-1.639 Y-15.015 A227.37026
G1 X-2.320 Y-14.929 A227.40626
G1 X1.456 Y-18.704 A227.68634
G1 X0.861 Y-18.704 A227.71754
G1 X-3.011 Y-14.832 A228.00480
G1 X-3.811 Y-14.627 A228.04813
G1 X0.267 Y-18.704 A228.35063
G1 X-0.328 Y-18.704 A228.38183
G1 X-4.611 Y-14.421 A228.69957
G1 X-5.555 Y-14.072 F7800.000
G1 X-0.923 Y-18.704 A229.04321 F1800.000
G1 X-1.518 Y-18.704 A229.07440
G1 X-6.540 Y-13.682 A229.44696
G1 X-7.853 Y-12.964 F7800.000
G1 X-2.113 Y-18.704 A229.87282 F1800.000
G1 X-2.707 Y-18.704 A229.90402
G1 X-9.778 Y-11.633 A230.42857
G1 X-11.411 Y-10.001 F7800.000
G1 X-18.732 Y-2.680 A230.97163 F1800.000
G1 X-18.732 Y-3.275 A231.00283
G1 X-3.302 Y-18.704 A232.14744
G1 X-3.897 Y-18.704 A232.17863
G1 X-18.732 Y-3.869 A233.27912
G1 X-18.732 Y-4.464 A233.31032
G1 X-4.492 Y-18.704 A234.36669
G1 X-5.086 Y-18.704 A234.39789
G1 X-18.732 Y-5.059 A235.41013
G1 X-18.732 Y-5.654 A235.44133
G1 X-5.681 Y-18.704 A236.40945
G1 X-6.276 Y-18.704 A236.44065
G1 X-18.732 Y-6.249 A237.36465
G1 X-18.732 Y-6.843 A237.39585
G1 X-6.871 Y-18.704 A238.27573
G1 X-7.465 Y-18.704 A238.30693
G1 X-18.732 Y-7.438 A239.14269
G1 X-18.732 Y-8.033 A239.17389
G1 X-8.060 Y-18.704 A239.96553
G1 X-8.655 Y-18.704 A239.99673
G1 X-18.732 Y-8.628 A240.74424
G1 X-18.732 Y-9.222 A240.77544
G1 X-9.250 Y-18.704 A241.47884
G1 X-9.845 Y-18.704 A241.51004
G1 X-18.732 Y-9.817 A242.16931
G1 X-18.732 Y-10.412 A242.20051
G1 X-10.439 Y-18.704 A242.81566
G1 X-11.034 Y-18.704 A242.84686
G1 X-18.732 Y-11.007 A243.41789
G1 X-18.732 Y-11.601 A243.44909
G1 X-11.629 Y-18.704 A243.97600
G1 X-12.224 Y-18.704 A244.00720
G1 X-18.732 Y-12.196 A244.48999
G1 X-18.732 Y-12.791 A244.52119
G1 X-12.818 Y-18.704 A244.95985
G1 X-13.413 Y-18.704 A244.99105
G1 X-18.732 Y-13.386 A245.38560
G1 X-18.732 Y-13.980 A245.41680
G1 X-14.008 Y-18.704 A245.76722
G1 X-14.603 Y-18.704 A245.79842
G1 X-18.732 Y-14.575 A246.10472
G1 X-18.690 Y-15.212 A246.13817
G1 X-15.197 Y-18.704 A246.39727
G1 X-15.933 Y-18.563 A246.43658
G1 X-18.546 Y-15.951 A246.63037
G1 X-17.770 Y-17.321 F7800.000
G1 X-17.232 Y-17.860 A246.67029 F1800.000
G1 X-12.957 Y-7.860 F7800.000
G1 X-18.732 Y-2.085 A247.09870 F1800.000
G1 X-18.732 Y-1.490 A247.12990
G1 X-13.614 Y-6.608 A247.50951
G1 Z0.900 F7800.000
G1 X-14.782 Y0.335 F7800.000
G1 A272.16897 F2400.000 ; pressure advance
G92 A247.50951 ; restore E
G1 X-14.803 Y-0.000 A247.52702 F3600.000
G1 X-14.687 Y-1.856 A247.62416
G1 X-14.338 Y-3.682 A247.72128
G1 X-13.763 Y-5.453 A247.81859
G1 X-12.914 Y-7.224 A247.92117
G1 X-11.976 Y-8.701 A248.01262
G1 X-10.791 Y-10.134 A248.10973
G1 X-9.436 Y-11.406 A248.20685
G1 X-7.937 Y-12.496 A248.30369
G1 X-6.303 Y-13.395 A248.40113
G1 X-4.569 Y-14.080 A248.49851
G1 X-2.774 Y-14.541 A248.59535
G1 X-0.929 Y-14.774 A248.69248 F3600.000
G1 X0.934 Y-14.774 A248.78985
G1 X2.774 Y-14.541 A248.88672
G1 X4.574 Y-14.079 A248.98383
G1 X6.303 Y-13.395 A249.08095
G1 X7.932 Y-12.499 A249.17810
G1 X9.440 Y-11.402 A249.27550
G1 X10.791 Y-10.134 A249.37234
G1 X11.976 Y-8.701 A249.46945
G1 X12.972 Y-7.131 A249.56660
G1 X13.764 Y-5.449 A249.66371
G1 X14.338 Y-3.682 A249.76083
G1 X14.687 Y-1.856 A249.85795
G1 X14.797 Y-0.109 A249.94940
G1 X14.687 Y1.852 A250.05200
G1 X14.338 Y3.682 A250.14930
G1 X13.763 Y5.453 A250.24661
G1 X12.914 Y7.224 A250.34920
G1 X11.976 Y8.701 A250.44064
G1 X10.791 Y10.134 A250.53775
G1 X9.436 Y11.406 A250.63488
G1 X7.936 Y12.496 A250.73171
G1 X6.303 Y13.395 A250.82915
G1 X4.569 Y14.080 A250.92654
G1 X2.774 Y14.541 A251.02337
G1 X0.930 Y14.774 A251.12050
G1 X-0.930 Y14.774 A251.21762
G1 X-2.774 Y14.541 A251.31474
G1 X-4.574 Y14.079 A251.41185
G1 X-6.298 Y13.396 A251.50872
G1 X-7.936 Y12.496 A251.60639
G1 X-9.436 Y11.406 A251.70324
G1 X-10.791 Y10.134 A251.80036
G1 X-11.976 Y8.701 A251.89748
G1 X-12.914 Y7.224 A251.98892
G1 X-13.763 Y5.453 A252.09151
G1 X-14.338 Y3.682 A252.18881
G1 X-14.687 Y1.856 A252.28593
G1 X-14.779 Y0.395 A252.36242
G1 X-14.364 Y0.308 F7800.000
G1 X-14.384 Y-0.000 A252.37856 F3600.000
G1 X-14.270 Y-1.803 A252.47294
G1 X-13.932 Y-3.577 A252.56731
G1 X-13.373 Y-5.297 A252.66178
G1 X-12.547 Y-7.020 A252.76161
G1 X-11.636 Y-8.455 A252.85038
G1 X-10.485 Y-9.846 A252.94474
G1 X-9.168 Y-11.083 A253.03911
G1 X-7.712 Y-12.141 A253.13320
G1 X-6.124 Y-13.015 A253.22788
G1 X-4.440 Y-13.681 A253.32251
G1 X-2.695 Y-14.129 A253.41659
G1 X-0.903 Y-14.355 A253.51097 F3600.000
G1 X0.908 Y-14.355 A253.60558
G1 X2.695 Y-14.129 A253.69970
G1 X4.445 Y-13.680 A253.79406
G1 X6.124 Y-13.015 A253.88842
G1 X7.707 Y-12.144 A253.98282
G1 X9.172 Y-11.079 A254.07747
G1 X10.485 Y-9.846 A254.17155
G1 X11.636 Y-8.455 A254.26591
G1 X12.605 Y-6.929 A254.36031
G1 X13.374 Y-5.295 A254.45467
G1 X13.932 Y-3.577 A254.54903
G1 X14.270 Y-1.803 A254.64339
G1 X14.377 Y-0.107 A254.73217
G1 X14.271 Y1.801 A254.83201
G1 X13.932 Y3.577 A254.92649
G1 X13.373 Y5.297 A255.02096
G1 X12.547 Y7.020 A255.12079
G1 X11.636 Y8.455 A255.20956
G1 X10.485 Y9.846 A255.30392
G1 X9.168 Y11.083 A255.39829
G1 X7.712 Y12.141 A255.49238
G1 X6.124 Y13.015 A255.58706
G1 X4.440 Y13.681 A255.68169
G1 X2.695 Y14.129 A255.77577
G1 X0.903 Y14.355 A255.87014
G1 X-0.903 Y14.355 A255.96451
G1 X-2.695 Y14.129 A256.05888
G1 X-4.445 Y13.680 A256.15324
G1 X-6.119 Y13.017 A256.24735
G1 X-7.711 Y12.141 A256.34227
G1 X-9.168 Y11.083 A256.43636
G1 X-10.485 Y9.846 A256.53073
G1 X-11.636 Y8.455 A256.62509
G1 X-12.547 Y7.020 A256.71386
G1 X-13.373 Y5.297 A256.81370
G1 X-13.932 Y3.577 A256.90817
G1 X-14.270 Y1.803 A257.00253
G1 X-14.361 Y0.368 A257.07764
G1 X-13.988 Y0.285 F7800.000
G1 A232.40753 F2400.000 ; pressure advance
G92 A257.07764 ; restore E
G1 X-14.006 Y-0.000 A257.08958 F1800.000
G1 X-13.895 Y-1.756 A257.16322
G1 X-13.566 Y-3.483 A257.23684
G1 X-13.022 Y-5.157 A257.31049
G1 X-12.216 Y-6.837 A257.38849
G1 X-11.331 Y-8.233 A257.45769
G1 X-10.210 Y-9.588 A257.53130
G1 X-8.928 Y-10.792 A257.60493
G1 X-7.509 Y-11.822 A257.67833
G1 X-5.963 Y-12.673 A257.75220
G1 X-4.323 Y-13.322 A257.82603
G1 X-2.624 Y-13.758 A257.89943
G1 X-0.879 Y-13.978 A257.97306 F1800.000
G1 X0.884 Y-13.977 A258.04688
G1 X2.624 Y-13.758 A258.12031
G1 X4.328 Y-13.320 A258.19392
G1 X5.963 Y-12.673 A258.26754
G1 X7.505 Y-11.825 A258.34119
G1 X8.931 Y-10.788 A258.41503
G1 X10.210 Y-9.588 A258.48843
G1 X11.331 Y-8.233 A258.56205
G1 X12.273 Y-6.747 A258.63570
G1 X13.022 Y-5.156 A258.70931
G1 X13.566 Y-3.483 A258.78293
G1 X13.895 Y-1.756 A258.85655
G1 X13.999 Y-0.106 A258.92575
G1 X13.895 Y1.755 A259.00376
G1 X13.566 Y3.483 A259.07741
G1 X13.022 Y5.157 A259.15106
G1 X12.216 Y6.837 A259.22907
G1 X11.331 Y8.233 A259.29826
G1 X10.210 Y9.588 A259.37188
G1 X8.928 Y10.792 A259.44550
G1 X7.509 Y11.822 A259.51891
G1 X5.963 Y12.673 A259.59277
G1 X4.323 Y13.322 A259.66660
G1 X2.624 Y13.758 A259.74000
G1 X0.879 Y13.978 A259.81363
G1 X-0.879 Y13.978 A259.88726
G1 X-2.624 Y13.758 A259.96088
G1 X-4.328 Y13.320 A260.03450
G1 X-5.958 Y12.675 A260.10791
G1 X-7.509 Y11.822 A260.18198
G1 X-8.928 Y10.792 A260.25538
G1 X-10.210 Y9.588 A260.32901
G1 X-11.331 Y8.233 A260.40262
G1 X-12.216 Y6.837 A260.47182
G1 X-13.022 Y5.157 A260.54982
G1 X-13.566 Y3.483 A260.62347
G1 X-13.895 Y1.756 A260.69709
G1 X-13.984 Y0.345 A260.75628
G1 X-14.243 Y0.158 F7800.000
G1 X-19.004 Y0.285 F7800.000
G1 A285.51310 F2400.000 ; pressure advance
G92 A260.75628 ; restore E
G1 X-19.004 Y-14.948 A261.55210 F3600.000
G1 X-18.911 Y-15.831 A261.59851
G1 X-18.653 Y-16.626 A261.64218
G1 X-18.235 Y-17.350 A261.68585
G1 X-17.675 Y-17.971 A261.72952
G1 X-16.999 Y-18.463 A261.77319
G1 X-16.236 Y-18.803 A261.81687
G1 X-15.418 Y-18.976 A261.86054
G1 X15.418 Y-18.976 A263.47155
G1 X16.236 Y-18.803 A263.51523
G1 X16.999 Y-18.463 A263.55890 F3600.000
G1 X17.675 Y-17.971 A263.60257
G1 X18.235 Y-17.350 A263.64624
G1 X18.653 Y-16.626 A263.68991
G1 X18.911 Y-15.831 A263.73358
G1 X19.004 Y-14.948 A263.77999
G1 X19.004 Y14.948 A265.34189
G1 X18.911 Y15.831 A265.38830
G1 X18.653 Y16.626 A265.43197
G1 X18.235 Y17.350 A265.47564
G1 X17.675 Y17.971 A265.51931
G1 X16.999 Y18.463 A265.56298
G1 X16.236 Y18.803 A265.60665
G1 X15.418 Y18.976 A265.65033
G1 X-15.418 Y18.976 A267.26134
G1 X-16.236 Y18.803 A267.30501
G1 X-16.999 Y18.463 A267.34868
G1 X-17.675 Y17.971 A267.39236
G1 X-18.235 Y17.350 A267.43603
G1 X-18.653 Y16.626 A267.47970
G1 X-18.911 Y15.831 A267.52337
G1 X-19.004 Y14.948 A267.56978
G1 X-19.004 Y0.345 A268.33272
G1 X-19.423 Y0.285 F7800.000
G1 X-19.423 Y-14.970 A269.12969 F3600.000
G1 X-19.323 Y-15.919 A269.17955
G1 X-19.037 Y-16.798 A269.22782
G1 X-18.576 Y-17.598 A269.27609
G1 X-17.957 Y-18.284 A269.32436
G1 X-17.210 Y-18.827 A269.37263
G1 X-16.366 Y-19.203 A269.42090
G1 X-15.462 Y-19.395 A269.46917
G1 X15.462 Y-19.395 A271.08479
G1 X16.366 Y-19.203 A271.13306
G1 X17.210 Y-18.827 A271.18133 F3600.000
G1 X17.957 Y-18.284 A271.22961
G1 X18.576 Y-17.598 A271.27788
G1 X19.037 Y-16.798 A271.32615
G1 X19.323 Y-15.919 A271.37442
G1 X19.423 Y-14.970 A271.42428
G1 X19.423 Y14.970 A272.98846
G1 X19.323 Y15.919 A273.03833
G1 X19.037 Y16.798 A273.08660
G1 X18.576 Y17.598 A273.13487
G1 X17.957 Y18.284 A273.18314
G1 X17.210 Y18.827 A273.23141
G1 X16.366 Y19.203 A273.27968
G1 X15.462 Y19.395 A273.32795
G1 X-15.462 Y19.395 A274.94357
G1 X-16.366 Y19.203 A274.99184
G1 X-17.210 Y18.827 A275.04011
G1 X-17.957 Y18.284 A275.08839
G1 X-18.576 Y17.598 A275.13666
G1 X-19.037 Y16.798 A275.18493
G1 X-19.323 Y15.919 A275.23320
G1 X-19.423 Y14.970 A275.28306
G1 X-19.423 Y0.345 A276.04715
G1 X-19.800 Y0.285 F7800.000
G1 A251.30083 F2400.000 ; pressure advance
G92 A276.04715 ; restore E
G1 X-19.800 Y-14.990 A276.68653 F1800.000
G1 X-19.694 Y-15.998 A276.72897
G1 X-19.384 Y-16.952 A276.77096
G1 X-18.882 Y-17.821 A276.81295
G1 X-18.211 Y-18.566 A276.85495
G1 X-17.399 Y-19.156 A276.89695
G1 X-16.483 Y-19.564 A276.93894
G1 X-15.502 Y-19.773 A276.98094
G1 X15.502 Y-19.773 A278.27874
G1 X16.483 Y-19.564 A278.32074
G1 X17.399 Y-19.156 A278.36274 F1800.000
G1 X18.211 Y-18.566 A278.40473
G1 X18.882 Y-17.821 A278.44673
G1 X19.384 Y-16.952 A278.48872
G1 X19.694 Y-15.998 A278.53072
G1 X19.800 Y-14.990 A278.57316
G1 X19.800 Y14.990 A279.82809
G1 X19.694 Y15.998 A279.87053
G1 X19.384 Y16.952 A279.91252
G1 X18.882 Y17.821 A279.95452
G1 X18.211 Y18.566 A279.99651
G1 X17.399 Y19.156 A280.03851
G1 X16.483 Y19.564 A280.08051
G1 X15.502 Y19.773 A280.12250
G1 X-15.502 Y19.773 A281.42031
G1 X-16.483 Y19.564 A281.46230
G1 X-17.399 Y19.156 A281.50430
G1 X-18.211 Y18.566 A281.54630
G1 X-18.882 Y17.821 A281.58829
G1 X-19.384 Y16.952 A281.63029
G1 X-19.694 Y15.998 A281.67228
G1 X-19.800 Y14.990 A281.71472
G1 X-19.800 Y0.345 A282.32776
G1 X-19.454 Y0.085 F7800.000
G1 X-13.623 Y6.599 F7800.000
G1 X-18.732 Y1.490 A282.70673 F1800.000
G1 X-18.732 Y0.896 A282.73793
G1 X-14.106 Y5.521 A283.08107
G1 X-14.392 Y4.640 A283.12966
G1 X-18.732 Y0.301 A283.45157
G1 X-18.732 Y-0.294 A283.48277
G1 X-14.660 Y3.778 A283.78482
G1 X-14.800 Y3.043 A283.82407
G1 X-18.732 Y-0.889 A284.11572
G1 X-18.732 Y-1.483 A284.14692
G1 X-14.940 Y2.308 A284.42817
G1 X-15.023 Y1.631 A284.46396
G1 X-18.732 Y-2.078 A284.73909
G1 X-18.732 Y-2.673 A284.77028
G1 X-15.063 Y0.996 A285.04244
G1 X-15.103 Y0.361 A285.07580
G1 X-18.732 Y-3.268 A285.34500
G1 X-18.732 Y-3.863 A285.37620
G1 X-15.099 Y-0.230 A285.64569
G1 X-15.064 Y-0.790 A285.67512
G1 X-18.732 Y-4.457 A285.94720
G1 X-18.732 Y-5.052 A285.97840
G1 X-15.029 Y-1.350 A286.25306
G1 X-14.984 Y-1.900 A286.28200
G1 X-18.732 Y-5.647 A286.55999
G1 X-18.732 Y-6.242 A286.59119
G1 X-14.889 Y-2.399 A286.87624
G1 X-14.794 Y-2.898 A286.90291
G1 X-18.732 Y-6.836 A287.19503
G1 X-18.732 Y-7.431 A287.22623
G1 X-14.699 Y-3.398 A287.52542
G1 X-14.583 Y-3.877 A287.55127
G1 X-18.732 Y-8.026 A287.85906
G1 X-18.732 Y-8.621 A287.89025
G1 X-14.437 Y-4.326 A288.20886
G1 X-14.291 Y-4.775 A288.23362
G1 X-18.732 Y-9.215 A288.56305
G1 X-18.732 Y-9.810 A288.59425
G1 X-14.145 Y-5.224 A288.93450
G1 X-13.983 Y-5.656 A288.95873
G1 X-18.732 Y-10.405 A289.31102
G1 X-18.732 Y-11.000 A289.34222
G1 X-13.791 Y-6.059 A289.70873
G1 X-13.599 Y-6.462 A289.73214
G1 X-18.732 Y-11.594 A290.11288
G1 X-18.732 Y-12.189 A290.14408
G1 X-13.407 Y-6.865 A290.53904
G1 X-13.216 Y-7.268 A290.56245
G1 X-18.732 Y-12.784 A290.97165
G1 X-18.732 Y-13.379 A291.00285
G1 X-12.987 Y-7.634 A291.42899
G1 X-12.756 Y-7.998 A291.45159
G1 X-18.732 Y-13.974 A291.89486
G1 X-18.732 Y-14.568 A291.92606
G1 X-12.525 Y-8.362 A292.38646
G1 X-12.294 Y-8.726 A292.40906
G1 X-18.716 Y-15.147 A292.88540
G1 X-18.659 Y-15.685 A292.91378
G1 X-12.038 Y-9.065 A293.40492
G1 X-11.769 Y-9.390 A293.42708
G1 X-18.536 Y-16.157 A293.92909
G1 X-18.382 Y-16.598 A293.95357
G1 X-11.500 Y-9.716 A294.46410
G1 X-11.231 Y-10.041 A294.48626
G1 X-18.164 Y-16.975 A295.00061
G1 X-17.923 Y-17.329 A295.02307
G1 X-10.956 Y-10.361 A295.53991
G1 X-10.649 Y-10.649 A295.56198
G1 X-17.634 Y-17.634 A296.08014
G1 X-17.326 Y-17.920 A296.10222
G1 X-10.343 Y-10.938 A296.62023
G1 X-10.036 Y-11.226 A296.64230
G1 X-16.981 Y-18.171 A297.15751
G1 X-16.587 Y-18.371 A297.18072
G1 X-9.729 Y-11.514 A297.68941
G1 X-9.400 Y-11.779 A297.71160
G1 X-16.171 Y-18.550 A298.21390
G1 X-15.681 Y-18.655 A298.24020
G1 X-9.056 Y-12.029 A298.73167
G1 X-8.711 Y-12.280 A298.75401
G1 X-15.136 Y-18.704 A299.23061
G1 X-14.541 Y-18.704 A299.26180
G1 X-8.367 Y-12.530 A299.71983
G1 X-8.017 Y-12.776 A299.74222
G1 X-13.946 Y-18.704 A300.18203
G1 X-13.351 Y-18.704 A300.21323
G1 X-7.634 Y-12.987 A300.63739
G1 X-7.250 Y-13.198 A300.66036
G1 X-12.757 Y-18.704 A301.06885
G1 X-12.162 Y-18.704 A301.10005
G1 X-6.866 Y-13.409 A301.49289
G1 X-6.483 Y-13.620 A301.51586
G1 X-11.567 Y-18.704 A301.89305
G1 X-10.972 Y-18.704 A301.92424
G1 X-6.067 Y-13.799 A302.28813
G1 X-5.641 Y-13.968 A302.31216
G1 X-10.378 Y-18.704 A302.66353
G1 X-9.783 Y-18.704 A302.69473
G1 X-5.215 Y-14.136 A303.03358
G1 X-4.789 Y-14.305 A303.05762
G1 X-9.188 Y-18.704 A303.38396
G1 X-8.593 Y-18.704 A303.41516
G1 X-4.335 Y-14.446 A303.73102
G1 X-3.862 Y-14.568 A303.75665
G1 X-7.998 Y-18.704 A304.06350
G1 X-7.404 Y-18.704 A304.09470
G1 X-3.389 Y-14.689 A304.39254
G1 X-2.916 Y-14.811 A304.41817
G1 X-6.809 Y-18.704 A304.70699
G1 X-6.214 Y-18.704 A304.73819
G1 X-2.405 Y-14.895 A305.02074
G1 X-1.877 Y-14.962 A305.04866
G1 X-5.619 Y-18.704 A305.32626
G1 X-5.025 Y-18.704 A305.35746
G1 X-1.349 Y-15.029 A305.63011
G1 X-0.816 Y-15.090 A305.65828
G1 X-4.430 Y-18.704 A305.92641
G1 X-3.835 Y-18.704 A305.95760
G1 X-0.221 Y-15.090 A306.22573
G1 X0.374 Y-15.090 A306.25692
G1 X-3.240 Y-18.704 A306.52505
G1 X-2.646 Y-18.704 A306.55625
G1 X0.969 Y-15.090 A306.82437
G1 X1.639 Y-15.015 A306.85973
G1 X-2.051 Y-18.704 A307.13343
G1 X-1.456 Y-18.704 A307.16462
G1 X2.319 Y-14.929 A307.44470
G1 X3.011 Y-14.832 A307.48133
G1 X-0.861 Y-18.704 A307.76859
G1 X-0.267 Y-18.704 A307.79979
G1 X3.811 Y-14.627 A308.10228
G1 X4.611 Y-14.421 A308.14562
G1 X0.328 Y-18.704 A308.46335
G1 X0.923 Y-18.704 A308.49455
G1 X5.555 Y-14.072 A308.83818
G1 X6.540 Y-13.682 F7800.000
G1 X1.518 Y-18.704 A309.21073 F1800.000
G1 X2.113 Y-18.704 A309.24192
G1 X7.853 Y-12.964 A309.66778
G1 X9.778 Y-11.633 F7800.000
G1 X2.707 Y-18.704 A310.19232 F1800.000
G1 X3.302 Y-18.704 A310.22351
G1 X18.732 Y-3.275 A311.36812
G1 X18.732 Y-3.869 A311.39932
G1 X3.897 Y-18.704 A312.49981
G1 X4.492 Y-18.704 A312.53100
G1 X18.732 Y-4.464 A313.58737
G1 X18.732 Y-5.059 A313.61857
G1 X5.086 Y-18.704 A314.63081
G1 X5.681 Y-18.704 A314.66201
G1 X18.732 Y-5.654 A315.63013
G1 X18.732 Y-6.249 A315.66133
G1 X6.276 Y-18.704 A316.58533
G1 X6.871 Y-18.704 A316.61653
G1 X18.732 Y-6.843 A317.49641
G1 X18.732 Y-7.438 A317.52761
G1 X7.465 Y-18.704 A318.36337
G1 X8.060 Y-18.704 A318.39457
G1 X18.732 Y-8.033 A319.18620
G1 X18.732 Y-8.628 A319.21740
G1 X8.655 Y-18.704 A319.96492
G1 X9.250 Y-18.704 A319.99612
G1 X18.732 Y-9.222 A320.69951
G1 X18.732 Y-9.817 A320.73071
G1 X9.845 Y-18.704 A321.38998
G1 X10.439 Y-18.704 A321.42118
G1 X18.732 Y-10.412 A322.03633
G1 X18.732 Y-11.007 A322.06753
G1 X11.034 Y-18.704 A322.63856
G1 X11.629 Y-18.704 A322.66976
G1 X18.732 Y-11.601 A323.19667
G1 X18.732 Y-12.196 A323.22787
G1 X12.224 Y-18.704 A323.71065
G1 X12.818 Y-18.704 A323.74185
G1 X18.732 Y-12.791 A324.18052
G1 X18.732 Y-13.386 A324.21172
G1 X13.413 Y-18.704 A324.60626
G1 X14.008 Y-18.704 A324.63746
G1 X18.732 Y-13.980 A324.98788
G1 X18.732 Y-14.575 A325.01908
G1 X14.603 Y-18.704 A325.32539
G1 X15.197 Y-18.704 A325.35658
G1 X18.690 Y-15.212 A325.61568
G1 X18.546 Y-15.951 A325.65519
G1 X15.933 Y-18.563 A325.84897
G1 X17.232 Y-17.860 F7800.000
G1 X17.770 Y-17.321 A325.88890 F1800.000
G1 X11.411 Y-10.000 F7800.000
G1 X18.732 Y-2.680 A326.43194 F1800.000
G1 X18.732 Y-2.085 A326.46314
G1 X12.957 Y-7.860 A326.89154
G1 X13.615 Y-6.608 F7800.000
G1 X18.732 Y-1.490 A327.27115 F1800.000
G1 X18.732 Y-0.896 A327.30234
G1 X14.106 Y-5.521 A327.64549
G1 X14.392 Y-4.640 A327.69408
G1 X18.732 Y-0.301 A328.01599
G1 X18.732 Y0.294 A328.04719
G1 X14.660 Y-3.778 A328.34924
G1 X14.800 Y-3.043 A328.38849
G1 X18.732 Y0.889 A328.68014
G1 X18.732 Y1.483 A328.71134
G1 X14.940 Y-2.308 A328.99259
G1 X15.023 Y-1.631 A329.02838
G1 X18.732 Y2.078 A329.30350
G1 X18.732 Y2.673 A329.33470
G1 X15.063 Y-0.996 A329.60686
G1 X15.103 Y-0.361 A329.64022
G1 X18.732 Y3.268 A329.90942
G1 X18.732 Y3.863 A329.94062
G1 X15.100 Y0.231 A330.21004
G1 X15.065 Y0.790 A330.23945
G1 X18.732 Y4.457 A330.51148
G1 X18.732 Y5.052 A330.54268
G1 X15.029 Y1.350 A330.81732
G1 X14.984 Y1.900 A330.84625
G1 X18.732 Y5.647 A331.12424
G1 X18.732 Y6.242 A331.15543
G1 X14.889 Y2.399 A331.44049
G1 X14.794 Y2.898 A331.46716
G1 X18.732 Y6.836 A331.75928
G1 X18.732 Y7.431 A331.79048
G1 X14.699 Y3.398 A332.08967
G1 X14.583 Y3.877 A332.11552
G1 X18.732 Y8.026 A332.42331
G1 X18.732 Y8.621 A332.45450
G1 X14.437 Y4.326 A332.77312
G1 X14.291 Y4.775 A332.79788
G1 X18.732 Y9.215 A333.12731
G1 X18.732 Y9.810 A333.15850
G1 X14.145 Y5.224 A333.49876
G1 X13.983 Y5.656 A333.52299
G1 X18.732 Y10.405 A333.87527
G1 X18.732 Y11.000 A333.90647
G1 X13.791 Y6.059 A334.27298
G1 X13.599 Y6.462 A334.29639
G1 X18.732 Y11.594 A334.67713
G1 X18.732 Y12.189 A334.70833
G1 X13.407 Y6.865 A335.10330
G1 X13.216 Y7.268 A335.12671
G1 X18.732 Y12.784 A335.53591
G1 X18.732 Y13.379 A335.56711
G1 X12.987 Y7.634 A335.99324
G1 X12.756 Y7.998 A336.01585
G1 X18.732 Y13.974 A336.45912
G1 X18.732 Y14.568 A336.49032
G1 X12.525 Y8.362 A336.95072
G1 X12.294 Y8.726 A336.97332
G1 X18.716 Y15.147 A337.44966
G1 X18.659 Y15.685 A337.47804
G1 X12.038 Y9.065 A337.96918
G1 X11.769 Y9.390 A337.99134
G1 X18.536 Y16.157 A338.49335
G1 X18.382 Y16.598 A338.51782
G1 X11.500 Y9.716 A339.02835
G1 X11.231 Y10.041 A339.05051
G1 X18.164 Y16.975 A339.56487
G1 X17.923 Y17.329 A339.58733
G1 X10.956 Y10.361 A340.10417
G1 X10.649 Y10.649 A340.12624
G1 X17.634 Y17.634 A340.64440
G1 X17.326 Y17.920 A340.66648
G1 X10.343 Y10.938 A341.18449
G1 X10.036 Y11.226 A341.20656
G1 X16.981 Y18.171 A341.72177
G1 X16.587 Y18.371 A341.74498
G1 X9.729 Y11.514 A342.25367
G1 X9.400 Y11.779 A342.27585
G1 X16.171 Y18.550 A342.77816
G1 X15.681 Y18.655 A342.80446
G1 X9.056 Y12.029 A343.29593
G1 X8.711 Y12.280 A343.31827
G1 X15.136 Y18.704 A343.79486
G1 X14.541 Y18.704 A343.82606
G1 X8.367 Y12.530 A344.28409
G1 X8.017 Y12.776 A344.30648
G1 X13.946 Y18.704 A344.74629
G1 X13.351 Y18.704 A344.77749
G1 X7.634 Y12.987 A345.20164
G1 X7.250 Y13.198 A345.22461
G1 X12.757 Y18.704 A345.63311
G1 X12.162 Y18.704 A345.66431
G1 X6.866 Y13.409 A346.05715
G1 X6.483 Y13.620 A346.08012
G1 X11.567 Y18.704 A346.45730
G1 X10.972 Y18.704 A346.48850
G1 X6.067 Y13.799 A346.85238
G1 X5.641 Y13.968 A346.87642
G1 X10.378 Y18.704 A347.22779
G1 X9.783 Y18.704 A347.25899
G1 X5.215 Y14.136 A347.59784
G1 X4.789 Y14.305 A347.62188
G1 X9.188 Y18.704 A347.94822
G1 X8.593 Y18.704 A347.97942
G1 X4.335 Y14.446 A348.29528
G1 X3.862 Y14.568 A348.32091
G1 X7.998 Y18.704 A348.62776
G1 X7.404 Y18.704 A348.65896
G1 X3.389 Y14.689 A348.95680
G1 X2.916 Y14.811 A348.98243
G1 X6.809 Y18.704 A349.27125
G1 X6.214 Y18.704 A349.30245
G1 X2.405 Y14.895 A349.58500
G1 X1.877 Y14.962 A349.61292
G1 X5.619 Y18.704 A349.89051
G1 X5.025 Y18.704 A349.92171
G1 X1.349 Y15.029 A350.19436
G1 X0.816 Y15.090 A350.22253
G1 X4.430 Y18.704 A350.49064
G1 X3.835 Y18.704 A350.52184
G1 X0.218 Y15.087 A350.79016
G1 X-0.379 Y15.085 A350.82150
G1 X3.240 Y18.704 A351.09002
G1 X2.646 Y18.704 A351.12122
G1 X-0.977 Y15.082 A351.38994
G1 X-1.639 Y15.015 A351.42484
G1 X2.051 Y18.704 A351.69853
G1 X1.456 Y18.704 A351.72973
G1 X-2.319 Y14.929 A352.00981
G1 X-3.011 Y14.832 A352.04644
G1 X0.861 Y18.704 A352.33370
G1 X0.267 Y18.704 A352.36489
G1 X-3.811 Y14.627 A352.66739
G1 X-4.611 Y14.421 A352.71073
G1 X-0.328 Y18.704 A353.02846
G1 X-0.923 Y18.704 A353.05966
G1 X-5.555 Y14.072 A353.40329
G1 X-6.540 Y13.682 F7800.000
G1 X-1.518 Y18.704 A353.77584 F1800.000
G1 X-2.113 Y18.704 A353.80703
G1 X-7.853 Y12.964 A354.23284
G1 X-9.780 Y11.632 F7800.000
G1 X-2.707 Y18.704 A354.75751 F1800.000
G1 X-3.302 Y18.704 A354.78871
G1 X-18.732 Y3.275 A355.93332
G1 X-18.732 Y3.869 A355.96452
G1 X-3.897 Y18.704 A357.06500
G1 X-4.492 Y18.704 A357.09620
G1 X-18.732 Y4.464 A358.15257
G1 X-18.732 Y5.059 A358.18376
G1 X-5.086 Y18.704 A359.19601
G1 X-5.681 Y18.704 A359.22721
G1 X-18.732 Y5.654 A360.19533
G1 X-18.732 Y6.249 A360.22653
G1 X-6.276 Y18.704 A361.15053
G1 X-6.871 Y18.704 A361.18172
G1 X-18.732 Y6.843 A362.06160
G1 X-18.732 Y7.438 A362.09280
G1 X-7.465 Y18.704 A362.92856
G1 X-8.060 Y18.704 A362.95976
G1 X-18.732 Y8.033 A363.75139
G1 X-18.732 Y8.628 A363.78259
G1 X-8.655 Y18.704 A364.53011
G1 X-9.250 Y18.704 A364.56131
G1 X-18.732 Y9.222 A365.26470
G1 X-18.732 Y9.817 A365.29590
G1 X-9.845 Y18.704 A365.95517
G1 X-10.439 Y18.704 A365.98637
G1 X-18.732 Y10.412 A366.60152
G1 X-18.732 Y11.007 A366.63272
G1 X-11.034 Y18.704 A367.20375
G1 X-11.629 Y18.704 A367.23495
G1 X-18.732 Y11.601 A367.76186
G1 X-18.732 Y12.196 A367.79305
G1 X-12.224 Y18.704 A368.27584
G1 X-12.818 Y18.704 A368.30704
G1 X-18.732 Y12.791 A368.74571
G1 X-18.732 Y13.386 A368.77690
G1 X-13.413 Y18.704 A369.17145
G1 X-14.008 Y18.704 A369.20265
G1 X-18.732 Y13.980 A369.55307
G1 X-18.732 Y14.575 A369.58427
G1 X-14.603 Y18.704 A369.89057
G1 X-15.197 Y18.704 A369.92177
G1 X-18.690 Y15.212 A370.18087
G1 X-18.546 Y15.951 A370.22037
G1 X-15.933 Y18.563 A370.41416
G1 X-17.232 Y17.860 F7800.000
G1 X-17.770 Y17.321 A370.45408 F1800.000
G1 X-11.411 Y10.000 F7800.000
G1 X-18.732 Y2.680 A370.99712 F1800.000
G1 X-18.732 Y2.085 A371.02832
G1 X-12.956 Y7.861 A371.45679
M106 P201.45
G1 Z1.200 F7800.000
G1 X-14.735 Y-0.000 F7800.000
G1 A396.20523 F2400.000 ; pressure advance
G92 A371.45679 ; restore E
G1 X-14.618 Y-1.847 A371.55348 F3600.000
G1 X-14.272 Y-3.664 A371.65015
G1 X-13.700 Y-5.424 A371.74681
G1 X-12.912 Y-7.098 A371.84348
G1 X-12.799 Y-7.276 A371.85447
G1 X-11.920 Y-8.661 A371.94017
G1 X-10.741 Y-10.087 A372.03683
G1 X-9.392 Y-11.353 A372.13351
G1 X-7.895 Y-12.441 A372.23017
G1 X-6.277 Y-13.331 A372.32666
G1 X-4.553 Y-14.014 A372.42355
G1 X-2.761 Y-14.474 A372.52020
G1 X-0.925 Y-14.706 A372.61688
G1 X0.925 Y-14.706 A372.71355 F3600.000
G1 X2.761 Y-14.474 A372.81022
G1 X4.553 Y-14.014 A372.90688
G1 X6.267 Y-13.335 A373.00320
G1 X7.901 Y-12.437 A373.10062
G1 X9.392 Y-11.353 A373.19691
G1 X10.741 Y-10.087 A373.29359
G1 X11.920 Y-8.661 A373.39025
G1 X12.912 Y-7.098 A373.48695
G1 X13.700 Y-5.424 A373.58361
G1 X14.272 Y-3.664 A373.68027
G1 X14.618 Y-1.847 A373.77694
G1 X14.735 Y-0.000 A373.87363
G1 X14.618 Y1.847 A373.97032
G1 X14.272 Y3.664 A374.06698
G1 X13.700 Y5.424 A374.16365
G1 X12.912 Y7.098 A374.26031
G1 X12.799 Y7.276 A374.27130
G1 X11.920 Y8.661 A374.35701
G1 X10.741 Y10.087 A374.45367
G1 X9.392 Y11.353 A374.55034
G1 X7.901 Y12.437 A374.64663
G1 X6.274 Y13.332 A374.74366
G1 X4.553 Y14.014 A374.84038
G1 X2.761 Y14.474 A374.93704
G1 X0.925 Y14.706 A375.03371
G1 X-0.925 Y14.706 A375.13038
G1 X-2.761 Y14.474 A375.22706
G1 X-4.553 Y14.014 A375.32371
G1 X-6.267 Y13.335 A375.42003
G1 X-7.901 Y12.437 A375.51745
G1 X-9.392 Y11.353 A375.61375
G1 X-10.741 Y10.087 A375.71042
G1 X-11.920 Y8.661 A375.80708
G1 X-12.912 Y7.098 A375.90378
G1 X-13.700 Y5.424 A376.00044
G1 X-14.272 Y3.664 A376.09711
G1 X-14.618 Y1.847 A376.19377
G1 X-14.731 Y0.060 A376.28733
G1 X-14.315 Y-0.000 F7800.000
G1 X-14.202 Y-1.794 A376.38126 F3600.000
G1 X-13.865 Y-3.560 A376.47517
G1 X-13.310 Y-5.270 A376.56909
G1 X-12.544 Y-6.896 A376.66299
G1 X-12.446 Y-7.051 A376.67261
G1 X-11.581 Y-8.414 A376.75694
G1 X-10.435 Y-9.799 A376.85084
G1 X-9.125 Y-11.030 A376.94476
G1 X-7.670 Y-12.086 A377.03868
G1 X-6.098 Y-12.951 A377.13241
G1 X-4.423 Y-13.614 A377.22654
G1 X-2.682 Y-14.061 A377.32045
G1 X-0.899 Y-14.287 A377.41437
G1 X0.899 Y-14.287 A377.50829 F3600.000
G1 X2.682 Y-14.061 A377.60221
G1 X4.423 Y-13.614 A377.69611
G1 X6.088 Y-12.955 A377.78967
G1 X7.676 Y-12.082 A377.88434
G1 X9.125 Y-11.030 A377.97788
G1 X10.435 Y-9.799 A378.07180
G1 X11.581 Y-8.414 A378.16571
G1 X12.544 Y-6.896 A378.25965
G1 X13.310 Y-5.270 A378.35356
G1 X13.865 Y-3.560 A378.44747
G1 X14.202 Y-1.794 A378.54138
G1 X14.315 Y-0.000 A378.63532
G1 X14.202 Y1.794 A378.72925
G1 X13.865 Y3.560 A378.82317
G1 X13.310 Y5.270 A378.91708
G1 X12.544 Y6.896 A379.01099
G1 X12.446 Y7.051 A379.02060
G1 X11.581 Y8.414 A379.10493
G1 X10.435 Y9.799 A379.19884
G1 X9.125 Y11.030 A379.29276
G1 X7.676 Y12.082 A379.38629
G1 X6.095 Y12.952 A379.48058
G1 X4.423 Y13.614 A379.57453
G1 X2.682 Y14.061 A379.66844
G1 X0.899 Y14.287 A379.76236
G1 X-0.899 Y14.287 A379.85628
G1 X-2.682 Y14.061 A379.95020
G1 X-4.423 Y13.614 A380.04410
G1 X-6.088 Y12.955 A380.13766
G1 X-7.676 Y12.082 A380.23232
G1 X-9.125 Y11.030 A380.32587
G1 X-10.435 Y9.799 A380.41979
G1 X-11.581 Y8.414 A380.51370
G1 X-12.544 Y6.896 A380.60764
G1 X-13.310 Y5.270 A380.70155
G1 X-13.865 Y3.560 A380.79546
G1 X-14.202 Y1.794 A380.88937
G1 X-14.311 Y0.060 A380.98017
G1 X-13.937 Y-0.000 F7800.000
G1 A356.23294 F2400.000 ; pressure advance
G92 A380.98017 ; restore E
G1 X-13.827 Y-1.747 A381.05345 F1800.000
G1 X-13.499 Y-3.466 A381.12671
G1 X-12.958 Y-5.131 A381.19997
G1 X-12.213 Y-6.714 A381.27322
G1 X-12.127 Y-6.849 A381.27993
G1 X-11.275 Y-8.192 A381.34651
G1 X-10.160 Y-9.541 A381.41976
G1 X-8.884 Y-10.739 A381.49303
G1 X-7.468 Y-11.767 A381.56629
G1 X-5.937 Y-12.609 A381.63940
G1 X-4.306 Y-13.255 A381.71283
G1 X-2.612 Y-13.690 A381.78609
G1 X-0.875 Y-13.909 A381.85935
G1 X0.875 Y-13.909 A381.93261 F1800.000
G1 X2.612 Y-13.690 A382.00588
G1 X4.306 Y-13.255 A382.07913
G1 X5.927 Y-12.613 A382.15211
G1 X7.474 Y-11.763 A382.22597
G1 X8.884 Y-10.739 A382.29893
G1 X10.160 Y-9.541 A382.37220
G1 X11.275 Y-8.192 A382.44545
G1 X12.213 Y-6.714 A382.51874
G1 X12.958 Y-5.131 A382.59199
G1 X13.499 Y-3.466 A382.66525
G1 X13.827 Y-1.747 A382.73851
G1 X13.937 Y-0.000 A382.81179
G1 X13.827 Y1.747 A382.88506
G1 X13.499 Y3.466 A382.95832
G1 X12.958 Y5.131 A383.03158
G1 X12.213 Y6.714 A383.10483
G1 X12.127 Y6.849 A383.11154
G1 X11.275 Y8.192 A383.17812
G1 X10.160 Y9.540 A383.25137
G1 X8.884 Y10.739 A383.32464
G1 X7.474 Y11.763 A383.39760
G1 X5.934 Y12.610 A383.47115
G1 X4.306 Y13.255 A383.54444
G1 X2.612 Y13.690 A383.61769
G1 X0.875 Y13.909 A383.69096
G1 X-0.875 Y13.909 A383.76422
G1 X-2.612 Y13.690 A383.83749
G1 X-4.306 Y13.255 A383.91074
G1 X-5.927 Y12.613 A383.98372
G1 X-7.474 Y11.763 A384.05758
G1 X-8.884 Y10.739 A384.13054
G1 X-10.160 Y9.541 A384.20381
G1 X-11.275 Y8.192 A384.27706
G1 X-12.213 Y6.714 A384.35035
G1 X-12.958 Y5.131 A384.42360
G1 X-13.499 Y3.466 A384.49686
G1 X-13.827 Y1.747 A384.57012
G1 X-13.933 Y0.060 A384.64088
G1 X-14.279 Y-0.207 F7800.000
G1 X-19.004 Y-0.000 F7800.000
G1 A409.38744 F2400.000 ; pressure advance
G92 A384.64088 ; restore E
G1 X-19.004 Y-14.948 A385.42183 F3600.000
G1 X-18.911 Y-15.831 A385.46824
G1 X-18.653 Y-16.626 A385.51191
G1 X-18.235 Y-17.350 A385.55558
G1 X-17.675 Y-17.971 A385.59925
G1 X-16.999 Y-18.463 A385.64293
G1 X-16.236 Y-18.803 A385.68660
G1 X-15.418 Y-18.976 A385.73027
G1 X15.418 Y-18.976 A387.34128
G1 X15.878 Y-18.879 A387.36585
G1 X16.236 Y-18.803 A387.38496 F3600.000
G1 X16.999 Y-18.463 A387.42863
G1 X17.675 Y-17.971 A387.47230
G1 X18.235 Y-17.350 A387.51597
G1 X18.653 Y-16.626 A387.55964
G1 X18.911 Y-15.831 A387.60331
G1 X19.004 Y-14.948 A387.64973
G1 X19.004 Y14.948 A389.21162
G1 X18.911 Y15.831 A389.25803
G1 X18.653 Y16.626 A389.30170
G1 X18.235 Y17.350 A389.34537
G1 X17.675 Y17.971 A389.38904
G1 X16.999 Y18.463 A389.43271
G1 X16.236 Y18.803 A389.47638
G1 X15.418 Y18.976 A389.52006
G1 X-15.418 Y18.976 A391.13107
G1 X-16.236 Y18.803 A391.17474
G1 X-16.999 Y18.463 A391.21842
G1 X-17.675 Y17.971 A391.26209
G1 X-18.235 Y17.350 A391.30576
G1 X-18.653 Y16.626 A391.34943
G1 X-18.911 Y15.831 A391.39310
G1 X-19.004 Y14.948 A391.43951
G1 X-19.004 Y0.060 A392.21732
G1 X-19.423 Y-0.000 F7800.000
G1 X-19.423 Y-14.970 A392.99942 F3600.000
G1 X-19.323 Y-15.919 A393.04928
G1 X-19.037 Y-16.798 A393.09755
G1 X-18.576 Y-17.598 A393.14582
G1 X-17.957 Y-18.284 A393.19409
G1 X-17.210 Y-18.827 A393.24236
G1 X-16.366 Y-19.203 A393.29063
G1 X-15.462 Y-19.395 A393.33891
G1 X15.462 Y-19.395 A394.95452
G1 X15.965 Y-19.288 A394.98139
G1 X16.366 Y-19.203 A395.00279 F3600.000
G1 X17.210 Y-18.827 A395.05107
G1 X17.957 Y-18.284 A395.09934
G1 X18.576 Y-17.598 A395.14761
G1 X19.037 Y-16.798 A395.19588
G1 X19.323 Y-15.919 A395.24415
G1 X19.423 Y-14.970 A395.29401
G1 X19.423 Y14.970 A396.85820
G1 X19.323 Y15.919 A396.90806
G1 X19.037 Y16.798 A396.95633
G1 X18.576 Y17.598 A397.00460
G1 X17.957 Y18.284 A397.05287
G1 X17.210 Y18.827 A397.10114
G1 X16.366 Y19.203 A397.14941
G1 X15.462 Y19.395 A397.19769
G1 X-15.462 Y19.395 A398.81330
G1 X-16.366 Y19.203 A398.86157
G1 X-17.210 Y18.827 A398.90984
G1 X-17.957 Y18.284 A398.95812
G1 X-18.576 Y17.598 A399.00639
G1 X-19.037 Y16.798 A399.05466
G1 X-19.323 Y15.919 A399.10293
G1 X-19.423 Y14.970 A399.15279
G1 X-19.423 Y0.060 A399.93175
G1 X-19.800 Y-0.000 F7800.000
G1 A375.18412 F2400.000 ; pressure advance
G92 A399.93175 ; restore E
G1 X-19.800 Y-14.990 A400.55921 F1800.000
G1 X-19.694 Y-15.998 A400.60165
G1 X-19.384 Y-16.952 A400.64365
G1 X-18.882 Y-17.821 A400.68564
G1 X-18.211 Y-18.566 A400.72764
G1 X-17.399 Y-19.156 A400.76963
G1 X-16.483 Y-19.564 A400.81163
G1 X-15.502 Y-19.773 A400.85363
G1 X15.502 Y-19.773 A402.15143
G1 X16.043 Y-19.657 A402.17462
G1 X16.483 Y-19.564 A402.19343 F1800.000
G1 X17.399 Y-19.156 A402.23542
G1 X18.211 Y-18.566 A402.27742
G1 X18.882 Y-17.821 A402.31942
G1 X19.384 Y-16.952 A402.36141
G1 X19.694 Y-15.998 A402.40341
G1 X19.800 Y-14.990 A402.44584
G1 X19.800 Y14.990 A403.70078
G1 X19.694 Y15.998 A403.74322
G1 X19.384 Y16.952 A403.78521
G1 X18.882 Y17.821 A403.82720
G1 X18.211 Y18.566 A403.86920
G1 X17.399 Y19.156 A403.91120
G1 X16.483 Y19.564 A403.95319
G1 X15.502 Y19.773 A403.99519
G1 X-15.502 Y19.773 A405.29299
G1 X-16.483 Y19.564 A405.33499
G1 X-17.399 Y19.156 A405.37699
G1 X-18.211 Y18.566 A405.41899
G1 X-18.882 Y17.821 A405.46098
G1 X-19.384 Y16.952 A405.50297
G1 X-19.694 Y15.998 A405.54497
G1 X-19.800 Y14.990 A405.58741
G1 X-19.800 Y0.060 A406.21236
G1 X-19.454 Y-0.200 F7800.000
G1 X-14.842 Y2.781 F7800.000
G1 A453.87504 F2400.000 ; pressure advance
G92 A406.21236 ; restore E
G1 X-16.711 Y2.280 A406.31344 F4800.000
G1 X-18.592 Y4.162 A406.45243
G1 X-18.091 Y6.030 A406.55350
G1 X-18.648 Y6.587 A406.59465
G1 X-18.648 Y7.180 A406.62560
G1 X-17.795 Y6.327 A406.68863
G1 X-15.926 Y6.827 A406.78971
G1 X-14.184 Y5.086 A406.91839
G1 X-14.617 Y3.753 A406.99158
G1 X-14.809 Y2.748 A407.04503
G1 X-14.842 Y2.781 A407.04746
G1 X-14.032 Y5.556 F7800.000
G1 X-14.039 Y5.533 A407.04871 F4800.000
G1 X-15.630 Y7.123 A407.16624
G1 X-15.129 Y8.992 A407.26732
G1 X-17.010 Y10.873 A407.40631
G1 X-18.648 Y10.435 A407.49489
G1 X-18.648 Y14.771 A407.72145
G1 X-18.094 Y14.919 A407.75139
G1 X-16.213 Y13.038 A407.89038
G1 X-16.714 Y11.170 A407.99146
G1 X-14.833 Y9.288 A408.13044
G1 X-12.964 Y9.789 A408.23152
G1 X-12.135 Y8.960 A408.29277
G1 X-12.209 Y8.871 A408.29884
G1 X-13.225 Y7.270 A408.39788
G1 X-14.032 Y5.556 A408.49688
G1 X-11.001 Y10.331 F7800.000
G1 X-11.867 Y9.284 A408.56783 F4800.000
G1 X-12.668 Y10.085 A408.62702
G1 X-12.167 Y11.954 A408.72810
G1 X-14.048 Y13.835 A408.86708
G1 X-15.917 Y13.335 A408.96816
G1 X-17.798 Y15.216 A409.10715
G1 X-17.297 Y17.084 A409.20822
G1 X-17.664 Y17.452 A409.23535
G1 X-17.436 Y17.705 A409.25319
G1 X-17.372 Y17.752 A409.25731
G1 X-17.001 Y17.381 A409.28472
G1 X-15.132 Y17.881 A409.38580
G1 X-13.251 Y16.000 A409.52479
G1 X-13.752 Y14.131 A409.62587
G1 X-11.871 Y12.250 A409.76485
G1 X-10.002 Y12.751 A409.86593
G1 X-9.191 Y11.940 A409.92588
G1 X-9.620 Y11.628 A409.95358
G1 X-11.001 Y10.331 A410.05259
G1 X-8.092 Y12.738 F7800.000
G1 X-8.848 Y12.189 A410.10138 F4800.000
G1 X-9.706 Y13.047 A410.16479
G1 X-9.205 Y14.916 A410.26587
G1 X-11.086 Y16.797 A410.40486
G1 X-12.955 Y16.296 A410.50594
G1 X-14.836 Y18.178 A410.64492
G1 X-14.717 Y18.620 A410.66888
G1 X-10.381 Y18.620 A410.89544
G1 X-10.790 Y17.093 A410.97803
G1 X-8.909 Y15.212 A411.11702
G1 X-7.040 Y15.713 A411.21810
G1 X-5.392 Y14.064 A411.33990
G1 X-6.419 Y13.658 A411.39763
G1 X-8.092 Y12.738 A411.49739
G1 X-4.663 Y14.353 F7800.000
G1 X-4.967 Y14.232 A411.51447 F4800.000
G1 X-6.744 Y16.009 A411.64575
G1 X-6.243 Y17.878 A411.74683
G1 X-6.986 Y18.620 A411.80168
G1 X-6.393 Y18.620 A411.83263
G1 X-5.947 Y18.174 A411.86560
G1 X-4.282 Y18.620 A411.95567
G1 X-4.024 Y18.620 A411.96915
G1 X-2.197 Y16.794 A412.10411
G1 X-2.698 Y14.925 A412.20519
G1 X-2.623 Y14.850 A412.21074
G1 X-2.828 Y14.824 A412.22153
G1 X-4.663 Y14.353 A412.32053
G1 X5.895 Y14.626 F7800.000
G1 X5.711 Y13.938 A412.35771 F4800.000
G1 X4.663 Y14.353 A412.41657
G1 X2.828 Y14.824 A412.51557
G1 X1.651 Y14.973 A412.57752
G1 X1.849 Y15.710 A412.61739
G1 X-0.032 Y17.591 A412.75637
G1 X-1.901 Y17.090 A412.85745
G1 X-3.431 Y18.620 A412.97052
G1 X0.460 Y18.620 A413.17385
G1 X0.264 Y17.887 A413.21352
G1 X2.145 Y16.006 A413.35251
G1 X4.014 Y16.507 A413.45358
G1 X5.895 Y14.626 A413.59257
G1 X18.468 Y16.043 F7800.000
G1 X17.245 Y15.715 A413.65870 F4800.000
G1 X15.364 Y17.597 A413.79769
G1 X15.625 Y18.569 A413.85026
G1 X16.125 Y18.462 A413.87699
G1 X16.820 Y18.153 A413.91675
G1 X17.436 Y17.705 A413.95651
G1 X17.945 Y17.140 A413.99627
G1 X18.326 Y16.481 A414.03603
G1 X18.468 Y16.043 A414.06007
G1 X18.648 Y11.755 F7800.000
G1 X18.648 Y8.389 A414.23592 F4800.000
G1 X17.532 Y9.504 A414.31834
G1 X18.033 Y11.373 A414.41942
G1 X16.152 Y13.254 A414.55840
G1 X14.283 Y12.754 A414.65948
G1 X12.402 Y14.635 A414.79847
G1 X12.903 Y16.503 A414.89954
G1 X11.022 Y18.384 A415.03853
G1 X9.153 Y17.884 A415.13961
G1 X8.416 Y18.620 A415.19404
G1 X11.378 Y18.620 A415.34878
G1 X13.199 Y16.800 A415.48332
G1 X15.068 Y17.300 A415.58440
G1 X16.949 Y15.419 A415.72338
G1 X16.448 Y13.550 A415.82446
G1 X18.329 Y11.669 A415.96344
G1 X18.648 Y11.755 A415.98067
G1 X18.320 Y5.162 F7800.000
G1 X16.451 Y4.661 A416.08175 F4800.000
G1 X14.570 Y6.542 A416.22074
G1 X15.071 Y8.411 A416.32182
G1 X13.190 Y10.292 A416.46080
G1 X11.424 Y9.819 A416.55631
G1 X11.001 Y10.331 A416.59099
G1 X9.620 Y11.628 A416.69000
G1 X9.459 Y11.744 A416.70035
G1 X9.941 Y13.541 A416.79754
G1 X8.060 Y15.423 A416.93653
G1 X6.191 Y14.922 A417.03761
G1 X4.310 Y16.803 A417.17659
G1 X4.797 Y18.620 A417.27490
G1 X7.824 Y18.620 A417.43304
G1 X8.857 Y17.588 A417.50936
G1 X8.356 Y15.719 A417.61043
G1 X10.237 Y13.838 A417.74942
G1 X12.106 Y14.338 A417.85050
G1 X13.987 Y12.457 A417.98948
G1 X13.486 Y10.589 A418.09056
G1 X15.367 Y8.707 A418.22954
G1 X17.236 Y9.208 A418.33062
G1 X18.648 Y7.797 A418.43493
G1 X18.648 Y5.575 A418.55097
G1 X18.616 Y5.458 A418.55730
G1 X18.648 Y5.427 A418.55962
G1 X18.648 Y4.835 A418.59057
G1 X18.320 Y5.162 A418.61477
G1 X18.648 Y-3.423 F7800.000
G1 X18.620 Y-3.431 A418.61629 F4800.000
G1 X16.739 Y-1.550 A418.75527
G1 X17.239 Y0.319 A418.85635
G1 X15.358 Y2.200 A418.99533
G1 X14.935 Y2.087 A419.01822
G1 X14.617 Y3.753 A419.10685
G1 X14.032 Y5.556 A419.20586
G1 X13.770 Y6.111 A419.23795
G1 X14.274 Y6.246 A419.26521
G1 X16.155 Y4.365 A419.40420
G1 X15.655 Y2.496 A419.50528
G1 X17.536 Y0.615 A419.64426
G1 X18.648 Y0.913 A419.70442
G1 X18.648 Y-3.423 A419.93098
G1 X18.648 Y-6.421 F7800.000
G1 X18.648 Y-7.013 A419.96193 F4800.000
G1 X17.527 Y-5.892 A420.04477
G1 X15.658 Y-6.393 A420.14585
G1 X14.225 Y-4.960 A420.25170
G1 X14.617 Y-3.753 A420.31799
G1 X14.902 Y-2.258 A420.39749
G1 X16.442 Y-1.846 A420.48079
G1 X18.324 Y-3.727 A420.61978
G1 X17.823 Y-5.596 A420.72086
G1 X18.648 Y-6.421 A420.78181
G1 X18.648 Y-14.265 F7800.000
G1 X17.826 Y-14.485 A420.82626 F4800.000
G1 X15.945 Y-12.604 A420.96524
G1 X16.446 Y-10.735 A421.06632
G1 X14.565 Y-8.854 A421.20530
G1 X12.696 Y-9.355 A421.30638
G1 X12.210 Y-8.869 A421.34227
G1 X13.225 Y-7.270 A421.44120
G1 X14.032 Y-5.556 A421.54020
G1 X14.080 Y-5.407 A421.54835
G1 X15.362 Y-6.689 A421.64306
G1 X14.861 Y-8.558 A421.74414
G1 X16.742 Y-10.439 A421.88312
G1 X18.611 Y-9.938 A421.98420
G1 X18.648 Y-9.975 A421.98694
G1 X18.648 Y-14.265 A422.21105
G1 X17.743 Y-17.364 F7800.000
G1 X17.463 Y-17.676 A422.23296 F4800.000
G1 X16.733 Y-16.946 A422.28687
G1 X14.864 Y-17.447 A422.38795
G1 X12.983 Y-15.566 A422.52694
G1 X13.484 Y-13.697 A422.62802
G1 X11.603 Y-11.816 A422.76700
G1 X9.734 Y-12.316 A422.86808
G1 X9.287 Y-11.870 A422.90109
G1 X9.620 Y-11.628 A422.92256
G1 X11.001 Y-10.331 A423.02158
G1 X11.942 Y-9.193 A423.09871
G1 X12.400 Y-9.651 A423.13251
G1 X11.899 Y-11.520 A423.23359
G1 X13.780 Y-13.401 A423.37257
G1 X15.649 Y-12.900 A423.47365
G1 X17.530 Y-14.781 A423.61264
G1 X17.029 Y-16.650 A423.71372
G1 X17.743 Y-17.364 A423.76648
G1 X14.568 Y-17.743 F7800.000
G1 X14.333 Y-18.620 A423.81395 F4800.000
G1 X10.114 Y-18.620 A424.03436
G1 X10.021 Y-18.528 A424.04122
G1 X10.522 Y-16.659 A424.14230
G1 X8.641 Y-14.778 A424.28128
G1 X6.772 Y-15.278 A424.38236
G1 X5.511 Y-14.017 A424.47554
G1 X6.419 Y-13.658 A424.52656
G1 X8.092 Y-12.738 A424.62632
G1 X8.944 Y-12.119 A424.68134
G1 X9.438 Y-12.613 A424.71782
G1 X8.937 Y-14.481 A424.81890
G1 X10.818 Y-16.363 A424.95788
G1 X12.687 Y-15.862 A425.05896
G1 X14.568 Y-17.743 A425.19794
G1 X5.975 Y-17.443 F7800.000
G1 X7.152 Y-18.620 A425.28491 F4800.000
G1 X6.560 Y-18.620 A425.31586
G1 X5.679 Y-17.740 A425.38094
G1 X3.810 Y-18.240 A425.48202
G1 X1.929 Y-16.359 A425.62101
G1 X2.323 Y-14.888 A425.70059
G1 X2.828 Y-14.824 A425.72716
G1 X4.663 Y-14.353 A425.82616
G1 X5.087 Y-14.185 A425.84995
G1 X6.476 Y-15.575 A425.95260
G1 X5.975 Y-17.443 A426.05368
G1 X3.514 Y-18.537 F7800.000
G1 X3.491 Y-18.620 A426.05822 F4800.000
G1 X-0.845 Y-18.620 A426.28478
G1 X-0.532 Y-17.452 A426.34796
G1 X-2.413 Y-15.571 A426.48694
G1 X-4.282 Y-16.072 A426.58802
G1 X-6.163 Y-14.191 A426.72700
G1 X-6.058 Y-13.800 A426.74812
G1 X-4.663 Y-14.353 A426.82652
G1 X-2.828 Y-14.824 A426.92552
G1 X-2.023 Y-14.926 A426.96788
G1 X-2.117 Y-15.275 A426.98678
G1 X-0.236 Y-17.156 A427.12577
G1 X1.633 Y-16.655 A427.22685
G1 X3.514 Y-18.537 A427.36583
G1 X-5.079 Y-18.237 F7800.000
G1 X-4.695 Y-18.620 A427.39416 F4800.000
G1 X-5.288 Y-18.620 A427.42511
G1 X-5.375 Y-18.533 A427.43155
G1 X-5.701 Y-18.620 A427.44916
G1 X-7.657 Y-18.620 A427.55139
G1 X-9.125 Y-17.153 A427.65982
G1 X-8.624 Y-15.284 A427.76090
G1 X-10.505 Y-13.403 A427.89988
G1 X-12.374 Y-13.904 A428.00096
G1 X-14.255 Y-12.023 A428.13995
G1 X-13.754 Y-10.154 A428.24103
G1 X-15.635 Y-8.273 A428.38001
G1 X-17.504 Y-8.774 A428.48109
G1 X-18.648 Y-7.630 A428.56558
G1 X-18.648 Y-4.668 A428.72033
G1 X-18.588 Y-4.728 A428.72472
G1 X-16.720 Y-4.227 A428.82579
G1 X-14.839 Y-6.108 A428.96478
G1 X-15.339 Y-7.977 A429.06586
G1 X-13.458 Y-9.858 A429.20484
G1 X-11.767 Y-9.405 A429.29630
G1 X-11.001 Y-10.331 A429.35910
G1 X-9.774 Y-11.483 A429.44704
G1 X-10.209 Y-13.107 A429.53487
G1 X-8.328 Y-14.988 A429.67385
G1 X-6.459 Y-14.487 A429.77493
G1 X-4.578 Y-16.368 A429.91391
G1 X-5.079 Y-18.237 A430.01499
G1 X-9.421 Y-17.449 F7800.000
G1 X-8.250 Y-18.620 A430.10154 F4800.000
G1 X-11.686 Y-18.620 A430.28109
G1 X-11.586 Y-18.246 A430.30134
G1 X-13.467 Y-16.365 A430.44032
G1 X-15.336 Y-16.866 A430.54140
G1 X-17.217 Y-14.985 A430.68039
G1 X-16.716 Y-13.116 A430.78147
G1 X-18.597 Y-11.235 A430.92045
G1 X-18.648 Y-11.248 A430.92318
G1 X-18.648 Y-8.222 A431.08126
G1 X-17.800 Y-9.070 A431.14387
G1 X-18.301 Y-10.939 A431.24495
G1 X-16.420 Y-12.820 A431.38393
G1 X-14.551 Y-12.319 A431.48501
G1 X-12.670 Y-14.200 A431.62400
G1 X-13.171 Y-16.069 A431.72508
G1 X-11.290 Y-17.950 A431.86406
G1 X-9.421 Y-17.449 A431.96514
G1 X-15.632 Y-17.162 F7800.000
G1 X-15.988 Y-18.491 A432.03704 F4800.000
G1 X-16.125 Y-18.462 A432.04433
G1 X-16.820 Y-18.153 A432.08410
G1 X-17.436 Y-17.705 A432.12386
G1 X-17.945 Y-17.140 A432.16362
G1 X-18.326 Y-16.481 A432.20338
G1 X-18.561 Y-15.757 A432.24314
G1 X-18.581 Y-15.567 A432.25312
G1 X-17.513 Y-15.281 A432.31086
G1 X-15.632 Y-17.162 A432.44984
G1 X-13.982 Y-5.661 F7800.000
G1 X-14.542 Y-5.812 A432.48016 F4800.000
G1 X-16.423 Y-3.931 A432.61915
G1 X-15.923 Y-2.062 A432.72023
G1 X-17.804 Y-0.181 A432.85921
G1 X-18.648 Y-0.407 A432.90487
G1 X-18.648 Y3.625 A433.11552
G1 X-17.007 Y1.984 A433.23677
G1 X-17.508 Y0.115 A433.33785
G1 X-15.627 Y-1.766 A433.47683
G1 X-14.991 Y-1.595 A433.51121
G1 X-14.972 Y-1.892 A433.52672
G1 X-14.617 Y-3.753 A433.62573
G1 X-14.032 Y-5.556 A433.72474
G1 X-13.982 Y-5.661 A433.73085
M106 P140.25
G1 Z1.500 F7800.000
G1 X-14.666 Y-0.000 F7800.000
G1 A410.83030 F2400.000 ; pressure advance
G92 A433.73085 ; restore E
G1 X-14.550 Y-1.838 A433.82709 F3600.000
G1 X-14.205 Y-3.647 A433.92330
G1 X-13.636 Y-5.399 A434.01952
G1 X-12.852 Y-7.065 A434.11573
G1 X-12.717 Y-7.278 A434.12892
G1 X-11.865 Y-8.621 A434.21198
G1 X-10.691 Y-10.040 A434.30819
G1 X-9.348 Y-11.300 A434.40441
G1 X-8.070 Y-12.229 A434.48699
G1 X-7.858 Y-12.383 A434.50064
G1 X-6.245 Y-13.270 A434.59685
G1 X-4.532 Y-13.948 A434.69310
G1 X-2.748 Y-14.406 A434.78930
G1 X-0.921 Y-14.637 A434.88554 F3600.000
G1 X0.930 Y-14.636 A434.98221
G1 X2.748 Y-14.406 A435.07797
G1 X4.532 Y-13.948 A435.17419
G1 X6.252 Y-13.266 A435.27087
G1 X7.858 Y-12.383 A435.36663
G1 X9.348 Y-11.300 A435.46285
G1 X10.691 Y-10.040 A435.55908
G1 X11.865 Y-8.621 A435.65529
G1 X12.852 Y-7.065 A435.75153
G1 X13.636 Y-5.399 A435.84775
G1 X14.205 Y-3.647 A435.94396
G1 X14.550 Y-1.838 A436.04018
G1 X14.666 Y0.000 A436.13641
G1 X14.550 Y1.838 A436.23265
G1 X14.205 Y3.647 A436.32887
G1 X13.636 Y5.399 A436.42508
G1 X12.852 Y7.065 A436.52129
G1 X11.865 Y8.621 A436.61754
G1 X10.691 Y10.040 A436.71375
G1 X9.348 Y11.300 A436.80997
G1 X7.858 Y12.383 A436.90620
G1 X6.244 Y13.270 A437.00242
G1 X4.523 Y13.950 A437.09913
G1 X2.748 Y14.406 A437.19486
G1 X0.921 Y14.637 A437.29108
G1 X-0.921 Y14.637 A437.38731
G1 X-2.748 Y14.406 A437.48353
G1 X-4.532 Y13.948 A437.57974
G1 X-6.236 Y13.273 A437.67550
G1 X-7.866 Y12.378 A437.77266
G1 X-9.348 Y11.300 A437.86841
G1 X-10.691 Y10.040 A437.96463
G1 X-11.865 Y8.621 A438.06085
G1 X-12.852 Y7.065 A438.15709
G1 X-13.636 Y5.399 A438.25330
G1 X-14.205 Y3.647 A438.34952
G1 X-14.550 Y1.838 A438.44573
G1 X-14.662 Y0.060 A438.53884
G1 X-14.246 Y-0.000 F7800.000
G1 X-14.134 Y-1.786 A438.63232 F3600.000
G1 X-13.799 Y-3.543 A438.72578
G1 X-13.246 Y-5.244 A438.81924
G1 X-12.484 Y-6.863 A438.91270
G1 X-12.363 Y-7.054 A438.92451
G1 X-11.525 Y-8.374 A439.00619
G1 X-10.385 Y-9.752 A439.09965
G1 X-9.081 Y-10.977 A439.19312
G1 X-7.824 Y-11.890 A439.27432
G1 X-7.633 Y-12.028 A439.28659
G1 X-6.066 Y-12.890 A439.38005
G1 X-4.402 Y-13.549 A439.47354
G1 X-2.669 Y-13.994 A439.56699
G1 X-0.894 Y-14.218 A439.66047 F3600.000
G1 X0.903 Y-14.217 A439.75438
G1 X2.669 Y-13.994 A439.84740
G1 X4.402 Y-13.549 A439.94086
G1 X6.073 Y-12.886 A440.03479
G1 X7.634 Y-12.028 A440.12780
G1 X9.081 Y-10.977 A440.22127
G1 X10.385 Y-9.752 A440.31474
G1 X11.525 Y-8.374 A440.40820
G1 X12.484 Y-6.863 A440.50169
G1 X13.246 Y-5.244 A440.59515
G1 X13.799 Y-3.543 A440.68861
G1 X14.134 Y-1.786 A440.78207
G1 X14.246 Y0.000 A440.87555
G1 X14.134 Y1.786 A440.96904
G1 X13.799 Y3.543 A441.06250
G1 X13.246 Y5.244 A441.15596
G1 X12.484 Y6.863 A441.24942
G1 X11.525 Y8.374 A441.34291
G1 X10.385 Y9.752 A441.43637
G1 X9.081 Y10.977 A441.52984
G1 X7.633 Y12.028 A441.62331
G1 X6.066 Y12.890 A441.71677
G1 X4.393 Y13.551 A441.81072
G1 X2.669 Y13.994 A441.90371
G1 X0.895 Y14.218 A441.99718
G1 X-0.895 Y14.218 A442.09065
G1 X-2.669 Y13.994 A442.18412
G1 X-4.402 Y13.549 A442.27757
G1 X-6.057 Y12.894 A442.37058
G1 X-7.641 Y12.023 A442.46499
G1 X-9.081 Y10.977 A442.55799
G1 X-10.385 Y9.752 A442.65145
G1 X-11.525 Y8.374 A442.74491
G1 X-12.484 Y6.863 A442.83840
G1 X-13.246 Y5.244 A442.93186
G1 X-13.799 Y3.543 A443.02532
G1 X-14.134 Y1.786 A443.11878
G1 X-14.242 Y0.060 A443.20913
G1 X-13.868 Y-0.000 F7800.000
G1 A418.45049 F2400.000 ; pressure advance
G92 A443.20913 ; restore E
G1 X-13.759 Y-1.738 A443.28205 F1800.000
G1 X-13.433 Y-3.449 A443.35494
G1 X-12.894 Y-5.105 A443.42784
G1 X-12.153 Y-6.681 A443.50074
G1 X-12.044 Y-6.852 A443.50921
G1 X-11.219 Y-8.152 A443.57366
G1 X-10.110 Y-9.493 A443.64655
G1 X-8.840 Y-10.686 A443.71946
G1 X-7.602 Y-11.585 A443.78352
G1 X-7.431 Y-11.709 A443.79236
G1 X-5.905 Y-12.548 A443.86525
G1 X-4.285 Y-13.190 A443.93818
G1 X-2.599 Y-13.623 A444.01107
G1 X-0.871 Y-13.841 A444.08398 F1800.000
G1 X0.879 Y-13.840 A444.15723
G1 X2.599 Y-13.623 A444.22978
G1 X4.285 Y-13.190 A444.30267
G1 X5.912 Y-12.544 A444.37594
G1 X7.431 Y-11.709 A444.44849
G1 X8.840 Y-10.686 A444.52139
G1 X10.110 Y-9.493 A444.59429
G1 X11.219 Y-8.152 A444.66718
G1 X12.153 Y-6.681 A444.74011
G1 X12.894 Y-5.105 A444.81300
G1 X13.433 Y-3.449 A444.88590
G1 X13.759 Y-1.738 A444.95880
G1 X13.868 Y0.000 A445.03171
G1 X13.759 Y1.738 A445.10463
G1 X13.433 Y3.449 A445.17752
G1 X12.894 Y5.105 A445.25042
G1 X12.153 Y6.681 A445.32332
G1 X11.219 Y8.152 A445.39624
G1 X10.110 Y9.493 A445.46913
G1 X8.840 Y10.686 A445.54203
G1 X7.431 Y11.709 A445.61494
G1 X5.905 Y12.548 A445.68784
G1 X4.277 Y13.192 A445.76112
G1 X2.599 Y13.623 A445.83364
G1 X0.871 Y13.841 A445.90655
G1 X-0.871 Y13.841 A445.97945
G1 X-2.599 Y13.623 A446.05235
G1 X-4.285 Y13.190 A446.12525
G1 X-5.896 Y12.552 A446.19778
G1 X-7.438 Y11.704 A446.27144
G1 X-8.840 Y10.686 A446.34396
G1 X-10.110 Y9.493 A446.41687
G1 X-11.219 Y8.152 A446.48976
G1 X-12.153 Y6.681 A446.56268
G1 X-12.894 Y5.105 A446.63558
G1 X-13.433 Y3.449 A446.70847
G1 X-13.759 Y1.738 A446.78137
G1 X-13.864 Y0.060 A446.85177
G1 X-14.210 Y-0.207 F7800.000
G1 X-19.004 Y-0.000 F7800.000
G1 A471.59591 F2400.000 ; pressure advance
G92 A446.85177 ; restore E
G1 X-19.004 Y-14.948 A447.63272 F3600.000
G1 X-18.911 Y-15.831 A447.67914
G1 X-18.653 Y-16.626 A447.72281
G1 X-18.235 Y-17.350 A447.76647
G1 X-17.675 Y-17.971 A447.81014
G1 X-16.999 Y-18.463 A447.85382
G1 X-16.236 Y-18.803 A447.89749
G1 X-15.418 Y-18.976 A447.94116
G1 X15.418 Y-18.976 A449.55218
G1 X16.145 Y-18.822 A449.59102
G1 X16.236 Y-18.803 A449.59585 F3600.000
G1 X16.999 Y-18.463 A449.63952
G1 X17.675 Y-17.971 A449.68319
G1 X18.235 Y-17.350 A449.72686
G1 X18.653 Y-16.626 A449.77053
G1 X18.911 Y-15.831 A449.81420
G1 X19.004 Y-14.948 A449.86062
G1 X19.004 Y14.948 A451.42251
G1 X18.911 Y15.831 A451.46892
G1 X18.653 Y16.626 A451.51259
G1 X18.235 Y17.350 A451.55626
G1 X17.675 Y17.971 A451.59993
G1 X16.999 Y18.463 A451.64360
G1 X16.236 Y18.803 A451.68728
G1 X15.418 Y18.976 A451.73095
G1 X-15.418 Y18.976 A453.34196
G1 X-16.236 Y18.803 A453.38564
G1 X-16.999 Y18.463 A453.42931
G1 X-17.675 Y17.971 A453.47298
G1 X-18.235 Y17.350 A453.51665
G1 X-18.653 Y16.626 A453.56032
G1 X-18.911 Y15.831 A453.60399
G1 X-19.004 Y14.948 A453.65040
G1 X-19.004 Y0.060 A454.42822
G1 X-19.423 Y-0.000 F7800.000
G1 X-19.423 Y-14.970 A455.21031 F3600.000
G1 X-19.323 Y-15.919 A455.26017
G1 X-19.037 Y-16.798 A455.30844
G1 X-18.576 Y-17.598 A455.35671
G1 X-17.957 Y-18.284 A455.40498
G1 X-17.210 Y-18.827 A455.45325
G1 X-16.366 Y-19.203 A455.50152
G1 X-15.462 Y-19.395 A455.54980
G1 X15.462 Y-19.395 A457.16541
G1 X16.232 Y-19.232 A457.20655
G1 X16.366 Y-19.203 A457.21369 F3600.000
G1 X17.210 Y-18.827 A457.26196
G1 X17.957 Y-18.284 A457.31023
G1 X18.576 Y-17.598 A457.35850
G1 X19.037 Y-16.798 A457.40677
G1 X19.323 Y-15.919 A457.45504
G1 X19.423 Y-14.970 A457.50490
G1 X19.423 Y14.970 A459.06909
G1 X19.323 Y15.919 A459.11895
G1 X19.037 Y16.798 A459.16722
G1 X18.576 Y17.598 A459.21549
G1 X17.957 Y18.284 A459.26376
G1 X17.210 Y18.827 A459.31203
G1 X16.366 Y19.203 A459.36030
G1 X15.462 Y19.395 A459.40858
G1 X-15.462 Y19.395 A461.02419
G1 X-16.366 Y19.203 A461.07246
G1 X-17.210 Y18.827 A461.12074
G1 X-17.957 Y18.284 A461.16901
G1 X-18.576 Y17.598 A461.21728
G1 X-19.037 Y16.798 A461.26555
G1 X-19.323 Y15.919 A461.31382
G1 X-19.423 Y14.970 A461.36368
G1 X-19.423 Y0.060 A462.14264
G1 X-19.800 Y-0.000 F7800.000
G1 A437.39501 F2400.000 ; pressure advance
G92 A462.14264 ; restore E
G1 X-19.800 Y-14.990 A462.77010 F1800.000
G1 X-19.694 Y-15.998 A462.81254
G1 X-19.384 Y-16.952 A462.85454
G1 X-18.882 Y-17.821 A462.89653
G1 X-18.211 Y-18.566 A462.93853
G1 X-17.399 Y-19.156 A462.98053
G1 X-16.483 Y-19.564 A463.02252
G1 X-15.502 Y-19.773 A463.06452
G1 X15.502 Y-19.773 A464.36232
G1 X16.311 Y-19.601 A464.39694
G1 X16.483 Y-19.564 A464.40432 F1800.000
G1 X17.399 Y-19.156 A464.44632
G1 X18.211 Y-18.566 A464.48831
G1 X18.882 Y-17.821 A464.53031
G1 X19.384 Y-16.952 A464.57230
G1 X19.694 Y-15.998 A464.61430
G1 X19.800 Y-14.990 A464.65674
G1 X19.800 Y14.990 A465.91167
G1 X19.694 Y15.998 A465.95411
G1 X19.384 Y16.952 A465.99610
G1 X18.882 Y17.821 A466.03810
G1 X18.211 Y18.566 A466.08009
G1 X17.399 Y19.156 A466.12209
G1 X16.483 Y19.564 A466.16408
G1 X15.502 Y19.773 A466.20608
G1 X-15.502 Y19.773 A467.50388
G1 X-16.483 Y19.564 A467.54588
G1 X-17.399 Y19.156 A467.58788
G1 X-18.211 Y18.566 A467.62988
G1 X-18.882 Y17.821 A467.67187
G1 X-19.384 Y16.952 A467.71387
G1 X-19.694 Y15.998 A467.75586
G1 X-19.800 Y14.990 A467.79830
G1 X-19.800 Y0.060 A468.42325
G1 X-19.454 Y-0.200 F7800.000
G1 X-13.938 Y5.632 F7800.000
M106 P255
G1 A494.28082 F2400.000 ; pressure advance
G92 A468.42325 ; restore E
G1 X-18.673 Y0.897 A468.77962 F3600.000
G1 X-18.673 Y0.256 A468.81377
G1 X-14.246 Y4.682 A469.14689
G1 X-14.536 Y3.751 A469.19879
G1 X-18.673 Y-0.386 A469.51012
G1 X-18.673 Y-1.028 A469.54427
G1 X-14.687 Y2.958 A469.84422
G1 X-14.838 Y2.165 A469.88718
G1 X-18.673 Y-1.669 A470.17574
G1 X-18.673 Y-2.311 A470.20989
G1 X-14.906 Y1.456 A470.49338
G1 X-14.949 Y0.771 A470.52989
G1 X-18.673 Y-2.953 A470.81014
G1 X-18.673 Y-3.594 A470.84429
G1 X-14.991 Y0.087 A471.12138
G1 X-14.953 Y-0.516 A471.15357
G1 X-18.673 Y-4.236 A471.43351
G1 X-18.673 Y-4.878 A471.46766
G1 X-14.915 Y-1.120 A471.75047
G1 X-14.877 Y-1.724 A471.78266
G1 X-18.673 Y-5.519 A472.06832
G1 X-18.673 Y-6.161 A472.10247
G1 X-14.782 Y-2.270 A472.39528
G1 X-14.679 Y-2.809 A472.42448
G1 X-18.673 Y-6.802 A472.72503
G1 X-18.673 Y-7.444 A472.75918
G1 X-14.576 Y-3.348 A473.06747
G1 X-14.450 Y-3.863 A473.09571
G1 X-18.673 Y-8.086 A473.41349
G1 X-18.673 Y-8.727 A473.44764
G1 X-14.293 Y-4.348 A473.77726
G1 X-14.136 Y-4.832 A473.80436
G1 X-18.673 Y-9.369 A474.14582
G1 X-18.673 Y-10.011 A474.17997
G1 X-13.978 Y-5.316 A474.53328
G1 X-13.787 Y-5.767 A474.55932
G1 X-18.673 Y-10.652 A474.92702
G1 X-18.673 Y-11.294 A474.96116
G1 X-13.582 Y-6.203 A475.34431
G1 X-13.376 Y-6.639 A475.36998
G1 X-18.673 Y-11.936 A475.76858
G1 X-18.673 Y-12.577 A475.80273
G1 X-13.171 Y-7.076 A476.21678
G1 X-12.932 Y-7.478 A476.24169
G1 X-18.673 Y-13.219 A476.67376
G1 X-18.673 Y-13.860 A476.70791
G1 X-12.683 Y-7.870 A477.15873
G1 X-12.433 Y-8.263 A477.18347
G1 X-18.673 Y-14.502 A477.65304
G1 X-18.654 Y-15.125 A477.68622
G1 X-12.184 Y-8.655 A478.17314
G1 X-11.906 Y-9.019 A478.19750
G1 X-18.593 Y-15.706 A478.70077
G1 X-18.448 Y-16.202 A478.72829
G1 X-11.616 Y-9.370 A479.24248
G1 X-11.325 Y-9.721 A479.26673
G1 X-18.261 Y-16.657 A479.78873
G1 X-18.026 Y-17.064 A479.81373
G1 X-11.035 Y-10.072 A480.33991
G1 X-10.722 Y-10.401 A480.36407
G1 X-17.739 Y-17.418 A480.89216
G1 X-17.420 Y-17.740 A480.91630
G1 X-10.391 Y-10.712 A481.44525
G1 X-10.060 Y-11.023 A481.46941
G1 X-17.058 Y-18.021 A481.99606
G1 X-16.656 Y-18.260 A482.02096
G1 X-9.730 Y-11.334 A482.54225
G1 X-9.384 Y-11.629 A482.56647
G1 X-16.212 Y-18.458 A483.08039
G1 X-15.695 Y-18.583 A483.10868
G1 X-9.012 Y-11.899 A483.61169
G1 X-8.640 Y-12.169 A483.63613
G1 X-15.116 Y-18.645 A484.12352
G1 X-14.475 Y-18.645 A484.15767
G1 X-8.269 Y-12.439 A484.62474
G1 X-7.887 Y-12.699 A484.64932
G1 X-13.833 Y-18.645 A485.09685
G1 X-13.191 Y-18.645 A485.13100
G1 X-7.473 Y-12.927 A485.56139
G1 X-7.059 Y-13.154 A485.58653
G1 X-12.550 Y-18.645 A485.99979
G1 X-11.908 Y-18.645 A486.03394
G1 X-6.645 Y-13.382 A486.43005
G1 X-6.220 Y-13.599 A486.45544
G1 X-11.267 Y-18.645 A486.83526
G1 X-10.625 Y-18.645 A486.86941
G1 X-5.760 Y-13.781 A487.23553
G1 X-5.300 Y-13.963 A487.26184
G1 X-9.983 Y-18.645 A487.61427
G1 X-9.342 Y-18.645 A487.64842
G1 X-4.841 Y-14.145 A487.98715
G1 X-4.361 Y-14.306 A488.01411
G1 X-8.700 Y-18.645 A488.34069
G1 X-8.058 Y-18.645 A488.37483
G1 X-3.850 Y-14.437 A488.69155
G1 X-3.340 Y-14.568 A488.71960
G1 X-7.417 Y-18.645 A489.02645
G1 X-6.775 Y-18.645 A489.06059
G1 X-2.829 Y-14.699 A489.35758
G1 X-2.271 Y-14.782 A489.38762
G1 X-6.133 Y-18.645 A489.67834
G1 X-5.492 Y-18.645 A489.71249
G1 X-1.701 Y-14.854 A489.99779
G1 X-1.131 Y-14.926 A490.02835
G1 X-4.850 Y-18.645 A490.30824
G1 X-4.209 Y-18.645 A490.34238
G1 X-0.525 Y-14.962 A490.61961
G1 X0.117 Y-14.962 A490.65376
G1 X-3.567 Y-18.645 A490.93099
G1 X-2.925 Y-18.645 A490.96514
G1 X0.758 Y-14.962 A491.24237
G1 X1.452 Y-14.910 A491.27936
G1 X-2.284 Y-18.645 A491.56048
G1 X-1.642 Y-18.645 A491.59463
G1 X2.186 Y-14.817 A491.88273
G1 X2.920 Y-14.724 A491.92212
G1 X-1.000 Y-18.645 A492.21721
G1 X-0.359 Y-18.645 A492.25135
G1 X3.783 Y-14.503 A492.56309
G1 X4.647 Y-14.282 A492.61052
G1 X0.283 Y-18.645 A492.93893
G1 X0.925 Y-18.645 A492.97308
G1 X5.683 Y-13.887 A493.33123
M106 P140.25
G1 X6.825 Y-13.386 F7800.000
M106 P255
G1 X1.566 Y-18.645 A493.72702 F3600.000
G1 X2.208 Y-18.645 A493.76116
G1 X8.292 Y-12.561 A494.21907
M106 P140.25
G1 X12.493 Y-8.360 F7800.000
M106 P255
G1 X18.673 Y-2.180 A494.68418 F3600.000
G1 X18.673 Y-2.822 A494.71832
G1 X2.849 Y-18.645 A495.90919
G1 X3.491 Y-18.645 A495.94334
G1 X18.673 Y-3.464 A497.08591
G1 X18.673 Y-4.105 A497.12006
G1 X4.133 Y-18.645 A498.21434
G1 X4.774 Y-18.645 A498.24849
G1 X18.673 Y-4.747 A499.29449
G1 X18.673 Y-5.389 A499.32863
G1 X5.416 Y-18.645 A500.32634
G1 X6.058 Y-18.645 A500.36048
G1 X18.673 Y-6.030 A501.30990
G1 X18.673 Y-6.672 A501.34405
G1 X6.699 Y-18.645 A502.24517
G1 X7.341 Y-18.645 A502.27932
G1 X18.673 Y-7.314 A503.13216
G1 X18.673 Y-7.955 A503.16630
G1 X7.983 Y-18.645 A503.97085
G1 X8.624 Y-18.645 A504.00500
G1 X18.673 Y-8.597 A504.76125
G1 X18.673 Y-9.238 A504.79540
G1 X9.266 Y-18.645 A505.50337
G1 X9.907 Y-18.645 A505.53751
G1 X18.673 Y-9.880 A506.19719
G1 X18.673 Y-10.522 A506.23134
G1 X10.549 Y-18.645 A506.84273
G1 X11.191 Y-18.645 A506.87687
G1 X18.673 Y-11.163 A507.43997
G1 X18.673 Y-11.805 A507.47412
G1 X11.832 Y-18.645 A507.98893
G1 X12.474 Y-18.645 A508.02307
G1 X18.673 Y-12.447 A508.48959
G1 X18.673 Y-13.088 A508.52374
G1 X13.116 Y-18.645 A508.94197
G1 X13.757 Y-18.645 A508.97611
G1 X18.673 Y-13.730 A509.34605
G1 X18.673 Y-14.372 A509.38020
G1 X14.399 Y-18.645 A509.70185
G1 X15.041 Y-18.645 A509.73599
G1 X18.643 Y-15.043 A510.00710
G1 X18.511 Y-15.816 A510.04885
G1 X15.809 Y-18.518 A510.25218
M106 P140.25
G1 X17.165 Y-17.805 F7800.000
M106 P255
G1 X17.716 Y-17.253 A510.29368 F3600.000
M106 P140.25
G1 X13.372 Y-6.840 F7800.000
M106 P255
G1 X18.673 Y-1.539 A510.69262 F3600.000
G1 X18.673 Y-0.897 A510.72676
G1 X13.938 Y-5.632 A511.08313
G1 X14.246 Y-4.682 A511.13632
G1 X18.673 Y-0.256 A511.46944
G1 X18.673 Y0.386 A511.50359
G1 X14.536 Y-3.751 A511.81492
G1 X14.687 Y-2.958 A511.85788
G1 X18.673 Y1.028 A512.15783
G1 X18.673 Y1.669 A512.19198
G1 X14.838 Y-2.165 A512.48054
G1 X14.906 Y-1.456 A512.51845
G1 X18.673 Y2.311 A512.80194
G1 X18.673 Y2.953 A512.83609
G1 X14.949 Y-0.771 A513.11634
G1 X14.991 Y-0.087 A513.15279
G1 X18.673 Y3.594 A513.42988
G1 X18.673 Y4.236 A513.46402
G1 X14.953 Y0.516 A513.74397
G1 X14.915 Y1.120 A513.77616
G1 X18.673 Y4.878 A514.05896
G1 X18.673 Y5.519 A514.09311
G1 X14.877 Y1.723 A514.37878
G1 X14.782 Y2.270 A514.40830
G1 X18.673 Y6.161 A514.70112
G1 X18.673 Y6.802 A514.73526
G1 X14.679 Y2.809 A515.03582
G1 X14.576 Y3.348 A515.06501
G1 X18.673 Y7.444 A515.37330
G1 X18.673 Y8.086 A515.40745
G1 X14.450 Y3.863 A515.72523
G1 X14.293 Y4.348 A515.75233
G1 X18.673 Y8.727 A516.08195
G1 X18.673 Y9.369 A516.11610
G1 X14.136 Y4.832 A516.45756
G1 X13.978 Y5.316 A516.48466
G1 X18.673 Y10.011 A516.83797
G1 X18.673 Y10.652 A516.87211
G1 X13.787 Y5.767 A517.23981
G1 X13.582 Y6.203 A517.26547
G1 X18.673 Y11.294 A517.64863
G1 X18.673 Y11.936 A517.68277
G1 X13.376 Y6.639 A518.08138
G1 X13.171 Y7.076 A518.10704
G1 X18.673 Y12.577 A518.52109
G1 X18.673 Y13.219 A518.55524
G1 X12.932 Y7.478 A518.98731
G1 X12.683 Y7.870 A519.01205
G1 X18.673 Y13.860 A519.46287
G1 X18.673 Y14.502 A519.49702
G1 X12.433 Y8.263 A519.96659
G1 X12.184 Y8.655 A519.99133
G1 X18.654 Y15.125 A520.47825
G1 X18.593 Y15.706 A520.50932
G1 X11.906 Y9.019 A521.01259
G1 X11.616 Y9.370 A521.03684
G1 X18.448 Y16.202 A521.55103
G1 X18.261 Y16.657 A521.57720
G1 X11.325 Y9.721 A522.09920
G1 X11.035 Y10.072 A522.12345
G1 X18.026 Y17.064 A522.64964
G1 X17.739 Y17.418 A522.67391
G1 X10.722 Y10.401 A523.20201
G1 X10.391 Y10.712 A523.22616
G1 X17.420 Y17.740 A523.75511
G1 X17.058 Y18.021 A523.77945
G1 X10.060 Y11.023 A524.30610
G1 X9.730 Y11.334 A524.33025
G1 X16.656 Y18.260 A524.85154
G1 X16.212 Y18.458 A524.87741
G1 X9.384 Y11.629 A525.39133
G1 X9.012 Y11.899 A525.41577
G1 X15.695 Y18.583 A525.91878
G1 X15.116 Y18.645 A525.94978
G1 X8.640 Y12.169 A526.43716
G1 X8.269 Y12.439 A526.46161
G1 X14.475 Y18.645 A526.92868
G1 X13.833 Y18.645 A526.96282
G1 X7.886 Y12.698 A527.41040
G1 X7.472 Y12.926 A527.43554
G1 X13.191 Y18.645 A527.86597
G1 X12.550 Y18.645 A527.90012
G1 X7.058 Y13.154 A528.31341
G1 X6.644 Y13.382 A528.33855
G1 X11.908 Y18.645 A528.73470
G1 X11.267 Y18.645 A528.76884
G1 X6.220 Y13.599 A529.14866
G1 X5.760 Y13.781 A529.17497
G1 X10.625 Y18.645 A529.54110
G1 X9.983 Y18.645 A529.57524
G1 X5.300 Y13.963 A529.92767
G1 X4.841 Y14.145 A529.95398
G1 X9.342 Y18.645 A530.29271
G1 X8.700 Y18.645 A530.32686
G1 X4.361 Y14.306 A530.65344
G1 X3.850 Y14.437 A530.68149
G1 X8.058 Y18.645 A530.99820
G1 X7.417 Y18.645 A531.03235
G1 X3.340 Y14.568 A531.33920
G1 X2.829 Y14.699 A531.36725
G1 X6.775 Y18.645 A531.66423
G1 X6.133 Y18.645 A531.69838
G1 X2.271 Y14.782 A531.98910
G1 X1.701 Y14.854 A532.01966
G1 X5.492 Y18.645 A532.30496
G1 X4.850 Y18.645 A532.33911
G1 X1.131 Y14.926 A532.61899
G1 X0.525 Y14.962 A532.65132
G1 X4.209 Y18.645 A532.92855
G1 X3.567 Y18.645 A532.96269
G1 X-0.117 Y14.962 A533.23992
G1 X-0.758 Y14.962 A533.27407
G1 X2.925 Y18.645 A533.55130
G1 X2.284 Y18.645 A533.58544
G1 X-1.452 Y14.910 A533.86656
G1 X-2.186 Y14.817 A533.90596
G1 X1.642 Y18.645 A534.19406
G1 X1.000 Y18.645 A534.22820
G1 X-2.920 Y14.724 A534.52329
G1 X-3.783 Y14.503 A534.57069
G1 X0.359 Y18.645 A534.88243
G1 X-0.283 Y18.645 A534.91658
G1 X-4.647 Y14.282 A535.24499
M106 P140.25
G1 X-5.683 Y13.887 F7800.000
M106 P255
G1 X-0.925 Y18.645 A535.60314 F3600.000
G1 X-1.566 Y18.645 A535.63729
G1 X-6.825 Y13.386 A536.03307
M106 P140.25
