; generated by Slic3r 1.2.9 on 2016-06-02 at 12:43:16

; external perimeters extrusion width = 0.50mm
; perimeters extrusion width = 0.72mm
; infill extrusion width = 0.72mm
; solid infill extrusion width = 0.72mm
; top infill extrusion width = 0.72mm


M104 P200 ; set temperature
G28 ; home all axes
G1 Z5 F5000 ; lift nozzle

M109 P200 ; wait for temperature to be reached
G21 ; set units to millimeters
G90 ; use absolute coordinates
G1 Z0.350 F7800.000
G1 A-2.00000 F2400.00000
G92 A0
G1 X66.893 Y67.014 F7800.000
G1 A2.00000 F2400.00000
G1 X67.923 Y66.087 A2.08573 F1800.000
G1 X68.769 Y65.473 A2.15041
G1 X69.968 Y64.780 A2.23609
G1 X70.923 Y64.355 A2.30078
G1 X72.240 Y63.927 A2.38652
G1 X73.263 Y63.710 A2.45120
G1 X74.640 Y63.565 A2.53689
G1 X105.360 Y63.565 A4.43794
G1 X106.737 Y63.710 A4.52363
G1 X107.760 Y63.927 A4.58832 F1800.000
G1 X109.077 Y64.355 A4.67406
G1 X110.032 Y64.780 A4.73874
G1 X111.231 Y65.473 A4.82442
G1 X112.077 Y66.087 A4.88911
G1 X113.107 Y67.014 A4.97484
G1 X113.806 Y67.791 A5.03952
G1 X114.620 Y68.911 A5.12522
G1 X115.143 Y69.816 A5.18990
G1 X115.706 Y71.082 A5.27560
G1 X116.029 Y72.076 A5.34029
G1 X116.317 Y73.430 A5.42598
G1 X116.426 Y74.470 A5.49067
G1 X116.462 Y75.162 A5.53359
G1 X116.462 Y104.838 A7.36996
G1 X116.426 Y105.530 A7.41288
G1 X116.317 Y106.570 A7.47757
G1 X116.029 Y107.924 A7.56326
G1 X115.706 Y108.918 A7.62795
G1 X115.143 Y110.184 A7.71365
G1 X114.620 Y111.089 A7.77833
G1 X113.806 Y112.209 A7.86403
G1 X113.107 Y112.986 A7.92872
G1 X112.077 Y113.913 A8.01444
G1 X111.231 Y114.527 A8.07913
G1 X110.032 Y115.220 A8.16481
G1 X109.077 Y115.645 A8.22949
G1 X107.760 Y116.073 A8.31523
G1 X106.737 Y116.290 A8.37992
G1 X105.360 Y116.435 A8.46561
G1 X74.640 Y116.435 A10.36666
G1 X73.263 Y116.290 A10.45235
G1 X72.240 Y116.073 A10.51704
G1 X70.923 Y115.645 A10.60278
G1 X69.968 Y115.220 A10.66746
G1 X68.769 Y114.527 A10.75314
G1 X67.923 Y113.913 A10.81783
G1 X66.893 Y112.986 A10.90355
G1 X66.194 Y112.209 A10.96824
G1 X65.380 Y111.089 A11.05394
G1 X64.857 Y110.184 A11.11862
G1 X64.294 Y108.918 A11.20432
G1 X63.971 Y107.924 A11.26900
G1 X63.683 Y106.570 A11.35470
G1 X63.574 Y105.530 A11.41938
G1 X63.538 Y104.838 A11.46231
G1 X63.538 Y75.162 A13.29868
G1 X63.574 Y74.470 A13.34160
G1 X63.683 Y73.430 A13.40629
G1 X63.971 Y72.076 A13.49198
G1 X64.294 Y71.082 A13.55666
G1 X64.857 Y69.816 A13.64237
G1 X65.380 Y68.911 A13.70705
G1 X66.194 Y67.791 A13.79275
G1 X66.843 Y67.070 A13.85279
G1 A11.85279 F2400.00000
G92 A0
G1 X101.328 Y100.638 F7800.000
G1 A2.00000 F2400.00000
G1 X99.906 Y101.974 A2.12075 F1800.000
G1 X98.328 Y103.120 A2.24142
G1 X96.616 Y104.061 A2.36232
G1 X94.802 Y104.779 A2.48308
G1 X92.912 Y105.265 A2.60383
G1 X90.976 Y105.509 A2.72460
G1 X89.024 Y105.509 A2.84535
G1 X87.088 Y105.265 A2.96612
G1 X85.198 Y104.779 A3.08687
G1 X83.382 Y104.061 A3.20771
G1 X81.651 Y103.104 A3.33013
G1 X80.094 Y101.974 A3.44919
G1 X78.672 Y100.638 A3.56994
G1 X77.428 Y99.134 A3.69069
G1 X76.396 Y97.508 A3.80986
G1 X75.552 Y95.722 A3.93213
G1 X74.948 Y93.865 A4.05298
G1 X74.583 Y91.948 A4.17373
G1 X74.460 Y89.999 A4.29460
G1 X74.587 Y88.027 A4.41688
G1 X74.948 Y86.135 A4.53604
G1 X75.552 Y84.278 A4.65689
G1 X76.396 Y82.492 A4.77916
G1 X77.428 Y80.866 A4.89833
G1 X78.672 Y79.362 A5.01908
G1 X80.094 Y78.026 A5.13984
G1 X81.672 Y76.880 A5.26051
G1 X83.437 Y75.909 A5.38518
G1 X85.202 Y75.220 A5.50241
G1 X87.088 Y74.735 A5.62294
G1 X89.024 Y74.491 A5.74372
G1 X90.976 Y74.491 A5.86446 F1800.000
G1 X92.912 Y74.735 A5.98524
G1 X94.802 Y75.221 A6.10598
G1 X96.616 Y75.939 A6.22674
G1 X98.328 Y76.880 A6.34764
G1 X99.906 Y78.026 A6.46831
G1 X101.328 Y79.362 A6.58906
G1 X102.572 Y80.866 A6.70981
G1 X103.604 Y82.492 A6.82898
G1 X104.448 Y84.278 A6.95126
G1 X105.052 Y86.135 A7.07211
G1 X105.417 Y88.052 A7.19286
G1 X105.540 Y90.000 A7.31364
G1 X105.417 Y91.948 A7.43443
G1 X105.052 Y93.865 A7.55518
G1 X104.448 Y95.722 A7.67603
G1 X103.604 Y97.508 A7.79830
G1 X102.572 Y99.134 A7.91747
G1 X101.376 Y100.580 A8.03358
G1 X100.872 Y100.209 F7800.000
G1 X99.507 Y101.491 A8.14947 F1800.000
G1 X97.993 Y102.591 A8.26527
G1 X96.350 Y103.495 A8.38131
G1 X94.608 Y104.184 A8.49720
G1 X92.795 Y104.650 A8.61308
G1 X90.936 Y104.884 A8.72899
G1 X89.064 Y104.884 A8.84487
G1 X87.205 Y104.650 A8.96078
G1 X85.392 Y104.184 A9.07666
G1 X83.650 Y103.494 A9.19260
G1 X81.987 Y102.576 A9.31015
G1 X80.493 Y101.491 A9.42438
G1 X79.128 Y100.209 A9.54026
G1 X77.935 Y98.766 A9.65615
G1 X76.945 Y97.206 A9.77049
G1 X76.134 Y95.491 A9.88790
G1 X75.555 Y93.709 A10.00384
G1 X75.204 Y91.870 A10.11973
G1 X75.086 Y89.999 A10.23570
G1 X75.209 Y88.106 A10.35311
G1 X75.555 Y86.291 A10.46744
G1 X76.134 Y84.509 A10.58339
G1 X76.945 Y82.794 A10.70080
G1 X77.935 Y81.234 A10.81514
G1 X79.128 Y79.791 A10.93102
G1 X80.493 Y78.509 A11.04691
G1 X82.007 Y77.409 A11.16271
G1 X83.703 Y76.477 A11.28244
G1 X85.394 Y75.815 A11.39480
G1 X87.205 Y75.350 A11.51055
G1 X89.064 Y75.116 A11.62646
G1 X90.936 Y75.116 A11.74234 F1800.000
G1 X92.795 Y75.350 A11.85825
G1 X94.608 Y75.816 A11.97412
G1 X96.350 Y76.505 A12.09002
G1 X97.993 Y77.409 A12.20605
G1 X99.507 Y78.509 A12.32186
G1 X100.872 Y79.791 A12.43774
G1 X102.065 Y81.234 A12.55363
G1 X103.055 Y82.794 A12.66797
G1 X103.866 Y84.509 A12.78538
G1 X104.445 Y86.291 A12.90132
G1 X104.796 Y88.130 A13.01721
G1 X104.914 Y90.000 A13.13313
G1 X104.796 Y91.870 A13.24905
G1 X104.445 Y93.709 A13.36493
G1 X103.866 Y95.491 A13.48088
G1 X103.055 Y97.206 A13.59829
G1 X102.065 Y98.766 A13.71263
G1 X100.920 Y100.151 A13.82387
G1 X100.415 Y99.781 F7800.000
G1 X99.107 Y101.009 A13.93489 F1800.000
G1 X97.657 Y102.062 A14.04583
G1 X96.083 Y102.928 A14.15700
G1 X94.415 Y103.589 A14.26803
G1 X92.677 Y104.035 A14.37904
G1 X90.897 Y104.259 A14.49008
G1 X89.103 Y104.259 A14.60110
G1 X87.323 Y104.035 A14.71214
G1 X85.585 Y103.589 A14.82316
G1 X83.917 Y102.928 A14.93420
G1 X82.323 Y102.048 A15.04688
G1 X80.893 Y101.009 A15.15628
G1 X79.585 Y99.781 A15.26730
G1 X78.441 Y98.398 A15.37832
G1 X77.493 Y96.904 A15.48782
G1 X76.716 Y95.260 A15.60037
G1 X76.161 Y93.553 A15.71141
G1 X75.825 Y91.791 A15.82244
G1 X75.712 Y90.000 A15.93351
G1 X75.830 Y88.185 A16.04605
G1 X76.161 Y86.447 A16.15555
G1 X76.716 Y84.740 A16.26660
G1 X77.493 Y83.096 A16.37914
G1 X78.441 Y81.602 A16.48865
G1 X79.585 Y80.219 A16.59967
G1 X80.893 Y78.991 A16.71069
G1 X82.343 Y77.938 A16.82163
G1 X83.968 Y77.044 A16.93641
G1 X85.586 Y76.411 A17.04390
G1 X87.323 Y75.965 A17.15486
G1 X89.103 Y75.741 A17.26591
G1 X90.897 Y75.741 A17.37692 F1800.000
G1 X92.677 Y75.965 A17.48797
G1 X94.415 Y76.411 A17.59898
G1 X96.083 Y77.072 A17.71000
G1 X97.657 Y77.938 A17.82117
G1 X99.107 Y78.991 A17.93211
G1 X100.415 Y80.219 A18.04313
G1 X101.559 Y81.602 A18.15415
G1 X102.507 Y83.096 A18.26366
G1 X103.284 Y84.740 A18.37620
G1 X103.839 Y86.447 A18.48725
G1 X104.175 Y88.209 A18.59827
G1 X104.288 Y90.000 A18.70932
G1 X104.175 Y91.791 A18.82038
G1 X103.839 Y93.553 A18.93140
G1 X103.284 Y95.260 A19.04244
G1 X102.507 Y96.904 A19.15499
G1 X101.559 Y98.398 A19.26450
G1 X100.463 Y99.723 A19.37087
G1 X100.550 Y100.262 F7800.000
G1 X108.238 Y99.781 F7800.000
G1 X108.238 Y104.754 A19.67862 F1800.000
G1 X108.155 Y105.543 A19.72771
G1 X107.936 Y106.217 A19.77159
G1 X107.581 Y106.831 A19.81546
G1 X107.107 Y107.358 A19.85933
G1 X106.533 Y107.775 A19.90321
G1 X105.886 Y108.063 A19.94708
G1 X105.192 Y108.210 A19.99096
G1 X74.808 Y108.210 A21.87120
G1 X74.114 Y108.063 A21.91507
G1 X73.467 Y107.775 A21.95895
G1 X72.893 Y107.358 A22.00283
G1 X72.419 Y106.831 A22.04670
G1 X72.064 Y106.217 A22.09057
G1 X71.845 Y105.543 A22.13444
G1 X71.762 Y104.754 A22.18354
G1 X71.762 Y75.246 A24.00953
G1 X71.845 Y74.457 A24.05862
G1 X72.064 Y73.783 A24.10250
G1 X72.419 Y73.169 A24.14637
G1 X72.893 Y72.642 A24.19024
G1 X73.467 Y72.225 A24.23412
G1 X74.114 Y71.937 A24.27799
G1 X74.808 Y71.790 A24.32187
G1 X105.192 Y71.790 A26.20211
G1 X105.692 Y71.896 A26.23375
G1 X105.886 Y71.937 A26.24598 F1800.000
G1 X106.533 Y72.225 A26.28986
G1 X107.107 Y72.642 A26.33373
G1 X107.581 Y73.169 A26.37761
G1 X107.936 Y73.783 A26.42148
G1 X108.155 Y74.457 A26.46535
G1 X108.238 Y75.246 A26.51445
G1 X108.238 Y99.706 A28.02805
G1 X108.863 Y99.781 F7800.000
G1 X108.863 Y104.786 A28.33782 F1800.000
G1 X108.769 Y105.673 A28.39301
G1 X108.510 Y106.472 A28.44501
G1 X108.090 Y107.200 A28.49701
G1 X107.527 Y107.825 A28.54901
G1 X106.847 Y108.319 A28.60102
G1 X106.080 Y108.661 A28.65302
G1 X105.258 Y108.835 A28.70503
G1 X74.742 Y108.835 A30.59339
G1 X73.920 Y108.661 A30.64540
G1 X73.153 Y108.319 A30.69740
G1 X72.473 Y107.825 A30.74941
G1 X71.910 Y107.200 A30.80141
G1 X71.490 Y106.472 A30.85341
G1 X71.231 Y105.673 A30.90541
G1 X71.137 Y104.786 A30.96060
G1 X71.137 Y75.214 A32.79064
G1 X71.231 Y74.327 A32.84582
G1 X71.490 Y73.527 A32.89783
G1 X71.910 Y72.800 A32.94983
G1 X72.473 Y72.175 A33.00183
G1 X73.153 Y71.681 A33.05384
G1 X73.920 Y71.339 A33.10584
G1 X74.742 Y71.165 A33.15784
G1 X105.258 Y71.165 A35.04621
G1 X105.822 Y71.285 A35.08192
G1 X106.080 Y71.339 A35.09822 F1800.000
G1 X106.847 Y71.681 A35.15022
G1 X107.527 Y72.175 A35.20223
G1 X108.090 Y72.800 A35.25423
G1 X108.510 Y73.527 A35.30623
G1 X108.769 Y74.327 A35.35823
G1 X108.863 Y75.214 A35.41342
G1 X108.863 Y99.706 A36.92904
G1 X109.488 Y99.781 F7800.000
G1 X109.488 Y104.819 A37.24084 F1800.000
G1 X109.384 Y105.804 A37.30212
G1 X109.084 Y106.728 A37.36225
G1 X108.598 Y107.570 A37.42238
G1 X107.948 Y108.292 A37.48251
G1 X107.162 Y108.863 A37.54264
G1 X106.274 Y109.258 A37.60278
G1 X105.323 Y109.460 A37.66291
G1 X74.677 Y109.460 A39.55941
G1 X73.726 Y109.258 A39.61954
G1 X72.838 Y108.863 A39.67967
G1 X72.052 Y108.292 A39.73981
G1 X71.402 Y107.570 A39.79994
G1 X70.916 Y106.728 A39.86007
G1 X70.616 Y105.804 A39.92020
G1 X70.513 Y104.819 A39.98147
G1 X70.513 Y75.181 A41.81557
G1 X70.616 Y74.196 A41.87685
G1 X70.916 Y73.272 A41.93698
G1 X71.402 Y72.430 A41.99711
G1 X72.052 Y71.708 A42.05724
G1 X72.838 Y71.137 A42.11737
G1 X73.726 Y70.742 A42.17750
G1 X74.677 Y70.540 A42.23764
G1 X105.323 Y70.540 A44.13413
G1 X105.952 Y70.673 A44.17390
G1 X106.274 Y70.742 A44.19427 F1800.000
G1 X107.162 Y71.137 A44.25440
G1 X107.948 Y71.708 A44.31453
G1 X108.598 Y72.430 A44.37466
G1 X109.084 Y73.272 A44.43479
G1 X109.384 Y74.196 A44.49492
G1 X109.488 Y75.181 A44.55620
G1 X109.488 Y99.706 A46.07386
G1 X109.054 Y100.031 F7800.000
G1 X104.999 Y84.596 F7800.000
G1 X107.859 Y87.456 A46.32508 F1800.000
G1 X107.859 Y88.343 A46.38019
G1 X105.421 Y85.904 A46.59441
G1 X105.630 Y87.000 A46.66373
G1 X107.859 Y89.230 A46.85958
G1 X107.859 Y90.117 A46.91469
G1 X105.806 Y88.064 A47.09505
G1 X105.866 Y89.010 A47.15398
G1 X107.859 Y91.004 A47.32911
G1 X107.859 Y91.891 A47.38422
G1 X105.915 Y89.946 A47.55505
G1 X105.862 Y90.781 A47.60700
G1 X107.859 Y92.778 A47.78245
G1 X107.859 Y93.665 A47.83755
G1 X105.810 Y91.616 A48.01762
G1 X105.696 Y92.389 A48.06617
G1 X107.859 Y94.552 A48.25623
G1 X107.859 Y95.440 A48.31134
G1 X105.554 Y93.134 A48.51388
G1 X105.410 Y93.877 A48.56090
G1 X107.859 Y96.327 A48.77610
G1 X107.859 Y97.214 A48.83120
G1 X105.192 Y94.547 A49.06552
G1 X104.974 Y95.216 A49.10925
G1 X107.859 Y98.101 A49.36268
G1 X107.859 Y98.988 A49.41778
G1 X104.746 Y95.875 A49.69127
G1 X104.461 Y96.477 A49.73266
G1 X107.859 Y99.875 A50.03116
G1 X107.859 Y100.762 A50.08626
G1 X104.177 Y97.080 A50.40978
G1 X103.886 Y97.676 A50.45100
G1 X107.859 Y101.649 A50.80004
G1 X107.859 Y102.536 A50.85515
G1 X103.542 Y98.219 A51.23445
G1 X103.197 Y98.762 A51.27438
G1 X107.859 Y103.424 A51.68394
G1 X107.859 Y104.311 A51.73905
G1 X102.853 Y99.304 A52.17888
G1 X102.451 Y99.790 A52.21802
G1 X107.827 Y105.166 A52.69030
G1 X107.676 Y105.902 A52.73700
G1 X102.049 Y100.275 A53.23132
G1 X101.648 Y100.761 A53.27046
G1 X107.390 Y106.503 A53.77489
G1 X106.988 Y106.988 A53.81403
G1 X101.201 Y101.201 A54.32239
G1 X100.744 Y101.631 A54.36137
G1 X106.505 Y107.392 A54.86751
G1 X105.910 Y107.684 A54.90869
G1 X100.286 Y102.060 A55.40273
G1 X99.795 Y102.457 A55.44192
G1 X105.170 Y107.832 A55.91412
G1 X104.283 Y107.832 A55.96923
G1 X99.282 Y102.830 A56.40864
G1 X98.768 Y103.203 A56.44809
G1 X103.396 Y107.832 A56.85470
G1 X102.509 Y107.832 A56.90981
G1 X98.229 Y103.552 A57.28579
G1 X97.657 Y103.867 A57.32636
G1 X101.622 Y107.832 A57.67469
G1 X100.735 Y107.832 A57.72980
G1 X97.085 Y104.181 A58.05048
G1 X96.491 Y104.475 A58.09161
G1 X99.848 Y107.832 A58.38647
G1 X98.961 Y107.832 A58.44158
G1 X95.856 Y104.727 A58.71434
G1 X95.220 Y104.979 A58.75680
G1 X98.073 Y107.832 A59.00746
G1 X97.186 Y107.832 A59.06257
G1 X94.558 Y105.203 A59.29348
G1 X93.852 Y105.384 A59.33876
G1 X96.299 Y107.832 A59.55375
G1 X95.412 Y107.832 A59.60886
G1 X93.146 Y105.566 A59.80794
G1 X92.390 Y105.697 A59.85561
G1 X94.525 Y107.832 A60.04319
G1 X93.638 Y107.832 A60.09830
G1 X91.602 Y105.796 A60.27714
G1 X90.807 Y105.888 A60.32687
G1 X92.751 Y107.832 A60.49765
G1 X91.864 Y107.832 A60.55276
G1 X89.920 Y105.888 A60.72353
G1 X89.033 Y105.888 A60.77864
G1 X90.977 Y107.832 A60.94941
G1 X90.089 Y107.832 A61.00452
G1 X88.042 Y105.785 A61.18436
G1 X87.027 Y105.656 A61.24794
G1 X89.202 Y107.832 A61.43905
G1 X88.315 Y107.832 A61.49416
G1 X85.863 Y105.379 A61.70961
G1 X84.614 Y105.018 A61.79035
G1 X87.428 Y107.832 A62.03754
G1 X86.541 Y107.832 A62.09265
G1 X83.146 Y104.437 A62.39092
G1 X81.180 Y103.358 F7800.000
G1 X85.654 Y107.832 A62.78392 F1800.000
G1 X84.767 Y107.832 A62.83903
G1 X72.141 Y95.206 A63.94822
G1 X72.141 Y96.093 A64.00333
G1 X83.880 Y107.832 A65.03459
G1 X82.992 Y107.832 A65.08970
G1 X72.141 Y96.980 A66.04302
G1 X72.141 Y97.867 A66.09813
G1 X82.105 Y107.832 A66.97352
G1 X81.218 Y107.832 A67.02863
G1 X72.141 Y98.754 A67.82608
G1 X75.617 Y96.907 F7800.000
G1 X72.141 Y93.432 A68.13143 F1800.000
G1 X72.141 Y94.319 A68.18654
G1 X76.723 Y98.901 A68.58909
G1 X75.001 Y95.404 F7800.000
G1 X72.141 Y92.545 A68.84031 F1800.000
G1 X72.141 Y91.657 A68.89542
G1 X74.579 Y94.096 A69.10964
G1 X74.370 Y93.000 A69.17896
G1 X72.141 Y90.770 A69.37481
G1 X72.141 Y89.883 A69.42992
G1 X74.194 Y91.936 A69.61029
G1 X74.134 Y90.990 A69.66921
G1 X72.141 Y88.996 A69.84434
G1 X72.141 Y88.109 A69.89945
G1 X74.085 Y90.053 A70.07028
G1 X74.139 Y89.220 A70.12215
G1 X72.141 Y87.222 A70.29770
G1 X72.141 Y86.335 A70.35281
G1 X74.193 Y88.387 A70.53310
G1 X74.304 Y87.611 A70.58179
G1 X72.141 Y85.448 A70.77185
G1 X72.141 Y84.560 A70.82696
G1 X74.446 Y86.866 A71.02950
G1 X74.590 Y86.123 A71.07652
G1 X72.141 Y83.673 A71.29172
G1 X72.141 Y82.786 A71.34682
G1 X74.808 Y85.453 A71.58114
G1 X75.026 Y84.784 A71.62487
G1 X72.141 Y81.899 A71.87829
G1 X72.141 Y81.012 A71.93340
G1 X75.254 Y84.125 A72.20689
G1 X75.539 Y83.523 A72.24827
G1 X72.141 Y80.125 A72.54677
G1 X72.141 Y79.238 A72.60188
G1 X75.823 Y82.920 A72.92539
G1 X76.114 Y82.324 A72.96661
G1 X72.141 Y78.351 A73.31566
G1 X72.141 Y77.464 A73.37076
G1 X76.458 Y81.781 A73.75006
G1 X76.803 Y81.238 A73.78999
G1 X72.141 Y76.576 A74.19955
G1 X72.141 Y75.689 A74.25466
G1 X77.147 Y80.696 A74.69449
G1 X77.549 Y80.210 A74.73363
G1 X72.173 Y74.834 A75.20591
G1 X72.324 Y74.098 A75.25260
G1 X77.951 Y79.725 A75.74692
G1 X78.352 Y79.239 A75.78607
G1 X72.610 Y73.497 A76.29050
G1 X73.012 Y73.012 A76.32964
G1 X78.799 Y78.799 A76.83799
G1 X79.256 Y78.369 A76.87698
G1 X73.495 Y72.608 A77.38311
G1 X74.090 Y72.316 A77.42429
G1 X79.714 Y77.940 A77.91834
G1 X80.205 Y77.543 A77.95753
G1 X74.830 Y72.168 A78.42973
G1 X75.717 Y72.168 A78.48484
G1 X80.718 Y77.170 A78.92425
G1 X81.232 Y76.797 A78.96370
G1 X76.604 Y72.168 A79.37031
G1 X77.491 Y72.168 A79.42542
G1 X81.771 Y76.448 A79.80140
G1 X82.343 Y76.133 A79.84197
G1 X78.378 Y72.168 A80.19030
G1 X79.265 Y72.168 A80.24541
G1 X82.915 Y75.819 A80.56609
G1 X83.503 Y75.519 A80.60707
G1 X80.152 Y72.168 A80.90146
G1 X81.039 Y72.168 A80.95656
G1 X84.141 Y75.270 A81.22904
G1 X84.779 Y75.021 A81.27158
G1 X81.927 Y72.168 A81.52216
G1 X82.814 Y72.168 A81.57726
G1 X85.442 Y74.797 A81.80818
G1 X86.148 Y74.616 A81.85345
G1 X83.701 Y72.168 A82.06845
G1 X84.588 Y72.168 A82.12356
G1 X86.854 Y74.434 A82.32263
G1 X87.610 Y74.303 A82.37031
G1 X85.475 Y72.168 A82.55789
G1 X86.362 Y72.168 A82.61300
G1 X88.398 Y74.204 A82.79184
G1 X89.193 Y74.112 A82.84157
G1 X87.249 Y72.168 A83.01235
G1 X88.136 Y72.168 A83.06745
G1 X90.080 Y74.112 A83.23823
G1 X90.967 Y74.112 A83.29334
G1 X89.023 Y72.168 A83.46411
G1 X89.911 Y72.168 A83.51922
G1 X91.958 Y74.215 A83.69906
G1 X92.973 Y74.344 A83.76264
G1 X90.798 Y72.168 A83.95375
G1 X91.685 Y72.168 A84.00886
G1 X94.137 Y74.621 A84.22431
G1 X95.386 Y74.982 A84.30504
G1 X92.572 Y72.168 A84.55223
G1 X93.459 Y72.168 A84.60734
G1 X96.854 Y75.563 A84.90561
G1 X98.820 Y76.642 F7800.000
G1 X94.346 Y72.168 A85.29861 F1800.000
G1 X95.233 Y72.168 A85.35371
G1 X107.859 Y84.794 A86.46291
G1 X107.859 Y83.907 A86.51802
G1 X96.120 Y72.168 A87.54928
G1 X97.007 Y72.168 A87.60439
G1 X107.859 Y83.020 A88.55772
G1 X107.859 Y82.133 A88.61282
G1 X97.895 Y72.168 A89.48822
G1 X98.782 Y72.168 A89.54333
G1 X107.859 Y81.246 A90.34079
G1 X107.859 Y80.359 A90.39589
G1 X99.669 Y72.168 A91.11542
G1 X100.556 Y72.168 A91.17053
G1 X107.859 Y79.471 A91.81212
G1 X107.859 Y78.584 A91.86723
G1 X101.443 Y72.168 A92.43089
G1 X102.330 Y72.168 A92.48600
G1 X107.859 Y77.697 A92.97172
G1 X107.859 Y76.810 A93.02683
G1 X103.217 Y72.168 A93.43462
G1 X104.104 Y72.168 A93.48973
G1 X107.859 Y75.923 A93.81959
G1 X107.816 Y74.992 A93.87745
G1 X104.992 Y72.168 A94.12556
G1 X106.527 Y72.816 F7800.000
G1 X107.152 Y73.442 A94.18052 F1800.000
G1 X103.277 Y81.099 F7800.000
G1 X107.859 Y85.681 A94.58306 F1800.000
G1 X107.859 Y86.568 A94.63816
G1 X104.383 Y83.093 A94.94351
G1 A92.94351 F2400.00000
G92 A0
G1 X80.331 Y107.832 F7800.000
G1 A2.00000 F2400.00000
G1 X72.141 Y99.641 A2.71952 F1800.000
G1 X72.141 Y100.529 A2.77463
G1 X79.444 Y107.832 A3.41622
G1 X78.557 Y107.832 A3.47133
G1 X72.141 Y101.416 A4.03498
G1 X72.141 Y102.303 A4.09009
G1 X77.670 Y107.832 A4.57581
G1 X76.783 Y107.832 A4.63092
G1 X72.141 Y103.190 A5.03871
G1 X72.141 Y104.077 A5.09381
G1 X75.896 Y107.832 A5.42367
G1 X75.008 Y107.832 A5.47878
G1 X72.184 Y105.008 A5.72688
G1 X72.848 Y106.559 F7800.000
G1 X73.473 Y107.184 A5.78179 F1800.000
G1 Z0.650 F7800.000
G1 A3.78179 F2400.00000
G92 A0
G1 X103.602 Y96.976 F7800.000
G1 A2.00000 F2400.00000
G1 X103.381 Y97.440 A2.02857 F3600.000
G1 X102.390 Y99.002 A2.13135
G1 X101.164 Y100.484 A2.23817
G1 X99.762 Y101.800 A2.34502
G1 X98.209 Y102.929 A2.45165
G1 X96.521 Y103.858 A2.55873
G1 X94.732 Y104.566 A2.66558
G1 X92.870 Y105.044 A2.77241
G1 X90.961 Y105.285 A2.87927
G1 X89.039 Y105.285 A2.98610
G1 X87.130 Y105.044 A3.09295
G1 X85.268 Y104.566 A3.19978
G1 X83.483 Y103.859 A3.30644
G1 X81.791 Y102.929 A3.41371
G1 X80.238 Y101.800 A3.52035
G1 X78.836 Y100.484 A3.62719
G1 X77.610 Y99.002 A3.73402
G1 X76.619 Y97.440 A3.83679
G1 X75.762 Y95.641 A3.94751
G1 X75.166 Y93.809 A4.05454
G1 X74.806 Y91.920 A4.16139
G1 X74.685 Y90.000 A4.26825
G1 X74.806 Y88.080 A4.37512
G1 X75.166 Y86.191 A4.48197
G1 X75.762 Y84.359 A4.58900
G1 X76.619 Y82.560 A4.69972
G1 X77.610 Y80.998 A4.80248
G1 X78.836 Y79.516 A4.90931
G1 X80.238 Y78.200 A5.01616
G1 X81.791 Y77.071 A5.12279
G1 X83.480 Y76.142 A5.22988
G1 X85.271 Y75.434 A5.33693
G1 X87.130 Y74.956 A5.44355
G1 X89.039 Y74.715 A5.55041
G1 X90.961 Y74.715 A5.65724 F3600.000
G1 X92.870 Y74.956 A5.76410
G1 X94.732 Y75.434 A5.87093
G1 X96.517 Y76.141 A5.97759
G1 X98.209 Y77.071 A6.08485
G1 X99.762 Y78.200 A6.19149
G1 X101.164 Y79.516 A6.29834
G1 X102.390 Y80.998 A6.40516
G1 X103.381 Y82.560 A6.50793
G1 X104.238 Y84.359 A6.61865
G1 X104.834 Y86.191 A6.72568
G1 X105.194 Y88.080 A6.83253
G1 X105.315 Y90.000 A6.93940
G1 X105.194 Y91.920 A7.04626
G1 X104.834 Y93.809 A7.15311
G1 X104.238 Y95.641 A7.26014
G1 X103.635 Y96.908 A7.33812
G1 X103.011 Y96.694 F7800.000
G1 X102.807 Y97.123 A7.36450 F3600.000
G1 X101.859 Y98.617 A7.46278
G1 X100.686 Y100.035 A7.56503
G1 X99.344 Y101.295 A7.66730
G1 X97.858 Y102.375 A7.76936
G1 X96.241 Y103.264 A7.87187
G1 X94.530 Y103.942 A7.97414
G1 X92.747 Y104.400 A8.07640
G1 X90.920 Y104.630 A8.17868
G1 X89.080 Y104.630 A8.28093
G1 X87.253 Y104.400 A8.38321
G1 X85.470 Y103.942 A8.48547
G1 X83.762 Y103.265 A8.58755
G1 X82.142 Y102.375 A8.69024
G1 X80.656 Y101.295 A8.79230
G1 X79.314 Y100.035 A8.89458
G1 X78.141 Y98.617 A8.99683
G1 X77.193 Y97.123 A9.09511
G1 X76.371 Y95.398 A9.20126
G1 X75.801 Y93.646 A9.30362
G1 X75.456 Y91.838 A9.40590
G1 X75.341 Y90.000 A9.50819
G1 X75.456 Y88.162 A9.61048
G1 X75.801 Y86.354 A9.71275
G1 X76.371 Y84.602 A9.81511
G1 X77.193 Y82.877 A9.92126
G1 X78.141 Y81.383 A10.01954
G1 X79.314 Y79.965 A10.12179
G1 X80.656 Y78.705 A10.22407
G1 X82.142 Y77.625 A10.32613
G1 X83.759 Y76.736 A10.42864
G1 X85.474 Y76.057 A10.53110
G1 X87.253 Y75.600 A10.63316
G1 X89.080 Y75.370 A10.73544
G1 X90.920 Y75.370 A10.83769 F3600.000
G1 X92.747 Y75.600 A10.93998
G1 X94.530 Y76.058 A11.04223
G1 X96.238 Y76.735 A11.14431
G1 X97.858 Y77.625 A11.24700
G1 X99.344 Y78.705 A11.34907
G1 X100.686 Y79.965 A11.45134
G1 X101.859 Y81.383 A11.55359
G1 X102.807 Y82.877 A11.65187
G1 X103.629 Y84.602 A11.75802
G1 X104.199 Y86.354 A11.86038
G1 X104.544 Y88.162 A11.96266
G1 X104.659 Y90.000 A12.06495
G1 X104.544 Y91.838 A12.16724
G1 X104.199 Y93.646 A12.26951
G1 X103.629 Y95.398 A12.37187
G1 X103.044 Y96.627 A12.44748
G1 X102.519 Y96.460 F7800.000
G1 X102.329 Y96.859 A12.46381 F1800.000
G1 X101.417 Y98.296 A12.52675
G1 X100.288 Y99.661 A12.59226
G1 X98.996 Y100.874 A12.65780
G1 X97.565 Y101.914 A12.72319
G1 X96.009 Y102.770 A12.78888
G1 X94.361 Y103.422 A12.85441
G1 X92.645 Y103.863 A12.91994
G1 X90.886 Y104.085 A12.98548
G1 X89.114 Y104.085 A13.05100
G1 X87.355 Y103.863 A13.11654
G1 X85.639 Y103.422 A13.18206
G1 X83.994 Y102.771 A13.24747
G1 X82.435 Y101.914 A13.31328
G1 X81.004 Y100.874 A13.37868
G1 X79.712 Y99.661 A13.44421
G1 X78.583 Y98.296 A13.50973
G1 X77.671 Y96.859 A13.57266
G1 X76.878 Y95.196 A13.64077
G1 X76.330 Y93.510 A13.70632
G1 X75.998 Y91.769 A13.77185
G1 X75.887 Y90.000 A13.83740
G1 X75.998 Y88.231 A13.90295
G1 X76.330 Y86.490 A13.96848
G1 X76.878 Y84.804 A14.03403
G1 X77.671 Y83.141 A14.10214
G1 X78.582 Y81.704 A14.16507
G1 X79.712 Y80.339 A14.23059
G1 X81.004 Y79.126 A14.29612
G1 X82.435 Y78.086 A14.36152
G1 X83.991 Y77.230 A14.42721
G1 X85.643 Y76.577 A14.49287
G1 X87.355 Y76.137 A14.55826
G1 X89.114 Y75.915 A14.62380
G1 X90.886 Y75.915 A14.68932 F1800.000
G1 X92.645 Y76.137 A14.75486
G1 X94.361 Y76.578 A14.82039
G1 X96.006 Y77.229 A14.88579
G1 X97.565 Y78.086 A14.95160
G1 X98.996 Y79.126 A15.01700
G1 X100.288 Y80.339 A15.08254
G1 X101.417 Y81.704 A15.14806
G1 X102.329 Y83.141 A15.21098
G1 X103.122 Y84.804 A15.27910
G1 X103.670 Y86.490 A15.34464
G1 X104.002 Y88.231 A15.41018
G1 X104.113 Y90.000 A15.47572
G1 X104.002 Y91.769 A15.54127
G1 X103.670 Y93.510 A15.60680
G1 X103.122 Y95.196 A15.67235
G1 X102.552 Y96.392 A15.72135
G1 X102.770 Y96.824 F7800.000
G1 X108.550 Y96.460 F7800.000
G1 X108.550 Y104.924 A16.19157 F3600.000
G1 X108.465 Y105.737 A16.23696
G1 X108.236 Y106.441 A16.27811
G1 X107.866 Y107.082 A16.31925
G1 X107.370 Y107.633 A16.36039
G1 X106.771 Y108.068 A16.40153
G1 X106.095 Y108.369 A16.44268
G1 X105.370 Y108.523 A16.48382
G1 X74.630 Y108.523 A18.19163
G1 X73.905 Y108.369 A18.23277
G1 X73.229 Y108.068 A18.27392
G1 X72.630 Y107.633 A18.31506
G1 X72.134 Y107.082 A18.35620
G1 X71.764 Y106.441 A18.39734
G1 X71.535 Y105.737 A18.43849
G1 X71.450 Y104.924 A18.48388
G1 X71.450 Y75.076 A20.14210
G1 X71.535 Y74.263 A20.18749
G1 X71.764 Y73.559 A20.22863
G1 X72.134 Y72.918 A20.26977
G1 X72.630 Y72.367 A20.31091
G1 X73.229 Y71.932 A20.35206
G1 X73.905 Y71.631 A20.39320
G1 X74.630 Y71.477 A20.43435
G1 X105.370 Y71.477 A22.14215
G1 X106.095 Y71.631 A22.18330
G1 X106.771 Y71.932 A22.22444 F3600.000
G1 X107.370 Y72.367 A22.26559
G1 X107.866 Y72.918 A22.30673
G1 X108.236 Y73.559 A22.34787
G1 X108.465 Y74.263 A22.38901
G1 X108.550 Y75.076 A22.43440
G1 X108.550 Y96.385 A23.61824
G1 X109.205 Y96.460 F7800.000
G1 X109.205 Y104.958 A24.09036 F3600.000
G1 X109.109 Y105.873 A24.14148
G1 X108.837 Y106.709 A24.19027
G1 X108.398 Y107.469 A24.23905
G1 X107.811 Y108.122 A24.28783
G1 X107.100 Y108.638 A24.33662
G1 X106.298 Y108.995 A24.38541
G1 X105.439 Y109.178 A24.43420
G1 X74.561 Y109.178 A26.14965
G1 X73.702 Y108.995 A26.19844
G1 X72.900 Y108.638 A26.24722
G1 X72.189 Y108.122 A26.29601
G1 X71.602 Y107.469 A26.34480
G1 X71.163 Y106.709 A26.39358
G1 X70.891 Y105.873 A26.44237
G1 X70.795 Y104.958 A26.49348
G1 X70.795 Y75.042 A28.15552
G1 X70.891 Y74.127 A28.20664
G1 X71.163 Y73.291 A28.25542
G1 X71.602 Y72.531 A28.30420
G1 X72.189 Y71.878 A28.35299
G1 X72.900 Y71.362 A28.40178
G1 X73.702 Y71.005 A28.45056
G1 X74.561 Y70.822 A28.49935
G1 X105.439 Y70.822 A30.21480
G1 X106.298 Y71.005 A30.26359
G1 X107.100 Y71.362 A30.31238 F3600.000
G1 X107.811 Y71.878 A30.36117
G1 X108.398 Y72.531 A30.40995
G1 X108.837 Y73.291 A30.45873
G1 X109.109 Y74.127 A30.50752
G1 X109.205 Y75.042 A30.55864
G1 X109.205 Y96.385 A31.74438
G1 X109.750 Y96.460 F7800.000
G1 X109.750 Y104.987 A32.05967 F1800.000
G1 X109.645 Y105.987 A32.09687
G1 X109.338 Y106.931 A32.13358
G1 X108.842 Y107.791 A32.17028
G1 X108.177 Y108.529 A32.20699
G1 X107.374 Y109.112 A32.24370
G1 X106.467 Y109.516 A32.28041
G1 X105.496 Y109.723 A32.31712
G1 X74.504 Y109.723 A33.46312
G1 X73.533 Y109.516 A33.49983
G1 X72.626 Y109.112 A33.53653
G1 X71.823 Y108.529 A33.57324
G1 X71.158 Y107.791 A33.60995
G1 X70.662 Y106.931 A33.64666
G1 X70.355 Y105.987 A33.68336
G1 X70.250 Y104.987 A33.72056
G1 X70.250 Y75.013 A34.82889
G1 X70.355 Y74.013 A34.86608
G1 X70.662 Y73.069 A34.90279
G1 X71.158 Y72.209 A34.93950
G1 X71.823 Y71.471 A34.97620
G1 X72.626 Y70.888 A35.01291
G1 X73.533 Y70.484 A35.04962
G1 X74.504 Y70.277 A35.08633
G1 X105.496 Y70.277 A36.23233
G1 X106.467 Y70.484 A36.26904
G1 X107.374 Y70.888 A36.30575 F1800.000
G1 X108.177 Y71.471 A36.34246
G1 X108.842 Y72.209 A36.37916
G1 X109.338 Y73.069 A36.41587
G1 X109.645 Y74.013 A36.45258
G1 X109.750 Y75.013 A36.48977
G1 X109.750 Y96.385 A37.28003
G1 X109.317 Y96.710 F7800.000
G1 X104.132 Y96.958 F7800.000
G1 X108.153 Y92.937 A37.59992 F1200.000
G1 X108.153 Y92.000 A37.65266
G1 X104.803 Y95.349 A37.91916
G1 X105.235 Y93.981 A37.99988
G1 X108.153 Y91.063 A38.23208
G1 X108.153 Y90.125 A38.28482
G1 X105.456 Y92.823 A38.49944
G1 X105.614 Y91.727 A38.56170
G1 X108.153 Y89.188 A38.76374
G1 X108.153 Y88.250 A38.81648
G1 X105.676 Y90.727 A39.01352
G1 X105.691 Y89.775 A39.06705
G1 X108.153 Y87.313 A39.26297
G1 X108.153 Y86.376 A39.31570
G1 X105.635 Y88.894 A39.51603
G1 X105.565 Y88.027 A39.56496
G1 X108.153 Y85.438 A39.77090
G1 X108.153 Y84.501 A39.82364
G1 X105.414 Y87.240 A40.04152
G1 X105.264 Y86.452 A40.08661
G1 X108.153 Y83.564 A40.31645
G1 X108.153 Y82.626 A40.36918
G1 X105.060 Y85.719 A40.61524
G1 X104.830 Y85.012 A40.65709
G1 X108.153 Y81.689 A40.92144
G1 X108.153 Y80.752 A40.97418
G1 X104.601 Y84.304 A41.25682
G1 X104.299 Y83.669 A41.29640
G1 X108.153 Y79.814 A41.60306
G1 X108.153 Y78.877 A41.65580
G1 X103.996 Y83.034 A41.98653
G1 X103.690 Y82.403 A42.02600
G1 X108.153 Y77.940 A42.38110
G1 X108.153 Y77.002 A42.43384
G1 X103.326 Y81.829 A42.81790
G1 X102.962 Y81.256 A42.85611
G1 X108.153 Y76.065 A43.26913
G1 X108.153 Y75.128 A43.32187
G1 X102.583 Y80.697 A43.76500
G1 X102.159 Y80.184 A43.80245
G1 X108.079 Y74.264 A44.27348
G1 X107.840 Y73.566 A44.31500
G1 X101.735 Y79.671 A44.80075
G1 X101.296 Y79.173 A44.83811
G1 X107.476 Y72.993 A45.32983
G1 X107.006 Y72.526 A45.36712
G1 X100.812 Y78.719 A45.85990
G1 X100.329 Y78.265 A45.89720
G1 X106.428 Y72.166 A46.38250
G1 X105.724 Y71.932 A46.42422
G1 X99.830 Y77.826 A46.89316
G1 X99.288 Y77.432 A46.93092
G1 X104.845 Y71.874 A47.37307
G1 X103.908 Y71.874 A47.42581
G1 X98.745 Y77.037 A47.83658
G1 X98.184 Y76.661 A47.87458
G1 X102.970 Y71.874 A48.25539
G1 X102.033 Y71.874 A48.30813
G1 X97.579 Y76.328 A48.66248
G1 X96.974 Y75.996 A48.70131
G1 X101.095 Y71.874 A49.02921
G1 X100.158 Y71.874 A49.08195
G1 X96.343 Y75.689 A49.38547
G1 X95.672 Y75.423 A49.42610
G1 X99.221 Y71.874 A49.70848
G1 X98.283 Y71.874 A49.76121
G1 X95.000 Y75.158 A50.02244
G1 X94.281 Y74.939 A50.06472
G1 X97.346 Y71.874 A50.30858
G1 X96.409 Y71.874 A50.36132
G1 X93.535 Y74.748 A50.58995
G1 X92.784 Y74.561 A50.63347
G1 X95.471 Y71.874 A50.84726
G1 X94.534 Y71.874 A50.89999
G1 X91.952 Y74.456 A51.10541
G1 X91.120 Y74.351 A51.15260
G1 X93.597 Y71.874 A51.34966
G1 X92.659 Y71.874 A51.40239
G1 X90.216 Y74.318 A51.59680
G1 X89.279 Y74.318 A51.64953
G1 X91.722 Y71.874 A51.84394
G1 X90.785 Y71.874 A51.89667
G1 X88.266 Y74.394 A52.09711
G1 X87.193 Y74.529 A52.15795
G1 X89.847 Y71.874 A52.36917
G1 X88.910 Y71.874 A52.42191
G1 X85.985 Y74.800 A52.65468
G1 X84.668 Y75.180 A52.73179
G1 X87.973 Y71.874 A52.99476
G1 X87.035 Y71.874 A53.04749
G1 X83.117 Y75.793 A53.35929
G1 X80.823 Y77.150 F7800.000
G1 X86.098 Y71.874 A53.77902 F1200.000
G1 X85.161 Y71.874 A53.83175
G1 X71.847 Y85.188 A54.89104
G1 X71.847 Y86.125 A54.94378
G1 X77.114 Y80.858 A55.36287
G1 X75.868 Y83.042 F7800.000
G1 X71.847 Y87.063 A55.68276 F1200.000
G1 X71.847 Y88.000 A55.73549
G1 X75.197 Y84.651 A56.00200
G1 X74.765 Y86.019 A56.08273
G1 X71.847 Y88.937 A56.31493
G1 X71.847 Y89.875 A56.36766
G1 X74.544 Y87.177 A56.58228
G1 X74.386 Y88.273 A56.64454
G1 X71.847 Y90.812 A56.84659
G1 X71.847 Y91.749 A56.89932
G1 X74.324 Y89.273 A57.09636
G1 X74.309 Y90.224 A57.14990
G1 X71.847 Y92.687 A57.34581
G1 X71.847 Y93.624 A57.39855
G1 X74.365 Y91.106 A57.59888
G1 X74.435 Y91.973 A57.64780
G1 X71.847 Y94.561 A57.85374
G1 X71.847 Y95.499 A57.90648
G1 X74.586 Y92.760 A58.12437
G1 X74.736 Y93.548 A58.16945
G1 X71.847 Y96.436 A58.39929
G1 X71.847 Y97.374 A58.45202
G1 X74.940 Y94.281 A58.69808
G1 X75.170 Y94.988 A58.73993
G1 X71.847 Y98.311 A59.00428
G1 X71.847 Y99.248 A59.05702
G1 X75.399 Y95.696 A59.33966
G1 X75.701 Y96.331 A59.37923
G1 X71.847 Y100.186 A59.68590
G1 X71.847 Y101.123 A59.73863
G1 X76.004 Y96.966 A60.06937
G1 X76.310 Y97.597 A60.10883
G1 X71.847 Y102.060 A60.46394
G1 X71.847 Y102.998 A60.51667
G1 X76.674 Y98.171 A60.90073
G1 X77.038 Y98.744 A60.93894
G1 X71.847 Y103.935 A61.35196
G1 X71.847 Y104.872 A61.40469
G1 X77.416 Y99.303 A61.84782
G1 X77.841 Y99.816 A61.88528
G1 X71.921 Y105.736 A62.35631
G1 X72.160 Y106.434 A62.39782
G1 X78.265 Y100.329 A62.88357
G1 X78.704 Y100.827 A62.92093
G1 X72.524 Y107.007 A63.41265
G1 X72.994 Y107.474 A63.44994
G1 X79.188 Y101.281 A63.94272
G1 X79.671 Y101.735 A63.98003
G1 X73.572 Y107.834 A64.46533
G1 X74.275 Y108.068 A64.50704
G1 X80.169 Y102.174 A64.97599
G1 X80.712 Y102.568 A65.01374
G1 X75.155 Y108.126 A65.45590
G1 X76.092 Y108.126 A65.50864
G1 X81.255 Y102.963 A65.91941
G1 X81.816 Y103.339 A65.95741
G1 X77.030 Y108.126 A66.33823
G1 X77.967 Y108.126 A66.39096
G1 X82.421 Y103.672 A66.74532
G1 X83.026 Y104.004 A66.78415
G1 X78.904 Y108.126 A67.11205
G1 X79.842 Y108.126 A67.16478
G1 X83.657 Y104.311 A67.46831
G1 X84.328 Y104.577 A67.50894
G1 X80.779 Y108.126 A67.79132
G1 X81.716 Y108.126 A67.84405
G1 X85.000 Y104.842 A68.10528
G1 X85.719 Y105.061 A68.14756
G1 X82.654 Y108.126 A68.39142
G1 X83.591 Y108.126 A68.44416
G1 X86.465 Y105.252 A68.67279
G1 X87.215 Y105.439 A68.71631
G1 X84.529 Y108.126 A68.93010
G1 X85.466 Y108.126 A68.98283
G1 X88.048 Y105.544 A69.18825
G1 X88.880 Y105.649 A69.23544
G1 X86.403 Y108.126 A69.43250
G1 X87.341 Y108.126 A69.48523
G1 X89.784 Y105.682 A69.67964
G1 X90.721 Y105.682 A69.73237
G1 X88.278 Y108.126 A69.92678
G1 X89.215 Y108.126 A69.97952
G1 X91.734 Y105.606 A70.17995
G1 X92.807 Y105.471 A70.24079
G1 X90.153 Y108.126 A70.45202
G1 X91.090 Y108.126 A70.50475
G1 X94.015 Y105.200 A70.73752
G1 X95.332 Y104.821 A70.81458
G1 X92.027 Y108.126 A71.07749
G1 X92.965 Y108.126 A71.13023
G1 X96.883 Y104.207 A71.44202
G1 X99.177 Y102.850 F7800.000
G1 X93.902 Y108.126 A71.86174 F1200.000
G1 X102.886 Y99.142 F7800.000
G1 X108.153 Y93.875 A72.28083 F1200.000
G1 X108.153 Y94.812 A72.33356
G1 X94.839 Y108.126 A73.39285
G1 X95.777 Y108.126 A73.44559
G1 X108.153 Y95.749 A74.43030
G1 X108.153 Y96.687 A74.48304
G1 X96.714 Y108.126 A75.39317
G1 X97.651 Y108.126 A75.44591
G1 X108.153 Y97.624 A76.28147
G1 X108.153 Y98.561 A76.33420
G1 X98.589 Y108.126 A77.09518
G1 X99.526 Y108.126 A77.14791
G1 X108.153 Y99.499 A77.83431
G1 X108.153 Y100.436 A77.88705
G1 X100.463 Y108.126 A78.49887
G1 X101.401 Y108.126 A78.55160
G1 X108.153 Y101.373 A79.08885
G1 X108.153 Y102.311 A79.14158
G1 X102.338 Y108.126 A79.60424
G1 X103.275 Y108.126 A79.65698
G1 X108.153 Y103.248 A80.04506
G1 X108.153 Y104.185 A80.09780
G1 X104.213 Y108.126 A80.41130
G1 X105.150 Y108.126 A80.46404
G1 X108.110 Y105.166 A80.69955
G1 X107.405 Y106.808 F7800.000
G1 X106.767 Y107.446 A80.75032 F1200.000
G1 A78.75032 F2400.00000
G92 A0
G1 X71.847 Y84.251 F7800.000
G1 A2.00000 F2400.00000
G1 X84.223 Y71.874 A2.98471 F1200.000
G1 X83.286 Y71.874 A3.03744
G1 X71.847 Y83.313 A3.94758
G1 X71.847 Y82.376 A4.00031
G1 X82.349 Y71.874 A4.83586
G1 X81.411 Y71.874 A4.88860
G1 X71.847 Y81.439 A5.64957
G1 X71.847 Y80.501 A5.70231
G1 X80.474 Y71.874 A6.38870
G1 X79.537 Y71.874 A6.44144
G1 X71.847 Y79.564 A7.05325
G1 X71.847 Y78.627 A7.10599
G1 X78.599 Y71.874 A7.64322
G1 X77.662 Y71.874 A7.69596
G1 X71.847 Y77.689 A8.15862
G1 X71.847 Y76.752 A8.21135
G1 X76.725 Y71.874 A8.59943
G1 X75.787 Y71.874 A8.65217
G1 X71.847 Y75.815 A8.96567
G1 X71.890 Y74.834 A9.02087
G1 X74.850 Y71.874 A9.25638
G1 X73.233 Y72.554 F7800.000
G1 X72.595 Y73.192 A9.30710 F1200.000
G1 Z0.950 F7800.000
G1 A7.30710 F2400.00000
G92 A0
G1 X104.459 Y94.741 F7800.000
G1 A2.00000 F2400.00000
G1 X104.176 Y95.613 A2.05092 F3600.000
G1 X103.361 Y97.345 A2.15728
G1 X102.334 Y98.962 A2.26367
G1 X101.114 Y100.437 A2.37003
G1 X99.718 Y101.747 A2.47639
G1 X98.174 Y102.869 A2.58244
G1 X96.491 Y103.795 A2.68916
G1 X94.706 Y104.502 A2.79583
G1 X92.857 Y104.976 A2.90187
G1 X90.957 Y105.216 A3.00824
G1 X89.043 Y105.216 A3.11460
G1 X87.143 Y104.976 A3.22097
G1 X85.289 Y104.500 A3.32732
G1 X83.514 Y103.797 A3.43340
G1 X81.826 Y102.870 A3.54039
G1 X80.282 Y101.747 A3.64644
G1 X78.886 Y100.437 A3.75281
G1 X77.666 Y98.962 A3.85917
G1 X76.640 Y97.345 A3.96556
G1 X75.824 Y95.613 A4.07192
G1 X75.233 Y93.792 A4.17828
G1 X74.874 Y91.911 A4.28464
G1 X74.754 Y90.000 A4.39103
G1 X74.874 Y88.089 A4.49741
G1 X75.233 Y86.208 A4.60377
G1 X75.824 Y84.387 A4.71013
G1 X76.640 Y82.655 A4.81649
G1 X77.666 Y81.038 A4.92288
G1 X78.886 Y79.563 A5.02924
G1 X80.282 Y78.253 A5.13561
G1 X81.826 Y77.131 A5.24165
G1 X83.509 Y76.205 A5.34837
G1 X85.294 Y75.498 A5.45504
G1 X87.143 Y75.024 A5.56108
G1 X89.043 Y74.784 A5.66745
G1 X90.957 Y74.784 A5.77382 F3600.000
G1 X92.857 Y75.024 A5.88018
G1 X94.711 Y75.500 A5.98654
G1 X96.486 Y76.203 A6.09261
G1 X98.174 Y77.130 A6.19960
G1 X99.718 Y78.253 A6.30566
G1 X101.114 Y79.563 A6.41203
G1 X102.334 Y81.038 A6.51838
G1 X103.361 Y82.655 A6.62478
G1 X104.176 Y84.387 A6.73113
G1 X104.767 Y86.208 A6.83749
G1 X105.126 Y88.089 A6.94385
G1 X105.246 Y90.000 A7.05024
G1 X105.126 Y91.911 A7.15662
G1 X104.767 Y93.792 A7.26298
G1 X104.482 Y94.669 A7.31426
G1 X103.836 Y94.539 F7800.000
G1 X103.566 Y95.371 A7.36289 F3600.000
G1 X102.786 Y97.029 A7.46467
G1 X101.804 Y98.576 A7.56649
G1 X100.636 Y99.988 A7.66827
G1 X99.300 Y101.242 A7.77006
G1 X97.823 Y102.316 A7.87154
G1 X96.212 Y103.202 A7.97367
G1 X94.503 Y103.878 A8.07576
G1 X92.734 Y104.332 A8.17723
G1 X90.916 Y104.562 A8.27903
G1 X89.084 Y104.562 A8.38082
G1 X87.266 Y104.332 A8.48261
G1 X85.492 Y103.876 A8.58439
G1 X83.793 Y103.204 A8.68589
G1 X82.177 Y102.316 A8.78830
G1 X80.700 Y101.242 A8.88979
G1 X79.364 Y99.988 A8.99158
G1 X78.196 Y98.576 A9.09336
G1 X77.214 Y97.029 A9.19518
G1 X76.434 Y95.371 A9.29696
G1 X75.868 Y93.629 A9.39875
G1 X75.525 Y91.829 A9.50053
G1 X75.410 Y90.000 A9.60234
G1 X75.525 Y88.171 A9.70415
G1 X75.868 Y86.371 A9.80593
G1 X76.434 Y84.629 A9.90772
G1 X77.214 Y82.971 A10.00950
G1 X78.196 Y81.424 A10.11132
G1 X79.364 Y80.012 A10.21310
G1 X80.700 Y78.758 A10.31489
G1 X82.177 Y77.684 A10.41637
G1 X83.788 Y76.798 A10.51850
G1 X85.497 Y76.122 A10.62059
G1 X87.266 Y75.668 A10.72207
G1 X89.084 Y75.438 A10.82386
G1 X90.916 Y75.438 A10.92565 F3600.000
G1 X92.734 Y75.668 A11.02745
G1 X94.508 Y76.124 A11.12922
G1 X96.207 Y76.796 A11.23072
G1 X97.823 Y77.684 A11.33313
G1 X99.300 Y78.758 A11.43462
G1 X100.636 Y80.012 A11.53641
G1 X101.804 Y81.424 A11.63819
G1 X102.786 Y82.971 A11.74001
G1 X103.566 Y84.629 A11.84179
G1 X104.132 Y86.371 A11.94358
G1 X104.475 Y88.171 A12.04536
G1 X104.590 Y90.000 A12.14717
G1 X104.475 Y91.829 A12.24898
G1 X104.132 Y93.629 A12.35076
G1 X103.860 Y94.467 A12.39975
G1 X103.318 Y94.370 F7800.000
G1 X103.058 Y95.170 A12.43085 F1800.000
G1 X102.307 Y96.766 A12.49606
G1 X101.362 Y98.255 A12.56129
G1 X100.238 Y99.614 A12.62650
G1 X98.952 Y100.821 A12.69171
G1 X97.530 Y101.855 A12.75672
G1 X95.979 Y102.708 A12.82216
G1 X94.334 Y103.358 A12.88757
G1 X92.632 Y103.796 A12.95257
G1 X90.882 Y104.017 A13.01779
G1 X89.118 Y104.017 A13.08300
G1 X87.368 Y103.796 A13.14822
G1 X85.660 Y103.357 A13.21342
G1 X84.025 Y102.710 A13.27844
G1 X82.470 Y101.855 A13.34407
G1 X81.048 Y100.821 A13.40908
G1 X79.762 Y99.614 A13.47430
G1 X78.638 Y98.255 A13.53950
G1 X77.693 Y96.766 A13.60473
G1 X76.942 Y95.170 A13.66994
G1 X76.397 Y93.493 A13.73515
G1 X76.066 Y91.761 A13.80036
G1 X75.956 Y90.000 A13.86559
G1 X76.066 Y88.239 A13.93081
G1 X76.397 Y86.507 A13.99602
G1 X76.942 Y84.830 A14.06123
G1 X77.693 Y83.234 A14.12644
G1 X78.638 Y81.745 A14.19167
G1 X79.762 Y80.386 A14.25688
G1 X81.048 Y79.179 A14.32210
G1 X82.470 Y78.145 A14.38710
G1 X84.021 Y77.292 A14.45254
G1 X85.666 Y76.642 A14.51795
G1 X87.368 Y76.204 A14.58296
G1 X89.118 Y75.983 A14.64817
G1 X90.882 Y75.983 A14.71339 F1800.000
G1 X92.632 Y76.204 A14.77860
G1 X94.340 Y76.643 A14.84381
G1 X95.975 Y77.290 A14.90882
G1 X97.530 Y78.145 A14.97445
G1 X98.952 Y79.179 A15.03946
G1 X100.238 Y80.386 A15.10468
G1 X101.362 Y81.745 A15.16988
G1 X102.307 Y83.234 A15.23512
G1 X103.058 Y84.830 A15.30032
G1 X103.603 Y86.507 A15.36553
G1 X103.934 Y88.239 A15.43074
G1 X104.044 Y90.000 A15.49597
G1 X103.934 Y91.761 A15.56120
G1 X103.603 Y93.493 A15.62640
G1 X103.341 Y94.299 A15.65774
G1 X103.653 Y94.742 F7800.000
G1 X108.550 Y94.370 F7800.000
G1 X108.550 Y104.924 A16.24407 F3600.000
G1 X108.465 Y105.737 A16.28946
G1 X108.236 Y106.441 A16.33060
G1 X107.866 Y107.082 A16.37174
G1 X107.370 Y107.633 A16.41288
G1 X106.771 Y108.068 A16.45403
G1 X106.095 Y108.369 A16.49517
G1 X105.370 Y108.523 A16.53632
G1 X74.630 Y108.523 A18.24412
G1 X73.905 Y108.369 A18.28527
G1 X73.229 Y108.068 A18.32641
G1 X72.630 Y107.633 A18.36756
G1 X72.134 Y107.082 A18.40870
G1 X71.764 Y106.441 A18.44984
G1 X71.535 Y105.737 A18.49098
G1 X71.450 Y104.924 A18.53637
G1 X71.450 Y75.076 A20.19459
G1 X71.535 Y74.263 A20.23998
G1 X71.764 Y73.559 A20.28113
G1 X72.134 Y72.918 A20.32227
G1 X72.630 Y72.367 A20.36341
G1 X73.229 Y71.932 A20.40455
G1 X73.905 Y71.631 A20.44570
G1 X74.630 Y71.477 A20.48684
G1 X105.370 Y71.477 A22.19465
G1 X105.658 Y71.538 A22.21096
G1 X106.095 Y71.631 A22.23579 F3600.000
G1 X106.771 Y71.932 A22.27693
G1 X107.370 Y72.367 A22.31808
G1 X107.866 Y72.918 A22.35922
G1 X108.236 Y73.559 A22.40036
G1 X108.465 Y74.263 A22.44151
G1 X108.550 Y75.076 A22.48689
G1 X108.550 Y94.295 A23.55462
G1 X109.205 Y94.370 F7800.000
G1 X109.205 Y104.958 A24.14286 F3600.000
G1 X109.109 Y105.873 A24.19397
G1 X108.837 Y106.709 A24.24276
G1 X108.398 Y107.469 A24.29154
G1 X107.811 Y108.122 A24.34033
G1 X107.100 Y108.638 A24.38912
G1 X106.298 Y108.995 A24.43790
G1 X105.439 Y109.178 A24.48669
G1 X74.561 Y109.178 A26.20214
G1 X73.702 Y108.995 A26.25093
G1 X72.900 Y108.638 A26.29972
G1 X72.189 Y108.122 A26.34851
G1 X71.602 Y107.469 A26.39729
G1 X71.163 Y106.709 A26.44607
G1 X70.891 Y105.873 A26.49486
G1 X70.795 Y104.958 A26.54598
G1 X70.795 Y75.042 A28.20801
G1 X70.891 Y74.127 A28.25913
G1 X71.163 Y73.291 A28.30791
G1 X71.602 Y72.531 A28.35670
G1 X72.189 Y71.878 A28.40548
G1 X72.900 Y71.362 A28.45427
G1 X73.702 Y71.005 A28.50306
G1 X74.561 Y70.822 A28.55185
G1 X105.439 Y70.822 A30.26730
G1 X105.794 Y70.898 A30.28743
G1 X106.298 Y71.005 A30.31608 F3600.000
G1 X107.100 Y71.362 A30.36487
G1 X107.811 Y71.878 A30.41366
G1 X108.398 Y72.531 A30.46244
G1 X108.837 Y73.291 A30.51123
G1 X109.109 Y74.127 A30.56001
G1 X109.205 Y75.042 A30.61113
G1 X109.205 Y94.295 A31.68077
G1 X109.750 Y94.370 F7800.000
G1 X109.750 Y104.987 A32.07334 F1800.000
G1 X109.645 Y105.987 A32.11053
G1 X109.338 Y106.931 A32.14724
G1 X108.842 Y107.791 A32.18395
G1 X108.177 Y108.529 A32.22065
G1 X107.374 Y109.112 A32.25736
G1 X106.467 Y109.516 A32.29407
G1 X105.496 Y109.723 A32.33078
G1 X74.504 Y109.723 A33.47678
G1 X73.533 Y109.516 A33.51349
G1 X72.626 Y109.112 A33.55020
G1 X71.823 Y108.529 A33.58691
G1 X71.158 Y107.791 A33.62362
G1 X70.662 Y106.931 A33.66032
G1 X70.355 Y105.987 A33.69703
G1 X70.250 Y104.987 A33.73422
G1 X70.250 Y75.013 A34.84255
G1 X70.355 Y74.013 A34.87975
G1 X70.662 Y73.069 A34.91646
G1 X71.158 Y72.209 A34.95316
G1 X71.823 Y71.471 A34.98987
G1 X72.626 Y70.888 A35.02658
G1 X73.533 Y70.484 A35.06328
G1 X74.504 Y70.277 A35.09999
G1 X105.496 Y70.277 A36.24600
G1 X105.907 Y70.365 A36.26152
G1 X106.467 Y70.484 A36.28270 F1800.000
G1 X107.374 Y70.888 A36.31941
G1 X108.177 Y71.471 A36.35612
G1 X108.842 Y72.209 A36.39283
G1 X109.338 Y73.069 A36.42953
G1 X109.645 Y74.013 A36.46624
G1 X109.750 Y75.013 A36.50344
G1 X109.750 Y94.295 A37.21642
G1 X109.317 Y94.620 F7800.000
G1 X108.153 Y86.125 F7800.000
G1 X102.886 Y80.858 A37.63550 F1200.000
G1 X103.999 Y82.909 F7800.000
G1 X108.153 Y87.063 A37.96600 F1200.000
G1 X108.153 Y88.000 A38.01874
G1 X104.697 Y84.544 A38.29374
G1 X105.148 Y85.932 A38.37588
G1 X108.153 Y88.937 A38.61499
G1 X108.153 Y89.875 A38.66772
G1 X105.369 Y87.091 A38.88920
G1 X105.540 Y88.199 A38.95229
G1 X108.153 Y90.812 A39.16018
G1 X108.153 Y91.750 A39.21291
G1 X105.603 Y89.200 A39.41578
G1 X105.626 Y90.160 A39.46982
G1 X108.153 Y92.687 A39.67088
G1 X108.153 Y93.624 A39.72361
G1 X105.571 Y91.042 A39.92908
G1 X105.506 Y91.915 A39.97832
G1 X108.153 Y94.562 A40.18893
G1 X108.153 Y95.499 A40.24166
G1 X105.356 Y92.702 A40.46422
G1 X105.206 Y93.489 A40.50930
G1 X108.153 Y96.436 A40.74380
G1 X108.153 Y97.374 A40.79654
G1 X105.006 Y94.227 A41.04693
G1 X104.776 Y94.934 A41.08878
G1 X108.153 Y98.311 A41.35746
G1 X108.153 Y99.248 A41.41020
G1 X104.546 Y95.641 A41.69717
G1 X104.249 Y96.282 A41.73688
G1 X108.153 Y100.186 A42.04748
G1 X108.153 Y101.123 A42.10022
G1 X103.949 Y96.919 A42.43468
G1 X103.690 Y97.597 A42.47552
G1 X108.153 Y102.060 A42.83062
G1 X108.153 Y102.998 A42.88336
G1 X103.326 Y98.171 A43.26742
G1 X102.962 Y98.744 A43.30563
G1 X108.153 Y103.935 A43.71865
G1 X108.153 Y104.872 A43.77138
G1 X102.584 Y99.303 A44.21451
G1 X102.159 Y99.816 A44.25197
G1 X108.079 Y105.736 A44.72299
G1 X107.840 Y106.434 A44.76451
G1 X101.735 Y100.329 A45.25026
G1 X101.296 Y100.827 A45.28762
G1 X107.476 Y107.007 A45.77934
G1 X107.006 Y107.474 A45.81663
G1 X100.812 Y101.281 A46.30941
G1 X100.329 Y101.735 A46.34672
G1 X106.428 Y107.834 A46.83201
G1 X105.724 Y108.068 A46.87372
G1 X99.831 Y102.174 A47.34267
G1 X99.288 Y102.568 A47.38042
G1 X104.845 Y108.126 A47.82258
G1 X103.908 Y108.126 A47.87532
G1 X98.745 Y102.963 A48.28609
G1 X98.184 Y103.339 A48.32409
G1 X102.970 Y108.126 A48.70490
G1 X102.033 Y108.126 A48.75763
G1 X97.579 Y103.672 A49.11197
G1 X96.975 Y104.005 A49.15080
G1 X101.095 Y108.126 A49.47868
G1 X100.158 Y108.126 A49.53142
G1 X96.290 Y104.258 A49.83915
G1 X95.619 Y104.523 A49.87979
G1 X99.221 Y108.126 A50.16639
G1 X98.283 Y108.126 A50.21913
G1 X94.947 Y104.789 A50.48459
G1 X94.225 Y105.004 A50.52699
G1 X97.346 Y108.126 A50.77533
G1 X96.409 Y108.126 A50.82807
G1 X93.479 Y105.196 A51.06118
G1 X92.723 Y105.377 A51.10491
G1 X95.471 Y108.126 A51.32358
G1 X94.534 Y108.126 A51.37631
G1 X91.891 Y105.482 A51.58662
G1 X91.059 Y105.588 A51.63381
G1 X93.597 Y108.126 A51.83574
G1 X92.659 Y108.126 A51.88848
G1 X90.147 Y105.614 A52.08834
G1 X89.210 Y105.614 A52.14108
G1 X91.722 Y108.126 A52.34094
G1 X90.785 Y108.126 A52.39367
G1 X88.186 Y105.527 A52.60041
G1 X87.114 Y105.392 A52.66125
G1 X89.847 Y108.126 A52.87876
G1 X88.910 Y108.126 A52.93150
G1 X85.889 Y105.105 A53.17184
G1 X84.546 Y104.699 A53.25078
G1 X87.973 Y108.126 A53.52341
G1 X87.035 Y108.126 A53.57615
G1 X83.117 Y104.207 A53.88790
G1 X80.823 Y102.850 F7800.000
G1 X86.098 Y108.126 A54.30763 F1200.000
G1 X85.161 Y108.126 A54.36036
G1 X71.847 Y94.812 A55.41965
G1 X71.847 Y93.875 A55.47238
G1 X77.114 Y99.142 A55.89147
G1 X76.001 Y97.091 F7800.000
G1 X71.847 Y92.937 A56.22197 F1200.000
G1 X71.847 Y92.000 A56.27471
G1 X75.303 Y95.456 A56.54972
G1 X74.852 Y94.068 A56.63185
G1 X71.847 Y91.063 A56.87096
G1 X71.847 Y90.125 A56.92370
G1 X74.631 Y92.909 A57.14518
G1 X74.460 Y91.801 A57.20827
G1 X71.847 Y89.188 A57.41615
G1 X71.847 Y88.251 A57.46889
G1 X74.397 Y90.800 A57.67176
G1 X74.374 Y89.840 A57.72580
G1 X71.847 Y87.313 A57.92685
G1 X71.847 Y86.376 A57.97959
G1 X74.429 Y88.958 A58.18506
G1 X74.494 Y88.085 A58.23430
G1 X71.847 Y85.439 A58.44490
G1 X71.847 Y84.501 A58.49764
G1 X74.644 Y87.298 A58.72019
G1 X74.794 Y86.511 A58.76528
G1 X71.847 Y83.564 A58.99978
G1 X71.847 Y82.626 A59.05251
G1 X74.994 Y85.774 A59.30290
G1 X75.224 Y85.066 A59.34475
G1 X71.847 Y81.689 A59.61343
G1 X71.847 Y80.752 A59.66617
G1 X75.454 Y84.359 A59.95314
G1 X75.751 Y83.718 A59.99285
G1 X71.847 Y79.814 A60.30345
G1 X71.847 Y78.877 A60.35618
G1 X76.051 Y83.081 A60.69065
G1 X76.310 Y82.403 A60.73148
G1 X71.847 Y77.940 A61.08659
G1 X71.847 Y77.002 A61.13932
G1 X76.674 Y81.829 A61.52338
G1 X77.038 Y81.256 A61.56159
G1 X71.847 Y76.065 A61.97461
G1 X71.847 Y75.128 A62.02734
G1 X77.416 Y80.697 A62.47047
G1 X77.841 Y80.184 A62.50793
G1 X71.921 Y74.264 A62.97895
G1 X72.160 Y73.566 A63.02047
G1 X78.265 Y79.671 A63.50622
G1 X78.704 Y79.173 A63.54358
G1 X72.524 Y72.993 A64.03530
G1 X72.994 Y72.526 A64.07259
G1 X79.188 Y78.719 A64.56537
G1 X79.671 Y78.265 A64.60267
G1 X73.572 Y72.166 A65.08797
G1 X74.276 Y71.932 A65.12968
G1 X80.169 Y77.826 A65.59863
G1 X80.712 Y77.432 A65.63639
G1 X75.155 Y71.874 A66.07854
G1 X76.092 Y71.874 A66.13128
G1 X81.255 Y77.037 A66.54205
G1 X81.816 Y76.661 A66.58005
G1 X77.030 Y71.874 A66.96086
G1 X77.967 Y71.874 A67.01360
G1 X82.421 Y76.328 A67.36794
G1 X83.025 Y75.995 A67.40677
G1 X78.904 Y71.874 A67.73465
G1 X79.842 Y71.874 A67.78738
G1 X83.710 Y75.742 A68.09512
G1 X84.381 Y75.477 A68.13576
G1 X80.779 Y71.874 A68.42236
G1 X81.716 Y71.874 A68.47509
G1 X85.053 Y75.211 A68.74056
G1 X85.775 Y74.996 A68.78296
G1 X82.654 Y71.874 A69.03130
G1 X83.591 Y71.874 A69.08404
G1 X86.521 Y74.804 A69.31715
G1 X87.277 Y74.623 A69.36088
G1 X84.529 Y71.874 A69.57955
G1 X85.466 Y71.874 A69.63229
G1 X88.109 Y74.518 A69.84259
G1 X88.941 Y74.412 A69.88978
G1 X86.403 Y71.874 A70.09172
G1 X87.341 Y71.874 A70.14445
G1 X89.852 Y74.386 A70.34431
G1 X90.790 Y74.386 A70.39705
G1 X88.278 Y71.874 A70.59691
G1 X89.215 Y71.874 A70.64965
G1 X91.814 Y74.473 A70.85638
G1 X92.886 Y74.608 A70.91722
G1 X90.153 Y71.874 A71.13474
G1 X91.090 Y71.874 A71.18747
G1 X94.111 Y74.895 A71.42782
G1 X95.454 Y75.301 A71.50675
G1 X92.027 Y71.874 A71.77938
G1 X92.965 Y71.874 A71.83212
G1 X96.883 Y75.793 A72.14386
G1 X99.177 Y77.150 F7800.000
G1 X93.902 Y71.874 A72.56358 F1200.000
G1 X94.839 Y71.874 A72.61631
G1 X108.153 Y85.188 A73.67561
G1 X108.153 Y84.251 A73.72834
G1 X95.777 Y71.874 A74.71305
G1 X96.714 Y71.874 A74.76579
G1 X108.153 Y83.313 A75.67592
G1 X108.153 Y82.376 A75.72866
G1 X97.651 Y71.874 A76.56422
G1 X98.589 Y71.874 A76.61695
G1 X108.153 Y81.439 A77.37793
G1 X108.153 Y80.501 A77.43066
G1 X99.526 Y71.874 A78.11706
G1 X100.463 Y71.874 A78.16980
G1 X108.153 Y79.564 A78.78162
G1 X108.153 Y78.627 A78.83435
G1 X101.401 Y71.874 A79.37159
G1 X102.338 Y71.874 A79.42433
G1 X108.153 Y77.689 A79.88699
G1 X108.153 Y76.752 A79.93973
G1 X103.275 Y71.874 A80.32781
G1 X104.213 Y71.874 A80.38055
G1 X108.153 Y75.815 A80.69405
G1 X108.110 Y74.834 A80.74926
G1 X105.150 Y71.874 A80.98477
G1 X106.767 Y72.554 F7800.000
G1 X107.405 Y73.192 A81.03554 F1200.000
G1 A79.03554 F2400.00000
G92 A0
G1 X84.223 Y108.126 F7800.000
G1 A2.00000 F2400.00000
G1 X71.847 Y95.749 A2.98471 F1200.000
G1 X71.847 Y96.687 A3.03744
G1 X83.286 Y108.126 A3.94758
G1 X82.349 Y108.126 A4.00031
G1 X71.847 Y97.624 A4.83586
G1 X71.847 Y98.561 A4.88860
G1 X81.411 Y108.126 A5.64957
G1 X80.474 Y108.126 A5.70231
G1 X71.847 Y99.499 A6.38870
G1 X71.847 Y100.436 A6.44144
G1 X79.537 Y108.126 A7.05325
G1 X78.599 Y108.126 A7.10599
G1 X71.847 Y101.373 A7.64323
G1 X71.847 Y102.311 A7.69596
G1 X77.662 Y108.126 A8.15862
G1 X76.725 Y108.126 A8.21135
G1 X71.847 Y103.248 A8.59943
G1 X71.847 Y104.185 A8.65217
G1 X75.787 Y108.126 A8.96567
G1 X74.850 Y108.126 A9.01841
G1 X71.890 Y105.166 A9.25391
G1 X72.595 Y106.808 F7800.000
G1 X73.233 Y107.446 A9.30464 F1200.000
M106 P209.1
G1 Z1.250 F7800.000
G1 A7.30464 F2400.00000
G92 A0
G1 X104.768 Y93.420 F7800.000
G1 A2.00000 F2400.00000
G1 X104.701 Y93.775 A2.02007 F3600.000
G1 X104.112 Y95.587 A2.12595
G1 X103.300 Y97.312 A2.23183
G1 X102.279 Y98.921 A2.33774
G1 X101.064 Y100.390 A2.44362
G1 X99.675 Y101.694 A2.54951
G1 X98.132 Y102.815 A2.65541
G1 X96.462 Y103.733 A2.76129
G1 X94.682 Y104.437 A2.86761
G1 X92.844 Y104.909 A2.97306
G1 X90.953 Y105.148 A3.07895
G1 X89.047 Y105.148 A3.18484
G1 X87.156 Y104.909 A3.29073
G1 X85.310 Y104.435 A3.39660
G1 X83.545 Y103.736 A3.50209
G1 X81.861 Y102.810 A3.60881
G1 X80.325 Y101.694 A3.71428
G1 X78.936 Y100.390 A3.82017
G1 X77.721 Y98.921 A3.92605
G1 X76.831 Y97.519 A4.01830
G1 X76.700 Y97.312 A4.03196
G1 X75.888 Y95.587 A4.13784
G1 X75.299 Y93.775 A4.24372
G1 X74.942 Y91.903 A4.34960
G1 X74.822 Y90.000 A4.45551
G1 X74.942 Y88.097 A4.56141
G1 X75.299 Y86.225 A4.66729
G1 X75.888 Y84.413 A4.77317
G1 X76.700 Y82.688 A4.87905
G1 X77.721 Y81.079 A4.98497
G1 X78.936 Y79.610 A5.09084
G1 X80.325 Y78.306 A5.19673
G1 X81.663 Y77.334 A5.28857
G1 X81.868 Y77.185 A5.30263
G1 X83.538 Y76.267 A5.40850
G1 X85.310 Y75.565 A5.51442
G1 X87.156 Y75.091 A5.62029
G1 X89.047 Y74.852 A5.72618
G1 X90.953 Y74.852 A5.83207 F3600.000
G1 X92.844 Y75.091 A5.93796
G1 X94.690 Y75.565 A6.04383
G1 X96.455 Y76.264 A6.14932
G1 X98.139 Y77.190 A6.25604
G1 X99.675 Y78.306 A6.36151
G1 X101.064 Y79.610 A6.46740
G1 X102.279 Y81.079 A6.57327
G1 X103.300 Y82.688 A6.67919
G1 X104.112 Y84.413 A6.78507
G1 X104.701 Y86.225 A6.89095
G1 X105.058 Y88.097 A6.99683
G1 X105.178 Y90.000 A7.10273
G1 X105.058 Y91.903 A7.20864
G1 X104.782 Y93.346 A7.29029
G1 X104.125 Y93.297 F7800.000
G1 X104.065 Y93.612 A7.30807 F3600.000
G1 X103.502 Y95.346 A7.40937
G1 X102.726 Y96.996 A7.51068
G1 X101.748 Y98.536 A7.61202
G1 X100.586 Y99.941 A7.71332
G1 X99.256 Y101.189 A7.81463
G1 X97.781 Y102.261 A7.91595
G1 X96.183 Y103.140 A8.01726
G1 X94.480 Y103.813 A8.11900
G1 X92.721 Y104.265 A8.21988
G1 X90.912 Y104.493 A8.32120
G1 X89.088 Y104.493 A8.42251
G1 X87.279 Y104.265 A8.52383
G1 X85.513 Y103.811 A8.62512
G1 X83.824 Y103.142 A8.72604
G1 X82.213 Y102.257 A8.82818
G1 X80.744 Y101.189 A8.92908
G1 X79.414 Y99.941 A9.03039
G1 X78.252 Y98.536 A9.13169
G1 X77.384 Y97.169 A9.22166
G1 X77.274 Y96.996 A9.23303
G1 X76.498 Y95.346 A9.33433
G1 X75.935 Y93.612 A9.43564
G1 X75.593 Y91.820 A9.53694
G1 X75.478 Y90.000 A9.63827
G1 X75.593 Y88.180 A9.73960
G1 X75.935 Y86.388 A9.84091
G1 X76.498 Y84.654 A9.94222
G1 X77.274 Y83.004 A10.04352
G1 X78.252 Y81.464 A10.14486
G1 X79.414 Y80.059 A10.24616
G1 X80.744 Y78.811 A10.34747
G1 X82.047 Y77.863 A10.43702
G1 X82.219 Y77.739 A10.44879
G1 X83.817 Y76.860 A10.55009
G1 X85.513 Y76.189 A10.65143
G1 X87.279 Y75.736 A10.75273
G1 X89.088 Y75.507 A10.85404
G1 X90.912 Y75.507 A10.95536 F3600.000
G1 X92.721 Y75.736 A11.05667
G1 X94.487 Y76.189 A11.15797
G1 X96.176 Y76.858 A11.25888
G1 X97.787 Y77.743 A11.36103
G1 X99.256 Y78.811 A11.46192
G1 X100.586 Y80.059 A11.56324
G1 X101.748 Y81.464 A11.66454
G1 X102.726 Y83.004 A11.76588
G1 X103.502 Y84.654 A11.86718
G1 X104.065 Y86.388 A11.96849
G1 X104.407 Y88.180 A12.06979
G1 X104.522 Y90.000 A12.17112
G1 X104.407 Y91.820 A12.27245
G1 X104.140 Y93.223 A12.35181
G1 X103.590 Y93.195 F7800.000
G1 X103.537 Y93.476 A12.36238 F1800.000
G1 X102.994 Y95.145 A12.42727
G1 X102.247 Y96.733 A12.49216
G1 X101.306 Y98.215 A12.55707
G1 X100.188 Y99.567 A12.62196
G1 X98.908 Y100.768 A12.68685
G1 X97.488 Y101.800 A12.75175
G1 X95.951 Y102.645 A12.81664
G1 X94.311 Y103.293 A12.88182
G1 X92.619 Y103.728 A12.94644
G1 X90.878 Y103.948 A13.01133
G1 X89.122 Y103.948 A13.07623
G1 X87.381 Y103.728 A13.14113
G1 X85.682 Y103.292 A13.20601
G1 X84.056 Y102.648 A13.27064
G1 X82.505 Y101.796 A13.33609
G1 X81.092 Y100.768 A13.40071
G1 X79.812 Y99.567 A13.46560
G1 X78.694 Y98.215 A13.53049
G1 X77.844 Y96.877 A13.58910
G1 X77.753 Y96.733 A13.59540
G1 X77.006 Y95.145 A13.66029
G1 X76.463 Y93.476 A13.72519
G1 X76.135 Y91.752 A13.79008
G1 X76.024 Y90.000 A13.85498
G1 X76.135 Y88.248 A13.91989
G1 X76.463 Y86.524 A13.98478
G1 X77.006 Y84.855 A14.04967
G1 X77.753 Y83.267 A14.11456
G1 X78.694 Y81.785 A14.17947
G1 X79.812 Y80.433 A14.24436
G1 X81.092 Y79.232 A14.30926
G1 X82.368 Y78.304 A14.36758
G1 X82.512 Y78.200 A14.37415
G1 X84.049 Y77.355 A14.43904
G1 X85.682 Y76.708 A14.50396
G1 X87.381 Y76.272 A14.56884
G1 X89.122 Y76.052 A14.63374
G1 X90.878 Y76.052 A14.69863 F1800.000
G1 X92.619 Y76.272 A14.76353
G1 X94.318 Y76.708 A14.82842
G1 X95.944 Y77.352 A14.89305
G1 X97.495 Y78.204 A14.95849
G1 X98.908 Y79.232 A15.02311
G1 X100.188 Y80.433 A15.08801
G1 X101.306 Y81.785 A15.15290
G1 X102.247 Y83.267 A15.21781
G1 X102.994 Y84.855 A15.28270
G1 X103.537 Y86.524 A15.34759
G1 X103.865 Y88.248 A15.41248
G1 X103.976 Y90.000 A15.47739
G1 X103.865 Y91.752 A15.54229
G1 X103.604 Y93.121 A15.59385
G1 X103.806 Y93.382 F7800.000
G1 X108.550 Y93.195 F7800.000
G1 X108.550 Y104.924 A16.24546 F3600.000
G1 X108.465 Y105.737 A16.29084
G1 X108.236 Y106.441 A16.33199
G1 X107.866 Y107.082 A16.37313
G1 X107.370 Y107.633 A16.41427
G1 X106.771 Y108.068 A16.45542
G1 X106.095 Y108.369 A16.49656
G1 X105.370 Y108.523 A16.53770
G1 X74.630 Y108.523 A18.24551
G1 X73.905 Y108.369 A18.28665
G1 X73.229 Y108.068 A18.32780
G1 X72.630 Y107.633 A18.36894
G1 X72.134 Y107.082 A18.41008
G1 X71.764 Y106.441 A18.45122
G1 X71.535 Y105.737 A18.49237
G1 X71.450 Y104.924 A18.53776
G1 X71.450 Y75.076 A20.19598
G1 X71.535 Y74.263 A20.24137
G1 X71.764 Y73.559 A20.28251
G1 X72.134 Y72.918 A20.32365
G1 X72.630 Y72.367 A20.36479
G1 X73.229 Y71.932 A20.40594
G1 X73.905 Y71.631 A20.44708
G1 X74.630 Y71.477 A20.48823
G1 X105.370 Y71.477 A22.19604
G1 X105.835 Y71.576 A22.22242
G1 X106.095 Y71.631 A22.23718 F3600.000
G1 X106.771 Y71.932 A22.27832
G1 X107.370 Y72.367 A22.31947
G1 X107.866 Y72.918 A22.36061
G1 X108.236 Y73.559 A22.40175
G1 X108.465 Y74.263 A22.44289
G1 X108.550 Y75.076 A22.48828
G1 X108.550 Y93.120 A23.49073
G1 X109.205 Y93.195 F7800.000
G1 X109.205 Y104.958 A24.14424 F3600.000
G1 X109.109 Y105.873 A24.19536
G1 X108.837 Y106.709 A24.24415
G1 X108.398 Y107.469 A24.29293
G1 X107.811 Y108.122 A24.34172
G1 X107.100 Y108.638 A24.39050
G1 X106.298 Y108.995 A24.43929
G1 X105.439 Y109.178 A24.48808
G1 X74.561 Y109.178 A26.20353
G1 X73.702 Y108.995 A26.25232
G1 X72.900 Y108.638 A26.30110
G1 X72.189 Y108.122 A26.34989
G1 X71.602 Y107.469 A26.39868
G1 X71.163 Y106.709 A26.44746
G1 X70.891 Y105.873 A26.49625
G1 X70.795 Y104.958 A26.54736
G1 X70.795 Y75.042 A28.20940
G1 X70.891 Y74.127 A28.26052
G1 X71.163 Y73.291 A28.30930
G1 X71.602 Y72.531 A28.35809
G1 X72.189 Y71.878 A28.40687
G1 X72.900 Y71.362 A28.45566
G1 X73.702 Y71.005 A28.50445
G1 X74.561 Y70.822 A28.55323
G1 X105.439 Y70.822 A30.26868
G1 X105.971 Y70.935 A30.29889
G1 X106.298 Y71.005 A30.31747 F3600.000
G1 X107.100 Y71.362 A30.36626
G1 X107.811 Y71.878 A30.41505
G1 X108.398 Y72.531 A30.46383
G1 X108.837 Y73.291 A30.51262
G1 X109.109 Y74.127 A30.56140
G1 X109.205 Y75.042 A30.61252
G1 X109.205 Y93.120 A31.61687
G1 X109.750 Y93.195 F7800.000
G1 X109.750 Y104.987 A32.05289 F1800.000
G1 X109.645 Y105.987 A32.09009
G1 X109.338 Y106.931 A32.12680
G1 X108.842 Y107.791 A32.16350
G1 X108.177 Y108.529 A32.20021
G1 X107.374 Y109.112 A32.23692
G1 X106.467 Y109.516 A32.27363
G1 X105.496 Y109.723 A32.31034
G1 X74.504 Y109.723 A33.45634
G1 X73.533 Y109.516 A33.49305
G1 X72.626 Y109.112 A33.52975
G1 X71.823 Y108.529 A33.56646
G1 X71.158 Y107.791 A33.60317
G1 X70.662 Y106.931 A33.63988
G1 X70.355 Y105.987 A33.67658
G1 X70.250 Y104.987 A33.71378
G1 X70.250 Y75.013 A34.82211
G1 X70.355 Y74.013 A34.85930
G1 X70.662 Y73.069 A34.89601
G1 X71.158 Y72.209 A34.93272
G1 X71.823 Y71.471 A34.96942
G1 X72.626 Y70.888 A35.00613
G1 X73.533 Y70.484 A35.04284
G1 X74.504 Y70.277 A35.07955
G1 X105.496 Y70.277 A36.22555
G1 X106.084 Y70.402 A36.24777
G1 X106.467 Y70.484 A36.26226 F1800.000
G1 X107.374 Y70.888 A36.29897
G1 X108.177 Y71.471 A36.33568
G1 X108.842 Y72.209 A36.37238
G1 X109.338 Y73.069 A36.40909
G1 X109.645 Y74.013 A36.44580
G1 X109.750 Y75.013 A36.48299
G1 X109.750 Y93.120 A37.15252
G1 X109.317 Y93.445 F7800.000
G1 X107.994 Y96.662 F7800.000
G1 X106.749 Y96.328 A37.22411 F4800.000
G1 X103.810 Y99.267 A37.45503
G1 X104.593 Y102.187 A37.62298
G1 X101.654 Y105.126 A37.85390
G1 X98.734 Y104.344 A38.02185
G1 X95.794 Y107.283 A38.25277
G1 X95.978 Y107.967 A38.29209
G1 X90.483 Y107.967 A38.59735
G1 X92.412 Y106.038 A38.74890
G1 X95.332 Y106.820 A38.91684
G1 X98.271 Y103.881 A39.14776
G1 X98.152 Y103.439 A39.17321
G1 X98.431 Y103.286 A39.19088
G1 X100.030 Y102.124 A39.30067
G1 X101.470 Y100.771 A39.41045
G1 X102.730 Y99.249 A39.52021
G1 X103.061 Y98.728 A39.55452
G1 X103.347 Y98.804 A39.57103
G1 X106.287 Y95.865 A39.80195
G1 X105.504 Y92.945 A39.96989
G1 X107.994 Y90.455 A40.16552
G1 X107.994 Y96.662 A40.51030
G1 X107.975 Y103.432 F7800.000
G1 X107.994 Y103.414 A40.51177 F4800.000
G1 X107.994 Y104.895 A40.59405
G1 X107.918 Y105.620 A40.63457
G1 X107.725 Y106.213 A40.66922
G1 X107.413 Y106.753 A40.70386
G1 X106.996 Y107.217 A40.73851
G1 X106.492 Y107.583 A40.77316
G1 X105.922 Y107.837 A40.80780
G1 X105.312 Y107.967 A40.84245
G1 X102.753 Y107.967 A40.98458
G1 X102.116 Y105.589 A41.12133
G1 X105.056 Y102.650 A41.35225
G1 X107.975 Y103.432 A41.52020
G1 X107.994 Y85.827 F7800.000
G1 X107.198 Y86.623 A41.58273 F4800.000
G1 X107.981 Y89.543 A41.75068
G1 X105.615 Y91.909 A41.93655
G1 X105.735 Y90.000 A42.04282
G1 X105.611 Y88.028 A42.15262
G1 X105.241 Y86.087 A42.26238
G1 X105.124 Y85.729 A42.28330
G1 X106.735 Y86.160 A42.37597
G1 X107.994 Y84.902 A42.47486
G1 X107.994 Y85.827 A42.52628
G1 X107.413 Y73.247 F7800.000
G1 X107.725 Y73.787 A42.56093 F4800.000
G1 X107.918 Y74.380 A42.59557
G1 X107.994 Y75.105 A42.63609
G1 X107.994 Y79.722 A42.89258
G1 X105.509 Y79.056 A43.03549
G1 X103.151 Y81.415 A43.22080
G1 X102.791 Y80.848 A43.25805
G1 X105.047 Y78.593 A43.43523
G1 X104.264 Y75.673 A43.60318
G1 X107.071 Y72.866 A43.82371
G1 X107.413 Y73.247 A43.85213
G1 X105.719 Y72.120 F7800.000
G1 X105.922 Y72.163 A43.86364 F4800.000
G1 X106.492 Y72.417 A43.89829
G1 X106.552 Y72.460 A43.90241
G1 X103.801 Y75.210 A44.11849
G1 X100.881 Y74.428 A44.28644
G1 X98.526 Y76.783 A44.47149
G1 X97.939 Y76.445 A44.50914
G1 X100.419 Y73.965 A44.70396
G1 X99.901 Y72.033 A44.81508
G1 X105.312 Y72.033 A45.11569
G1 X105.719 Y72.120 A45.13882
G1 X93.314 Y72.739 F7800.000
G1 X93.860 Y74.778 A45.25608 F4800.000
G1 X92.948 Y74.544 A45.30839
G1 X90.988 Y74.296 A45.41817
G1 X89.012 Y74.296 A45.52795
G1 X87.024 Y74.551 A45.63931
G1 X86.992 Y74.433 A45.64608
G1 X89.392 Y72.033 A45.83463
G1 X91.944 Y72.033 A45.97640
G1 X92.851 Y72.276 A46.02859
G1 X93.095 Y72.033 A46.04770
G1 X94.020 Y72.033 A46.09912
G1 X93.314 Y72.739 A46.15459
G1 X86.529 Y73.970 F7800.000
G1 X83.609 Y73.188 A46.32253 F4800.000
G1 X80.670 Y76.127 A46.55345
G1 X80.948 Y77.165 A46.61316
G1 X79.970 Y77.876 A46.68034
G1 X78.530 Y79.229 A46.79012
G1 X77.270 Y80.751 A46.89988
G1 X76.781 Y81.522 A46.95062
G1 X75.594 Y81.204 A47.01891
G1 X72.654 Y84.143 A47.24984
G1 X73.437 Y87.063 A47.41778
G1 X72.006 Y88.494 A47.53020
G1 X72.006 Y83.631 A47.80039
G1 X72.192 Y83.680 A47.81107
G1 X75.131 Y80.741 A48.04200
G1 X74.348 Y77.821 A48.20994
G1 X77.287 Y74.882 A48.44086
G1 X80.207 Y75.664 A48.60881
G1 X83.147 Y72.725 A48.83973
G1 X82.961 Y72.033 A48.87953
G1 X88.467 Y72.033 A49.18538
G1 X86.529 Y73.970 A49.33757
G1 X76.825 Y74.419 F7800.000
G1 X73.886 Y77.358 A49.56850 F4800.000
G1 X72.006 Y76.855 A49.67661
G1 X72.006 Y75.105 A49.77380
G1 X72.082 Y74.380 A49.81432
G1 X72.275 Y73.787 A49.84897
G1 X72.587 Y73.247 A49.88361
G1 X73.004 Y72.783 A49.91826
G1 X73.508 Y72.417 A49.95291
G1 X74.078 Y72.163 A49.98755
G1 X74.688 Y72.033 A50.02220
G1 X76.185 Y72.033 A50.10538
G1 X76.825 Y74.419 A50.24260
G1 X74.456 Y87.675 F7800.000
G1 X74.389 Y88.028 A50.26254 F4800.000
G1 X74.265 Y90.000 A50.37233
G1 X74.389 Y91.972 A50.48213
G1 X74.759 Y93.913 A50.59190
G1 X74.980 Y94.591 A50.63150
G1 X72.206 Y93.848 A50.79105
G1 X72.006 Y94.048 A50.80674
G1 X72.006 Y89.420 A51.06385
G1 X73.900 Y87.526 A51.21264
G1 X74.456 Y87.675 A51.24466
G1 X76.362 Y97.817 F7800.000
G1 X76.801 Y98.509 A51.29016 F4800.000
G1 X73.894 Y101.415 A51.51850
G1 X74.677 Y104.335 A51.68644
G1 X72.467 Y106.545 A51.86010
G1 X72.275 Y106.213 A51.88140
G1 X72.082 Y105.620 A51.91604
G1 X72.006 Y104.895 A51.95657
G1 X72.006 Y100.570 A52.19682
G1 X73.432 Y100.952 A52.27882
G1 X76.371 Y98.013 A52.50975
G1 X76.287 Y97.699 A52.52782
G1 X76.362 Y97.817 A52.53562
G1 X81.402 Y103.164 F7800.000
G1 X78.522 Y106.043 A52.76182 F4800.000
G1 X79.038 Y107.967 A52.87246
G1 X74.688 Y107.967 A53.11411
G1 X74.078 Y107.837 A53.14876
G1 X73.508 Y107.583 A53.18340
G1 X73.004 Y107.217 A53.21805
G1 X72.870 Y107.068 A53.22919
G1 X75.140 Y104.798 A53.40754
G1 X78.060 Y105.580 A53.57548
G1 X80.865 Y102.774 A53.79593
G1 X81.402 Y103.164 A53.83274
G1 X85.138 Y104.965 F7800.000
G1 X87.052 Y105.456 A53.94250 F4800.000
G1 X89.012 Y105.704 A54.05228
G1 X90.988 Y105.704 A54.16206
G1 X91.940 Y105.584 A54.21539
G1 X89.557 Y107.967 A54.40262
G1 X86.966 Y107.967 A54.54657
G1 X86.090 Y107.732 A54.59698
G1 X85.855 Y107.967 A54.61543
G1 X84.929 Y107.967 A54.66686
G1 X85.627 Y107.269 A54.72167
G1 X84.994 Y104.908 A54.85747
G1 X85.138 Y104.965 A54.86606
M106 P168.3
G1 Z1.550 F7800.000
G1 A52.86606 F2400.00000
G92 A0
G1 X104.917 Y92.273 F7800.000
G1 A2.00000 F2400.00000
G1 X104.634 Y93.758 A2.08395 F3600.000
G1 X104.048 Y95.562 A2.18936
G1 X103.240 Y97.279 A2.29476
G1 X102.223 Y98.881 A2.40019
G1 X101.014 Y100.343 A2.50559
G1 X99.631 Y101.641 A2.61100
G1 X98.096 Y102.757 A2.71641
G1 X96.433 Y103.671 A2.82180
G1 X94.669 Y104.369 A2.92724
G1 X92.831 Y104.841 A3.03264
G1 X90.949 Y105.079 A3.13805
G1 X89.051 Y105.079 A3.24346
G1 X87.169 Y104.841 A3.34887
G1 X85.331 Y104.369 A3.45426
G1 X83.576 Y103.674 A3.55916
G1 X81.897 Y102.751 A3.66561
G1 X80.369 Y101.641 A3.77050
G1 X78.986 Y100.343 A3.87591
G1 X77.777 Y98.881 A3.98131
G1 X76.914 Y97.522 A4.07074
G1 X76.760 Y97.279 A4.08674
G1 X75.952 Y95.562 A4.19214
G1 X75.366 Y93.758 A4.29754
G1 X75.010 Y91.894 A4.40294
G1 X74.891 Y90.000 A4.50837
G1 X75.010 Y88.106 A4.61379
G1 X75.366 Y86.242 A4.71919
G1 X75.952 Y84.438 A4.82460
G1 X76.760 Y82.721 A4.93000
G1 X77.777 Y81.119 A5.03543
G1 X78.986 Y79.657 A5.14083
G1 X80.369 Y78.359 A5.24624
G1 X81.664 Y77.418 A5.33515
G1 X81.904 Y77.243 A5.35165
G1 X83.567 Y76.329 A5.45704
G1 X85.331 Y75.631 A5.56248
G1 X87.169 Y75.159 A5.66788
G1 X89.051 Y74.921 A5.77329
G1 X90.949 Y74.921 A5.87870 F3600.000
G1 X92.831 Y75.159 A5.98411
G1 X94.669 Y75.631 A6.08950
G1 X96.424 Y76.326 A6.19440
G1 X98.103 Y77.249 A6.30085
G1 X99.631 Y78.358 A6.40574
G1 X101.014 Y79.657 A6.51115
G1 X102.223 Y81.119 A6.61655
G1 X103.240 Y82.721 A6.72198
G1 X104.048 Y84.438 A6.82738
G1 X104.634 Y86.242 A6.93278
G1 X104.990 Y88.106 A7.03818
G1 X105.109 Y90.000 A7.14361
G1 X104.990 Y91.894 A7.24903
G1 X104.931 Y92.199 A7.26631
G1 X104.274 Y92.150 F7800.000
G1 X103.999 Y93.594 A7.34798 F3600.000
G1 X103.438 Y95.321 A7.44881
G1 X102.665 Y96.963 A7.54963
G1 X101.693 Y98.495 A7.65049
G1 X100.536 Y99.894 A7.75131
G1 X99.213 Y101.136 A7.85215
G1 X97.744 Y102.203 A7.95298
G1 X96.154 Y103.077 A8.05380
G1 X94.466 Y103.746 A8.15467
G1 X92.708 Y104.197 A8.25549
G1 X90.908 Y104.424 A8.35632
G1 X89.092 Y104.424 A8.45715
G1 X87.292 Y104.197 A8.55799
G1 X85.534 Y103.746 A8.65881
G1 X83.855 Y103.081 A8.75914
G1 X82.248 Y102.198 A8.86101
G1 X80.787 Y101.136 A8.96132
G1 X79.464 Y99.894 A9.06216
G1 X78.307 Y98.495 A9.16298
G1 X77.467 Y97.171 A9.25012
G1 X77.335 Y96.963 A9.26384
G1 X76.562 Y95.321 A9.36466
G1 X76.001 Y93.594 A9.46549
G1 X75.661 Y91.812 A9.56631
G1 X75.547 Y90.000 A9.66716
G1 X75.661 Y88.188 A9.76801
G1 X76.001 Y86.406 A9.86884
G1 X76.562 Y84.679 A9.96967
G1 X77.335 Y83.037 A10.07049
G1 X78.307 Y81.505 A10.17135
G1 X79.464 Y80.106 A10.27217
G1 X80.787 Y78.864 A10.37300
G1 X82.049 Y77.947 A10.45962
G1 X82.256 Y77.797 A10.47384
G1 X83.846 Y76.923 A10.57466
G1 X85.534 Y76.254 A10.67552
G1 X87.292 Y75.803 A10.77634
G1 X89.092 Y75.576 A10.87718
G1 X90.908 Y75.576 A10.97801 F3600.000
G1 X92.708 Y75.803 A11.07885
G1 X94.466 Y76.254 A11.17967
G1 X96.145 Y76.919 A11.27999
G1 X97.752 Y77.802 A11.38186
G1 X99.213 Y78.864 A11.48218
G1 X100.536 Y80.106 A11.58301
G1 X101.693 Y81.505 A11.68383
G1 X102.665 Y83.037 A11.78469
G1 X103.438 Y84.679 A11.88552
G1 X103.999 Y86.406 A11.98634
G1 X104.339 Y88.188 A12.08717
G1 X104.453 Y90.000 A12.18802
G1 X104.339 Y91.812 A12.28887
G1 X104.288 Y92.077 A12.30386
G1 X103.739 Y92.048 F7800.000
G1 X103.470 Y93.459 A12.35695 F1800.000
G1 X102.930 Y95.119 A12.42152
G1 X102.187 Y96.699 A12.48609
G1 X101.251 Y98.174 A12.55069
G1 X100.138 Y99.520 A12.61525
G1 X98.865 Y100.715 A12.67983
G1 X97.452 Y101.742 A12.74441
G1 X95.921 Y102.583 A12.80898
G1 X94.297 Y103.226 A12.87357
G1 X92.606 Y103.661 A12.93814
G1 X90.873 Y103.879 A13.00272
G1 X89.127 Y103.879 A13.06730
G1 X87.394 Y103.661 A13.13187
G1 X85.703 Y103.226 A13.19644
G1 X84.087 Y102.587 A13.26068
G1 X82.541 Y101.736 A13.32595
G1 X81.135 Y100.715 A13.39018
G1 X79.862 Y99.520 A13.45475
G1 X78.749 Y98.174 A13.51932
G1 X77.927 Y96.879 A13.57606
G1 X77.813 Y96.699 A13.58392
G1 X77.070 Y95.119 A13.64849
G1 X76.530 Y93.459 A13.71306
G1 X76.203 Y91.743 A13.77763
G1 X76.093 Y90.000 A13.84222
G1 X76.203 Y88.257 A13.90680
G1 X76.530 Y86.541 A13.97138
G1 X77.070 Y84.881 A14.03595
G1 X77.813 Y83.301 A14.10052
G1 X78.749 Y81.826 A14.16511
G1 X79.862 Y80.480 A14.22968
G1 X81.135 Y79.285 A14.29426
G1 X82.369 Y78.388 A14.35064
G1 X82.548 Y78.258 A14.35884
G1 X84.079 Y77.417 A14.42341
G1 X85.703 Y76.774 A14.48800
G1 X87.394 Y76.339 A14.55257
G1 X89.127 Y76.121 A14.61714
G1 X90.873 Y76.121 A14.68172 F1800.000
G1 X92.606 Y76.339 A14.74630
G1 X94.297 Y76.774 A14.81087
G1 X95.913 Y77.413 A14.87511
G1 X97.459 Y78.264 A14.94037
G1 X98.865 Y79.285 A15.00460
G1 X100.138 Y80.480 A15.06918
G1 X101.251 Y81.826 A15.13375
G1 X102.187 Y83.301 A15.19834
G1 X102.930 Y84.881 A15.26291
G1 X103.470 Y86.541 A15.32749
G1 X103.797 Y88.257 A15.39206
G1 X103.907 Y90.000 A15.45664
G1 X103.797 Y91.743 A15.52123
G1 X103.753 Y91.975 A15.52994
G1 X104.117 Y92.375 F7800.000
G1 X108.550 Y92.048 F7800.000
G1 X108.550 Y104.924 A16.24526 F3600.000
G1 X108.465 Y105.737 A16.29065
G1 X108.236 Y106.441 A16.33179
G1 X107.866 Y107.082 A16.37293
G1 X107.370 Y107.633 A16.41407
G1 X106.771 Y108.068 A16.45522
G1 X106.095 Y108.369 A16.49636
G1 X105.370 Y108.523 A16.53750
G1 X74.630 Y108.523 A18.24531
G1 X73.905 Y108.369 A18.28646
G1 X73.229 Y108.068 A18.32760
G1 X72.630 Y107.633 A18.36874
G1 X72.134 Y107.082 A18.40988
G1 X71.764 Y106.441 A18.45103
G1 X71.535 Y105.737 A18.49217
G1 X71.450 Y104.924 A18.53756
G1 X71.450 Y75.076 A20.19578
G1 X71.535 Y74.263 A20.24117
G1 X71.764 Y73.559 A20.28231
G1 X72.134 Y72.918 A20.32346
G1 X72.630 Y72.367 A20.36460
G1 X73.229 Y71.932 A20.40574
G1 X73.905 Y71.631 A20.44688
G1 X74.630 Y71.477 A20.48803
G1 X105.370 Y71.477 A22.19584
G1 X106.095 Y71.631 A22.23698
G1 X106.771 Y71.932 A22.27812 F3600.000
G1 X107.370 Y72.367 A22.31927
G1 X107.866 Y72.918 A22.36041
G1 X108.236 Y73.559 A22.40155
G1 X108.465 Y74.263 A22.44269
G1 X108.550 Y75.076 A22.48808
G1 X108.550 Y91.973 A23.42682
G1 X109.205 Y92.048 F7800.000
G1 X109.205 Y104.958 A24.14405 F3600.000
G1 X109.109 Y105.873 A24.19516
G1 X108.837 Y106.709 A24.24395
G1 X108.398 Y107.469 A24.29273
G1 X107.811 Y108.122 A24.34152
G1 X107.100 Y108.638 A24.39031
G1 X106.298 Y108.995 A24.43909
G1 X105.439 Y109.178 A24.48788
G1 X74.561 Y109.178 A26.20333
G1 X73.702 Y108.995 A26.25212
G1 X72.900 Y108.638 A26.30091
G1 X72.189 Y108.122 A26.34969
G1 X71.602 Y107.469 A26.39848
G1 X71.163 Y106.709 A26.44726
G1 X70.891 Y105.873 A26.49605
G1 X70.795 Y104.958 A26.54716
G1 X70.795 Y75.042 A28.20920
G1 X70.891 Y74.127 A28.26032
G1 X71.163 Y73.291 A28.30910
G1 X71.602 Y72.531 A28.35789
G1 X72.189 Y71.878 A28.40667
G1 X72.900 Y71.362 A28.45546
G1 X73.702 Y71.005 A28.50425
G1 X74.561 Y70.822 A28.55303
G1 X105.439 Y70.822 A30.26848
G1 X106.278 Y71.001 A30.31611
G1 X107.100 Y71.362 A30.36603 F3600.000
G1 X107.811 Y71.878 A30.41482
G1 X108.398 Y72.531 A30.46361
G1 X108.837 Y73.291 A30.51239
G1 X109.109 Y74.127 A30.56118
G1 X109.205 Y75.042 A30.61229
G1 X109.205 Y91.973 A31.55294
G1 X109.750 Y92.048 F7800.000
G1 X109.750 Y104.987 A32.03136 F1800.000
G1 X109.645 Y105.987 A32.06856
G1 X109.338 Y106.931 A32.10527
G1 X108.842 Y107.791 A32.14197
G1 X108.177 Y108.529 A32.17868
G1 X107.374 Y109.112 A32.21539
G1 X106.467 Y109.516 A32.25210
G1 X105.496 Y109.723 A32.28881
G1 X74.504 Y109.723 A33.43481
G1 X73.533 Y109.516 A33.47152
G1 X72.626 Y109.112 A33.50823
G1 X71.823 Y108.529 A33.54494
G1 X71.158 Y107.791 A33.58164
G1 X70.662 Y106.931 A33.61835
G1 X70.355 Y105.987 A33.65505
G1 X70.250 Y104.987 A33.69225
G1 X70.250 Y75.013 A34.80058
G1 X70.355 Y74.013 A34.83777
G1 X70.662 Y73.069 A34.87448
G1 X71.158 Y72.209 A34.91119
G1 X71.823 Y71.471 A34.94789
G1 X72.626 Y70.888 A34.98460
G1 X73.533 Y70.484 A35.02131
G1 X74.504 Y70.277 A35.05802
G1 X105.496 Y70.277 A36.20402
G1 X106.391 Y70.468 A36.23784
G1 X106.467 Y70.484 A36.24073 F1800.000
G1 X107.374 Y70.888 A36.27744
G1 X108.177 Y71.471 A36.31415
G1 X108.842 Y72.209 A36.35086
G1 X109.338 Y73.069 A36.38756
G1 X109.645 Y74.013 A36.42427
G1 X109.750 Y75.013 A36.46146
G1 X109.750 Y91.973 A37.08859
G1 X109.317 Y92.298 F7800.000
G1 X101.084 Y101.389 F7800.000
G1 X100.670 Y101.777 A37.12010 F4800.000
G1 X100.556 Y101.535 A37.13494
G1 X100.850 Y101.260 A37.15728
G1 X101.084 Y101.389 A37.17211
G1 A35.17211 F2400.00000
G92 A0
G1 X101.084 Y78.611 F7800.000
G1 A2.00000 F2400.00000
G1 X100.850 Y78.740 A2.01484 F4800.000
G1 X100.557 Y78.465 A2.03717
G1 X100.670 Y78.223 A2.05200
G1 X101.084 Y78.611 A2.08350
G1 X100.326 Y77.952 F7800.000
M106 P255
G1 X94.218 Y71.844 A2.56760 F3600.000
G1 X94.999 Y71.844 A2.61137
G1 X100.576 Y77.421 A3.05338
M106 P168.3
G1 X98.458 Y76.865 F7800.000
M106 P255
G1 X93.437 Y71.844 A3.45131 F3600.000
G1 X92.656 Y71.844 A3.49508
G1 X96.737 Y75.926 A3.81855
M106 P168.3
G1 X95.445 Y75.414 F7800.000
M106 P255
G1 X91.875 Y71.844 A4.10146 F3600.000
G1 X91.094 Y71.844 A4.14523
G1 X94.303 Y75.053 A4.39951
G1 X93.252 Y74.783 A4.46030
G1 X90.423 Y71.955 A4.68448
G1 X90.377 Y72.689 A4.72573
G1 X92.328 Y74.640 A4.88036
G1 X91.434 Y74.527 A4.93085
G1 X90.331 Y73.424 A5.01829
G1 X90.285 Y74.159 A5.05955
G1 X90.540 Y74.414 A5.07982
M106 P168.3
G1 X103.049 Y81.457 F7800.000
M106 P255
G1 X108.083 Y86.491 A5.47876 F3600.000
G1 X108.083 Y85.710 A5.52253
G1 X101.332 Y78.958 A6.05761
G1 X101.836 Y78.681 A6.08983
G1 X108.083 Y84.929 A6.58497
G1 X108.083 Y84.148 A6.62874
G1 X95.780 Y71.844 A7.60387
G1 X96.661 Y71.944 A7.65356
G1 X108.083 Y83.367 A8.55887
G1 X108.083 Y82.586 A8.60264
G1 X97.441 Y71.944 A9.44606
G1 X98.222 Y71.944 A9.48982
G1 X108.083 Y81.805 A10.27135
G1 X108.083 Y81.024 A10.31511
G1 X99.003 Y71.944 A11.03475
G1 X99.784 Y71.944 A11.07851
G1 X108.083 Y80.243 A11.73626
G1 X108.083 Y79.462 A11.78002
G1 X100.565 Y71.944 A12.37587
G1 X101.346 Y71.944 A12.41964
G1 X108.083 Y78.681 A12.95359
G1 X108.083 Y77.900 A12.99736
G1 X102.127 Y71.944 A13.46942
G1 X102.908 Y71.944 A13.51319
G1 X108.083 Y77.120 A13.92336
G1 X108.083 Y76.339 A13.96712
G1 X103.689 Y71.944 A14.31540
G1 X104.470 Y71.944 A14.35917
G1 X108.083 Y75.558 A14.64555
G1 X108.019 Y74.713 A14.69301
G1 X105.290 Y71.984 A14.90931
M106 P168.3
G1 X106.724 Y72.637 F7800.000
M106 P255
G1 X107.318 Y73.231 A14.95637 F3600.000
M106 P168.3
G1 X104.017 Y83.205 F7800.000
M106 P255
G1 X108.083 Y87.271 A15.27866 F3600.000
G1 X108.183 Y88.152 A15.32835
G1 X104.589 Y84.559 A15.61318
G1 X104.965 Y85.715 A15.68134
G1 X108.183 Y88.933 A15.93638
G1 X108.183 Y89.714 A15.98015
G1 X105.194 Y86.726 A16.21701
G1 X105.379 Y87.691 A16.27207
G1 X108.183 Y90.495 A16.49434
G1 X108.183 Y91.276 A16.53811
G1 X105.462 Y88.555 A16.75375
G1 X105.515 Y89.389 A16.80054
G1 X108.183 Y92.057 A17.01202
G1 X108.083 Y92.738 A17.05059
G1 X105.527 Y90.182 A17.25317
G1 X105.481 Y90.917 A17.29442
G1 X108.083 Y93.519 A17.50067
G1 X108.083 Y94.300 A17.54443
G1 X105.435 Y91.651 A17.75434
G1 X105.330 Y92.328 A17.79271
G1 X108.083 Y95.081 A18.01087
G1 X108.083 Y95.861 A18.05463
G1 X105.205 Y92.984 A18.28271
G1 X105.080 Y93.640 A18.32013
G1 X108.083 Y96.642 A18.55811
G1 X108.083 Y97.423 A18.60188
G1 X104.903 Y94.243 A18.85393
G1 X104.711 Y94.833 A18.88866
G1 X108.083 Y98.204 A19.15590
G1 X108.083 Y98.985 A19.19966
G1 X104.520 Y95.422 A19.48207
G1 X104.292 Y95.975 A19.51561
G1 X108.083 Y99.766 A19.81604
G1 X108.083 Y100.547 A19.85980
G1 X104.043 Y96.506 A20.18004
G1 X103.793 Y97.038 A20.21293
G1 X108.083 Y101.328 A20.55297
G1 X108.083 Y102.109 A20.59674
G1 X103.529 Y97.554 A20.95770
G1 X103.226 Y98.032 A20.98941
G1 X108.083 Y102.890 A21.37440
G1 X108.083 Y103.671 A21.41816
G1 X102.922 Y98.510 A21.82718
G1 X102.619 Y98.988 A21.85889
G1 X108.083 Y104.452 A22.29194
G1 X108.053 Y105.202 A22.33405
G1 X102.276 Y99.426 A22.79187
G1 X101.923 Y99.853 A22.82296
G1 X107.936 Y105.866 A23.29954
G1 X107.713 Y106.424 A23.33321
G1 X101.569 Y100.281 A23.82015
G1 X101.216 Y100.708 A23.85123
G1 X107.409 Y106.901 A24.34210
G1 X107.024 Y107.297 A24.37305
G1 X101.395 Y101.668 A24.81913
G1 X100.993 Y102.047 A24.85009
G1 X106.582 Y107.636 A25.29308
G1 X106.049 Y107.884 A25.32602
G1 X100.590 Y102.425 A25.75868
G1 X99.559 Y102.175 A25.81811
G1 X105.422 Y108.037 A26.28275
G1 X104.659 Y108.056 A26.32550
G1 X99.107 Y102.504 A26.76553
G1 X98.655 Y102.832 A26.79687
G1 X103.878 Y108.056 A27.21085
G1 X103.097 Y108.056 A27.25461
G1 X98.194 Y103.153 A27.64322
G1 X97.690 Y103.430 A27.67545
G1 X102.316 Y108.056 A28.04209
G1 X101.535 Y108.056 A28.08586
G1 X97.186 Y103.707 A28.43055
G1 X96.682 Y103.984 A28.46277
G1 X100.754 Y108.056 A28.78551
G1 X99.973 Y108.056 A28.82927
G1 X96.137 Y104.219 A29.13333
G1 X95.577 Y104.441 A29.16705
G1 X99.193 Y108.056 A29.45357
G1 X98.412 Y108.056 A29.49734
G1 X95.018 Y104.662 A29.76632
G1 X94.430 Y104.855 A29.80100
G1 X97.631 Y108.056 A30.05470
G1 X96.850 Y108.056 A30.09847
G1 X93.808 Y105.014 A30.33952
G1 X93.187 Y105.174 A30.37547
G1 X96.145 Y108.132 A30.60993
G1 X95.388 Y108.156 A30.65238
G1 X92.536 Y105.304 A30.87839
G1 X91.843 Y105.392 A30.91756
G1 X94.607 Y108.156 A31.13663
G1 X93.826 Y108.156 A31.18039
G1 X91.150 Y105.479 A31.39252
G1 X90.456 Y105.567 A31.43168
G1 X93.045 Y108.156 A31.63687
G1 X92.264 Y108.156 A31.68063
G1 X90.323 Y106.214 A31.83450
G1 X90.375 Y107.048 A31.88130
G1 X91.483 Y108.156 A31.96912
G1 X90.702 Y108.156 A32.01288
G1 X90.428 Y107.881 A32.03466
M106 P168.3
G1 X89.715 Y105.841 F7800.000
M106 P255
G1 X89.460 Y105.586 A32.05492 F3600.000
G1 X88.566 Y105.473 A32.10542
G1 X89.669 Y106.576 A32.19286
G1 X89.623 Y107.311 A32.23412
G1 X87.672 Y105.360 A32.38874
G1 X86.748 Y105.217 A32.44112
G1 X89.577 Y108.045 A32.66529
G1 X88.906 Y108.156 A32.70339
G1 X85.698 Y104.947 A32.95767
G1 X84.555 Y104.586 A33.02480
G1 X88.125 Y108.156 A33.30771
G1 X87.344 Y108.156 A33.35148
G1 X83.263 Y104.074 A33.67495
M106 P168.3
G1 X81.542 Y103.135 F7800.000
M106 P255
G1 X86.563 Y108.156 A34.07288 F3600.000
G1 X85.782 Y108.156 A34.11665
G1 X79.674 Y102.048 A34.60075
G1 X79.424 Y102.579 A34.63364
G1 X85.001 Y108.156 A35.07566
G1 X84.220 Y108.156 A35.11942
G1 X71.917 Y95.852 A36.09455
G1 X71.917 Y95.071 A36.13832
G1 X78.164 Y101.319 A36.63346
G1 X78.668 Y101.042 A36.66569
G1 X71.917 Y94.290 A37.20076
G1 X71.917 Y93.509 A37.24453
G1 X76.951 Y98.543 A37.64347
M106 P168.3
G1 X75.983 Y96.795 F7800.000
M106 P255
G1 X71.917 Y92.729 A37.96577 F3600.000
G1 X71.817 Y91.848 A38.01546
G1 X75.411 Y95.441 A38.30028
G1 X75.035 Y94.285 A38.36845
G1 X71.817 Y91.067 A38.62349
G1 X71.817 Y90.286 A38.66725
G1 X74.806 Y93.274 A38.90412
G1 X74.621 Y92.309 A38.95917
G1 X71.817 Y89.505 A39.18145
G1 X71.817 Y88.724 A39.22521
G1 X74.538 Y91.445 A39.44085
G1 X74.485 Y90.611 A39.48765
G1 X71.817 Y87.943 A39.69913
G1 X71.917 Y87.262 A39.73770
G1 X74.473 Y89.818 A39.94027
G1 X74.519 Y89.083 A39.98153
G1 X71.917 Y86.481 A40.18777
G1 X71.917 Y85.700 A40.23153
G1 X74.565 Y88.349 A40.44144
G1 X74.670 Y87.672 A40.47981
G1 X71.917 Y84.919 A40.69797
G1 X71.917 Y84.139 A40.74174
G1 X74.795 Y87.016 A40.96981
G1 X74.920 Y86.360 A41.00723
G1 X71.917 Y83.358 A41.24522
G1 X71.917 Y82.577 A41.28898
G1 X75.097 Y85.757 A41.54103
G1 X75.289 Y85.167 A41.57577
G1 X71.917 Y81.796 A41.84300
G1 X71.917 Y81.015 A41.88676
G1 X75.480 Y84.578 A42.16917
G1 X75.708 Y84.025 A42.20271
G1 X71.917 Y80.234 A42.50314
G1 X71.917 Y79.453 A42.54690
G1 X75.957 Y83.494 A42.86714
G1 X76.207 Y82.962 A42.90003
G1 X71.917 Y78.672 A43.24007
G1 X71.917 Y77.891 A43.28384
G1 X76.471 Y82.445 A43.64480
G1 X76.774 Y81.968 A43.67651
G1 X71.917 Y77.110 A44.06150
G1 X71.917 Y76.329 A44.10526
G1 X77.078 Y81.490 A44.51428
G1 X77.381 Y81.012 A44.54599
G1 X71.917 Y75.548 A44.97904
G1 X71.947 Y74.798 A45.02115
G1 X77.724 Y80.574 A45.47897
G1 X78.077 Y80.147 A45.51006
G1 X72.064 Y74.134 A45.98664
G1 X72.287 Y73.576 A46.02032
G1 X78.431 Y79.719 A46.50725
G1 X78.784 Y79.292 A46.53833
G1 X72.591 Y73.099 A47.02920
G1 X72.976 Y72.703 A47.06015
G1 X78.605 Y78.332 A47.50623
G1 X79.007 Y77.953 A47.53720
G1 X73.418 Y72.364 A47.98018
G1 X73.951 Y72.116 A48.01313
G1 X79.410 Y77.575 A48.44579
G1 X80.441 Y77.825 A48.50522
G1 X74.578 Y71.963 A48.96985
G1 X75.341 Y71.944 A49.01261
G1 X80.893 Y77.496 A49.45264
G1 X81.345 Y77.168 A49.48397
G1 X76.122 Y71.944 A49.89795
G1 X76.903 Y71.944 A49.94172
G1 X81.806 Y76.847 A50.33032
G1 X82.310 Y76.570 A50.36255
G1 X77.684 Y71.944 A50.72920
G1 X78.465 Y71.944 A50.77296
G1 X82.814 Y76.293 A51.11765
G1 X83.318 Y76.016 A51.14988
G1 X79.246 Y71.944 A51.47261
G1 X80.027 Y71.944 A51.51637
G1 X83.863 Y75.781 A51.82042
G1 X84.422 Y75.559 A51.85414
G1 X80.807 Y71.944 A52.14062
G1 X81.588 Y71.944 A52.18439
G1 X84.982 Y75.338 A52.45332
G1 X85.570 Y75.145 A52.48803
G1 X82.369 Y71.944 A52.74173
G1 X83.150 Y71.944 A52.78549
G1 X86.192 Y74.986 A53.02654
G1 X86.813 Y74.826 A53.06250
G1 X83.855 Y71.868 A53.29695
G1 X84.612 Y71.844 A53.33941
G1 X87.464 Y74.696 A53.56542
G1 X88.157 Y74.608 A53.60458
G1 X85.393 Y71.844 A53.82365
G1 X86.174 Y71.844 A53.86741
G1 X88.850 Y74.521 A54.07954
G1 X89.544 Y74.433 A54.11871
G1 X86.955 Y71.844 A54.32389
G1 X87.736 Y71.844 A54.36765
G1 X89.677 Y73.786 A54.52153
G1 X89.625 Y72.952 A54.56832
G1 X88.517 Y71.844 A54.65614
G1 X89.298 Y71.844 A54.69991
G1 X89.572 Y72.119 A54.72168
M106 P168.3
G1 A52.72168 F2400.00000
G92 A0
G1 X83.339 Y108.056 F7800.000
G1 A2.00000 F2400.00000
M106 P255
G1 X71.917 Y96.633 A2.90531 F3600.000
G1 X71.917 Y97.414 A2.94908
G1 X82.559 Y108.056 A3.79250
G1 X81.778 Y108.056 A3.83627
G1 X71.917 Y98.195 A4.61779
G1 X71.917 Y98.976 A4.66156
G1 X80.997 Y108.056 A5.38119
G1 X80.216 Y108.056 A5.42496
G1 X71.917 Y99.757 A6.08270
G1 X71.917 Y100.538 A6.12647
G1 X79.435 Y108.056 A6.72232
G1 X78.654 Y108.056 A6.76608
G1 X71.917 Y101.319 A7.30004
G1 X71.917 Y102.100 A7.34380
G1 X77.873 Y108.056 A7.81587
G1 X77.092 Y108.056 A7.85963
G1 X71.917 Y102.880 A8.26980
G1 X71.917 Y103.661 A8.31357
G1 X76.311 Y108.056 A8.66185
G1 X75.530 Y108.056 A8.70561
G1 X71.917 Y104.442 A8.99200
G1 X71.981 Y105.287 A9.03946
G1 X74.710 Y108.016 A9.25575
M106 P168.3
G1 X73.276 Y107.363 F7800.000
M106 P255
G1 X72.682 Y106.769 A9.30281 F3600.000
M106 P168.3

G1 Z1.850 F7800.000
G1 A7.30281 F2400.00000
G92 A0
G1 X104.930 Y91.745 F7800.000
G1 A2.00000 F2400.00000
G1 X104.921 Y91.885 A2.00781 F3600.000
G1 X104.568 Y93.740 A2.11273
G1 X103.984 Y95.537 A2.21765
G1 X103.180 Y97.245 A2.32257
G1 X102.168 Y98.841 A2.42753
G1 X100.964 Y100.296 A2.53245
G1 X99.587 Y101.589 A2.63738
G1 X98.335 Y102.498 A2.72336
G1 X98.059 Y102.699 A2.74231
G1 X96.404 Y103.609 A2.84722
G1 X94.647 Y104.304 A2.95218
G1 X92.818 Y104.774 A3.05710
G1 X90.944 Y105.010 A3.16203
G1 X89.056 Y105.010 A3.26696
G1 X87.182 Y104.774 A3.37189
G1 X85.353 Y104.304 A3.47680
G1 X83.607 Y103.613 A3.58112
G1 X81.932 Y102.692 A3.68730
G1 X80.413 Y101.589 A3.79160
G1 X79.036 Y100.296 A3.89653
G1 X77.832 Y98.840 A4.00145
G1 X76.997 Y97.524 A4.08806
G1 X76.820 Y97.245 A4.10640
G1 X76.016 Y95.537 A4.21132
G1 X75.432 Y93.740 A4.31625
G1 X75.079 Y91.885 A4.42117
G1 X74.960 Y90.000 A4.52611
G1 X75.079 Y88.115 A4.63106
G1 X75.432 Y86.260 A4.73598
G1 X76.016 Y84.463 A4.84091
G1 X76.820 Y82.755 A4.94582
G1 X77.832 Y81.160 A5.05078
G1 X79.036 Y79.704 A5.15570
G1 X80.413 Y78.411 A5.26063
G1 X81.665 Y77.502 A5.34661
G1 X81.941 Y77.301 A5.36556
G1 X83.596 Y76.391 A5.47048
G1 X85.353 Y75.696 A5.57544
G1 X87.182 Y75.226 A5.68035
G1 X89.056 Y74.990 A5.78528
G1 X90.944 Y74.990 A5.89021 F3600.000
G1 X92.818 Y75.226 A5.99514
G1 X94.647 Y75.696 A6.10006
G1 X96.393 Y76.387 A6.20438
G1 X98.068 Y77.308 A6.31055
G1 X99.587 Y78.411 A6.41485
G1 X100.964 Y79.704 A6.51978
G1 X102.168 Y81.159 A6.62470
G1 X103.003 Y82.476 A6.71131
G1 X103.180 Y82.755 A6.72966
G1 X103.984 Y84.463 A6.83457
G1 X104.568 Y86.260 A6.93950
G1 X104.921 Y88.115 A7.04442
G1 X105.040 Y90.000 A7.14937
G1 X104.935 Y91.670 A7.24234
G1 X104.277 Y91.704 F7800.000
G1 X103.932 Y93.577 A7.34816 F3600.000
G1 X103.374 Y95.295 A7.44851
G1 X102.605 Y96.929 A7.54885
G1 X101.637 Y98.455 A7.64924
G1 X100.486 Y99.847 A7.74958
G1 X99.169 Y101.083 A7.84993
G1 X97.950 Y101.969 A7.93362
G1 X97.707 Y102.145 A7.95029
G1 X96.125 Y103.015 A8.05063
G1 X94.445 Y103.680 A8.15101
G1 X92.695 Y104.129 A8.25135
G1 X90.903 Y104.356 A8.35171
G1 X89.097 Y104.356 A8.45206
G1 X87.305 Y104.129 A8.55242
G1 X85.555 Y103.680 A8.65276
G1 X83.886 Y103.019 A8.75250
G1 X82.283 Y102.138 A8.85410
G1 X80.831 Y101.083 A8.95383
G1 X79.514 Y99.847 A9.05419
G1 X78.363 Y98.455 A9.15453
G1 X77.550 Y97.173 A9.23885
G1 X77.395 Y96.929 A9.25491
G1 X76.626 Y95.295 A9.35525
G1 X76.068 Y93.577 A9.45560
G1 X75.729 Y91.803 A9.55595
G1 X75.616 Y90.000 A9.65632
G1 X75.729 Y88.197 A9.75669
G1 X76.068 Y86.423 A9.85703
G1 X76.626 Y84.705 A9.95738
G1 X77.395 Y83.071 A10.05773
G1 X78.363 Y81.545 A10.15810
G1 X79.514 Y80.153 A10.25845
G1 X80.831 Y78.917 A10.35880
G1 X82.050 Y78.031 A10.44249
G1 X82.293 Y77.855 A10.45916
G1 X83.875 Y76.985 A10.55950
G1 X85.555 Y76.320 A10.65988
G1 X87.305 Y75.871 A10.76022
G1 X89.097 Y75.644 A10.86058
G1 X90.903 Y75.644 A10.96093 F3600.000
G1 X92.695 Y75.871 A11.06129
G1 X94.445 Y76.320 A11.16163
G1 X96.114 Y76.981 A11.26137
G1 X97.717 Y77.862 A11.36297
G1 X99.169 Y78.917 A11.46270
G1 X100.486 Y80.153 A11.56305
G1 X101.637 Y81.545 A11.66340
G1 X102.450 Y82.827 A11.74772
G1 X102.605 Y83.071 A11.76378
G1 X103.374 Y84.705 A11.86412
G1 X103.932 Y86.423 A11.96447
G1 X104.271 Y88.197 A12.06482
G1 X104.384 Y90.000 A12.16518
G1 X104.282 Y91.629 A12.25587
G1 X103.733 Y91.670 F7800.000
G1 X103.403 Y93.441 A12.32251 F1800.000
G1 X102.866 Y95.094 A12.38676
G1 X102.127 Y96.666 A12.45101
G1 X101.195 Y98.134 A12.51529
G1 X100.088 Y99.473 A12.57954
G1 X98.821 Y100.662 A12.64379
G1 X97.630 Y101.528 A12.69823
G1 X97.415 Y101.684 A12.70805
G1 X95.892 Y102.521 A12.77230
G1 X94.276 Y103.161 A12.83658
G1 X92.593 Y103.593 A12.90083
G1 X90.869 Y103.811 A12.96509
G1 X89.131 Y103.811 A13.02934
G1 X87.407 Y103.593 A13.09360
G1 X85.724 Y103.161 A13.15785
G1 X84.118 Y102.525 A13.22170
G1 X82.576 Y101.677 A13.28679
G1 X81.179 Y100.662 A13.35063
G1 X79.912 Y99.473 A13.41489
G1 X78.805 Y98.134 A13.47914
G1 X78.010 Y96.881 A13.53399
G1 X77.873 Y96.666 A13.54341
G1 X77.134 Y95.094 A13.60766
G1 X76.597 Y93.442 A13.67191
G1 X76.271 Y91.735 A13.73617
G1 X76.162 Y90.000 A13.80043
G1 X76.271 Y88.265 A13.86470
G1 X76.597 Y86.558 A13.92895
G1 X77.134 Y84.906 A13.99321
G1 X77.873 Y83.334 A14.05746
G1 X78.805 Y81.866 A14.12173
G1 X79.912 Y80.527 A14.18598
G1 X81.179 Y79.338 A14.25024
G1 X82.370 Y78.472 A14.30467
G1 X82.585 Y78.316 A14.31450
G1 X84.108 Y77.479 A14.37875
G1 X85.724 Y76.839 A14.44303
G1 X87.407 Y76.407 A14.50727
G1 X89.131 Y76.189 A14.57153
G1 X90.869 Y76.189 A14.63579 F1800.000
G1 X92.593 Y76.407 A14.70005
G1 X94.276 Y76.839 A14.76430
G1 X95.882 Y77.475 A14.82815
G1 X97.424 Y78.323 A14.89323
G1 X98.821 Y79.338 A14.95708
G1 X100.088 Y80.527 A15.02133
G1 X101.195 Y81.866 A15.08558
G1 X101.990 Y83.119 A15.14044
G1 X102.127 Y83.334 A15.14986
G1 X102.866 Y84.906 A15.21411
G1 X103.403 Y86.559 A15.27836
G1 X103.729 Y88.265 A15.34261
G1 X103.838 Y90.000 A15.40688
G1 X103.738 Y91.595 A15.46597
G1 X104.126 Y91.979 F7800.000
G1 X108.450 Y91.670 F7800.000
G1 X108.450 Y104.824 A16.19677 F3600.000
G1 X108.365 Y105.637 A16.24215
G1 X108.136 Y106.341 A16.28330
G1 X107.766 Y106.982 A16.32444
G1 X107.270 Y107.533 A16.36558
G1 X106.671 Y107.968 A16.40673
G1 X105.995 Y108.269 A16.44787
G1 X105.270 Y108.423 A16.48901
G1 X74.730 Y108.423 A18.18571
G1 X74.005 Y108.269 A18.22685
G1 X73.329 Y107.968 A18.26800
G1 X72.730 Y107.533 A18.30914
G1 X72.234 Y106.982 A18.35028
G1 X71.864 Y106.341 A18.39142
G1 X71.635 Y105.637 A18.43257
G1 X71.550 Y104.824 A18.47796
G1 X71.550 Y75.176 A20.12507
G1 X71.635 Y74.363 A20.17046
G1 X71.864 Y73.659 A20.21160
G1 X72.234 Y73.018 A20.25274
G1 X72.730 Y72.467 A20.29388
G1 X73.329 Y72.032 A20.33503
G1 X74.005 Y71.731 A20.37617
G1 X74.730 Y71.577 A20.41731
G1 X105.270 Y71.577 A22.11401
G1 X105.530 Y71.632 A22.12878
G1 X105.995 Y71.731 A22.15516 F3600.000
G1 X106.671 Y72.032 A22.19630
G1 X107.270 Y72.467 A22.23744
G1 X107.766 Y73.018 A22.27858
G1 X108.136 Y73.659 A22.31973
G1 X108.365 Y74.363 A22.36087
G1 X108.450 Y75.176 A22.40626
G1 X108.450 Y91.595 A23.31841
G1 X109.105 Y91.670 F7800.000
G1 X109.105 Y104.858 A24.05111 F3600.000
G1 X109.009 Y105.773 A24.10223
G1 X108.737 Y106.609 A24.15101
G1 X108.298 Y107.369 A24.19980
G1 X107.711 Y108.022 A24.24858
G1 X107.000 Y108.538 A24.29737
G1 X106.198 Y108.895 A24.34616
G1 X105.339 Y109.078 A24.39494
G1 X74.661 Y109.078 A26.09928
G1 X73.802 Y108.895 A26.14807
G1 X73.000 Y108.538 A26.19686
G1 X72.289 Y108.022 A26.24565
G1 X71.702 Y107.369 A26.29443
G1 X71.263 Y106.609 A26.34322
G1 X70.991 Y105.773 A26.39200
G1 X70.895 Y104.858 A26.44312
G1 X70.895 Y75.142 A28.09404
G1 X70.991 Y74.227 A28.14516
G1 X71.263 Y73.391 A28.19395
G1 X71.702 Y72.631 A28.24273
G1 X72.289 Y71.978 A28.29151
G1 X73.000 Y71.462 A28.34030
G1 X73.802 Y71.105 A28.38909
G1 X74.661 Y70.922 A28.43788
G1 X105.339 Y70.922 A30.14222
G1 X105.666 Y70.992 A30.16080
G1 X106.198 Y71.105 A30.19100 F3600.000
G1 X107.000 Y71.462 A30.23979
G1 X107.711 Y71.978 A30.28858
G1 X108.298 Y72.631 A30.33736
G1 X108.737 Y73.391 A30.38615
G1 X109.009 Y74.227 A30.43493
G1 X109.105 Y75.142 A30.48605
G1 X109.105 Y91.595 A31.40011
G1 X109.650 Y91.670 F7800.000
G1 X109.650 Y104.887 A31.88883 F1800.000
G1 X109.545 Y105.887 A31.92603
G1 X109.238 Y106.831 A31.96274
G1 X108.742 Y107.691 A31.99944
G1 X108.077 Y108.429 A32.03615
G1 X107.274 Y109.012 A32.07286
G1 X106.367 Y109.416 A32.10957
G1 X105.396 Y109.623 A32.14628
G1 X74.604 Y109.623 A33.28488
G1 X73.633 Y109.416 A33.32159
G1 X72.726 Y109.012 A33.35830
G1 X71.923 Y108.429 A33.39501
G1 X71.258 Y107.691 A33.43171
G1 X70.762 Y106.831 A33.46842
G1 X70.455 Y105.887 A33.50513
G1 X70.350 Y104.887 A33.54232
G1 X70.350 Y75.113 A34.64326
G1 X70.455 Y74.113 A34.68045
G1 X70.762 Y73.169 A34.71716
G1 X71.258 Y72.309 A34.75386
G1 X71.923 Y71.571 A34.79057
G1 X72.726 Y70.988 A34.82728
G1 X73.633 Y70.584 A34.86399
G1 X74.604 Y70.377 A34.90070
G1 X105.396 Y70.377 A36.03930
G1 X105.780 Y70.459 A36.05379
G1 X106.367 Y70.584 A36.07601 F1800.000
G1 X107.274 Y70.988 A36.11272
G1 X108.077 Y71.571 A36.14943
G1 X108.742 Y72.309 A36.18614
G1 X109.238 Y73.169 A36.22284
G1 X109.545 Y74.113 A36.25955
G1 X109.650 Y75.113 A36.29675
G1 X109.650 Y91.595 A36.90618
G1 X109.217 Y91.920 F7800.000
G1 X103.679 Y97.288 F7800.000
G1 X108.053 Y92.914 A37.25215 F1200.000
G1 X108.053 Y91.982 A37.30427
G1 X104.433 Y95.602 A37.59062
G1 X104.881 Y94.222 A37.67180
G1 X108.053 Y91.050 A37.92268
G1 X108.053 Y90.118 A37.97480
G1 X105.136 Y93.036 A38.20556
G1 X105.327 Y91.912 A38.26929
G1 X108.053 Y89.186 A38.48491
G1 X108.053 Y88.255 A38.53703
G1 X105.390 Y90.918 A38.74770
G1 X105.427 Y89.949 A38.80194
G1 X108.053 Y87.323 A39.00967
G1 X108.053 Y86.391 A39.06179
G1 X105.372 Y89.072 A39.27390
G1 X105.316 Y88.196 A39.32303
G1 X108.053 Y85.459 A39.53949
G1 X108.053 Y84.527 A39.59161
G1 X105.168 Y87.412 A39.81981
G1 X105.019 Y86.629 A39.86437
G1 X108.053 Y83.595 A40.10437
G1 X108.053 Y82.663 A40.15649
G1 X104.827 Y85.889 A40.41165
G1 X104.599 Y85.186 A40.45301
G1 X108.053 Y81.732 A40.72625
G1 X108.053 Y80.800 A40.77837
G1 X104.370 Y84.483 A41.06968
G1 X104.080 Y83.841 A41.10906
G1 X108.053 Y79.868 A41.42334
G1 X108.053 Y78.936 A41.47546
G1 X103.781 Y83.207 A41.81334
G1 X103.477 Y82.580 A41.85235
G1 X108.053 Y78.004 A42.21429
G1 X108.053 Y77.072 A42.26641
G1 X103.115 Y82.010 A42.65696
G1 X102.754 Y81.440 A42.69473
G1 X108.053 Y76.140 A43.11390
G1 X108.053 Y75.209 A43.16602
G1 X103.074 Y80.188 A43.55986
G1 X102.652 Y79.678 A43.59688
G1 X107.978 Y74.352 A44.01815
G1 X107.737 Y73.661 A44.05908
G1 X102.230 Y79.168 A44.49465
G1 X101.791 Y78.675 A44.53157
G1 X107.374 Y73.091 A44.97319
G1 X106.907 Y72.627 A45.01005
G1 X101.311 Y78.223 A45.45273
G1 X100.830 Y77.772 A45.48960
G1 X106.334 Y72.268 A45.92494
G1 X105.636 Y72.035 A45.96612
G1 X100.342 Y77.329 A46.38489
G1 X99.802 Y76.937 A46.42220
G1 X104.764 Y71.974 A46.81471
G1 X103.832 Y71.974 A46.86683
G1 X99.262 Y76.545 A47.22832
G1 X98.001 Y76.874 F7800.000
G1 X102.900 Y71.974 A47.61587 F1200.000
G1 X101.968 Y71.974 A47.66799
G1 X97.399 Y76.543 A48.02940
G1 X96.798 Y76.213 A48.06778
G1 X101.037 Y71.974 A48.40303
G1 X100.105 Y71.974 A48.45515
G1 X96.165 Y75.914 A48.76676
G1 X95.498 Y75.650 A48.80692
G1 X99.173 Y71.974 A49.09762
G1 X98.241 Y71.974 A49.14974
G1 X94.830 Y75.385 A49.41954
G1 X94.106 Y75.178 A49.46168
G1 X97.309 Y71.974 A49.71505
G1 X96.377 Y71.974 A49.76717
G1 X93.364 Y74.987 A50.00549
G1 X92.605 Y74.815 A50.04906
G1 X95.445 Y71.974 A50.27376
G1 X94.514 Y71.974 A50.32588
G1 X91.777 Y74.711 A50.54231
G1 X90.950 Y74.606 A50.58896
G1 X93.582 Y71.974 A50.79712
G1 X92.650 Y71.974 A50.84924
G1 X90.032 Y74.592 A51.05630
G1 X89.100 Y74.592 A51.10842
G1 X91.718 Y71.974 A51.31548
G1 X90.786 Y71.974 A51.36760
G1 X88.065 Y74.695 A51.58283
G1 X86.998 Y74.830 A51.64296
G1 X89.854 Y71.974 A51.86886
G1 X88.922 Y71.974 A51.92098
G1 X85.755 Y75.142 A52.17155
G1 X84.375 Y75.590 A52.25268
G1 X87.991 Y71.974 A52.53868
G1 X87.059 Y71.974 A52.59080
G1 X82.697 Y76.336 A52.93582
G1 X81.464 Y76.637 A53.00679
G1 X86.127 Y71.974 A53.37561
G1 X85.195 Y71.974 A53.42773
G1 X81.062 Y76.107 A53.75462
G1 X74.944 Y71.974 F7800.000
G1 X71.991 Y74.928 A53.98826 F1200.000
G1 X71.947 Y75.904 A54.04288
G1 X75.876 Y71.974 A54.35368
G1 X76.808 Y71.974 A54.40580
G1 X71.947 Y76.836 A54.79031
G1 X71.947 Y77.767 A54.84243
G1 X77.740 Y71.974 A55.30065
G1 X78.672 Y71.974 A55.35277
G1 X71.947 Y78.699 A55.88470
G1 X71.947 Y79.631 A55.93682
G1 X79.604 Y71.974 A56.54246
G1 X80.536 Y71.974 A56.59458
G1 X71.947 Y80.563 A57.27393
G1 X71.947 Y81.495 A57.32605
G1 X81.467 Y71.974 A58.07911
G1 X82.399 Y71.974 A58.13123
G1 X71.947 Y82.427 A58.95799
G1 X71.947 Y83.359 A59.01011
G1 X83.331 Y71.974 A59.91059
G1 X84.263 Y71.974 A59.96271
G1 X71.947 Y84.290 A60.93690
G1 X71.947 Y85.222 A60.98902
G1 X76.769 Y80.401 A61.37041
G1 X77.370 Y80.731 A61.40879
G1 X71.947 Y86.154 A61.83775
G1 X71.947 Y87.086 A61.88987
G1 X76.321 Y82.712 A62.23584
G1 X75.567 Y84.398 F7800.000
G1 X71.947 Y88.018 A62.52220 F1200.000
G1 X71.947 Y88.950 A62.57432
G1 X75.119 Y85.778 A62.82519
G1 X74.864 Y86.964 A62.89305
G1 X71.947 Y89.882 A63.12381
G1 X71.947 Y90.813 A63.17593
G1 X74.673 Y88.088 A63.39155
G1 X74.610 Y89.082 A63.44728
G1 X71.947 Y91.745 A63.65795
G1 X71.947 Y92.677 A63.71007
G1 X74.573 Y90.051 A63.91781
G1 X74.628 Y90.928 A63.96694
G1 X71.947 Y93.609 A64.17904
G1 X71.947 Y94.541 A64.23116
G1 X74.684 Y91.804 A64.44763
G1 X74.832 Y92.588 A64.49224
G1 X71.947 Y95.473 A64.72043
G1 X71.947 Y96.405 A64.77255
G1 X74.981 Y93.370 A65.01255
G1 X75.173 Y94.111 A65.05532
G1 X71.947 Y97.337 A65.31048
G1 X71.947 Y98.268 A65.36260
G1 X75.401 Y94.814 A65.63583
G1 X75.630 Y95.517 A65.67719
G1 X71.947 Y99.200 A65.96850
G1 X71.947 Y100.132 A66.02062
G1 X75.920 Y96.159 A66.33491
G1 X76.219 Y96.792 A66.37408
G1 X71.947 Y101.064 A66.71195
G1 X71.947 Y101.996 A66.76407
G1 X76.523 Y97.420 A67.12601
G1 X76.885 Y97.990 A67.16377
G1 X71.947 Y102.928 A67.55432
G1 X71.947 Y103.860 A67.60644
G1 X77.246 Y98.560 A68.02562
G1 X76.926 Y99.812 F7800.000
G1 X71.947 Y104.791 A68.41945 F1200.000
G1 X72.022 Y105.648 A68.46756
G1 X77.348 Y100.322 A68.88883
G1 X77.770 Y100.832 A68.92585
G1 X72.263 Y106.339 A69.36143
G1 X72.626 Y106.908 A69.39918
G1 X78.209 Y101.325 A69.84080
G1 X78.689 Y101.777 A69.87768
G1 X73.093 Y107.373 A70.32036
G1 X73.666 Y107.732 A70.35818
G1 X79.170 Y102.228 A70.79352
G1 X79.658 Y102.671 A70.83042
G1 X74.364 Y107.965 A71.24919
G1 X75.236 Y108.026 A71.29806
G1 X80.198 Y103.063 A71.69057
G1 X80.738 Y103.455 A71.72788
G1 X76.168 Y108.026 A72.08938
G1 X77.100 Y108.026 A72.14150
G1 X81.999 Y103.126 A72.52905
G1 X82.601 Y103.457 A72.56743
G1 X78.032 Y108.026 A72.92884
G1 X78.963 Y108.026 A72.98096
G1 X83.202 Y103.787 A73.31622
G1 X83.835 Y104.086 A73.35536
G1 X79.895 Y108.026 A73.66697
G1 X80.827 Y108.026 A73.71909
G1 X84.502 Y104.350 A74.00980
G1 X85.170 Y104.615 A74.04995
G1 X81.759 Y108.026 A74.31975
G1 X82.691 Y108.026 A74.37187
G1 X85.894 Y104.822 A74.62525
G1 X86.636 Y105.013 A74.66807
G1 X83.623 Y108.026 A74.90639
G1 X84.555 Y108.026 A74.95851
G1 X87.395 Y105.185 A75.18321
G1 X88.223 Y105.289 A75.22985
G1 X85.486 Y108.026 A75.44628
G1 X86.418 Y108.026 A75.49840
G1 X89.050 Y105.394 A75.70657
G1 X89.968 Y105.408 A75.75791
G1 X87.350 Y108.026 A75.96497
G1 X88.282 Y108.026 A76.01709
G1 X90.900 Y105.408 A76.22415
G1 X91.935 Y105.305 A76.28234
G1 X89.214 Y108.026 A76.49757
G1 X90.146 Y108.026 A76.54969
G1 X93.002 Y105.170 A76.77558
G1 X94.245 Y104.858 A76.84731
G1 X91.078 Y108.026 A77.09788
G1 X92.009 Y108.026 A77.15000
G1 X95.625 Y104.410 A77.43599
G1 X97.303 Y103.664 F7800.000
G1 X92.941 Y108.026 A77.78101 F1200.000
G1 X93.873 Y108.026 A77.83313
G1 X98.536 Y103.363 A78.20195
G1 X98.938 Y103.893 A78.23915
G1 X94.805 Y108.026 A78.56603
G1 X95.737 Y108.026 A78.61815
G1 X108.053 Y95.709 A79.59234
G1 X108.053 Y96.641 A79.64446
G1 X96.669 Y108.026 A80.54494
G1 X97.601 Y108.026 A80.59706
G1 X108.053 Y97.573 A81.42383
G1 X108.053 Y98.505 A81.47595
G1 X98.532 Y108.026 A82.22902
G1 X99.464 Y108.026 A82.28114
G1 X108.053 Y99.437 A82.96049
G1 X108.053 Y100.369 A83.01261
G1 X100.396 Y108.026 A83.61825
G1 X101.328 Y108.026 A83.67037
G1 X108.053 Y101.301 A84.20231
G1 X108.053 Y102.233 A84.25443
G1 X102.260 Y108.026 A84.71265
G1 X103.192 Y108.026 A84.76477
G1 X108.053 Y103.164 A85.14929
G1 X108.053 Y104.096 A85.20141
G1 X104.124 Y108.026 A85.51221
G1 X105.056 Y108.026 A85.56433
G1 X108.009 Y105.072 A85.79798
G1 X107.305 Y106.708 F7800.000
G1 X106.667 Y107.346 A85.84846 F1200.000
G1 X103.231 Y99.599 F7800.000
G1 X108.053 Y94.778 A86.22985 F1200.000
G1 X108.053 Y93.846 A86.28198
G1 X102.630 Y99.269 A86.71093
G1 A84.71093 F2400.00000
G92 A0
G1 X73.333 Y72.654 F7800.000
G1 A2.00000 F2400.00000
G1 X72.695 Y73.292 A2.05043 F1200.000
G1 A0.05043 F2400.00000
G92 A0
G1 X102.563 Y99.741 F7800.000
G1 A2.00000 F2400.00000
G1 X101.606 Y100.898 A2.08345 F4800.000
G1 X100.148 Y102.267 A2.19453
G1 X98.933 Y103.150 A2.27799
G1 X98.793 Y102.853 A2.29623
G1 X99.942 Y102.018 A2.37515
G1 X101.370 Y100.677 A2.48396
G1 X102.275 Y99.583 A2.56287
G1 X102.563 Y99.741 A2.58111
G1 A0.58111 F2400.00000
G92 A0
G1 X78.630 Y100.677 F7800.000
G1 A2.00000 F2400.00000
G1 X80.058 Y102.018 A2.10882 F4800.000
G1 X81.207 Y102.853 A2.18772
G1 X81.067 Y103.150 A2.20597
G1 X79.852 Y102.267 A2.28942
G1 X78.676 Y101.163 A2.37902
G1 X78.394 Y100.898 A2.40049
G1 X77.437 Y99.741 A2.48394
G1 X77.725 Y99.583 A2.50219
G1 X78.630 Y100.677 A2.58109
G1 A0.58109 F2400.00000
G92 A0
G1 X81.207 Y77.147 F7800.000
G1 A2.00000 F2400.00000
G1 X80.986 Y77.307 A2.01514 F4800.000
G1 X80.897 Y76.973 A2.03433
G1 X81.067 Y76.850 A2.04601
G1 X81.207 Y77.147 A2.06426
M106 P117.3
G1 Z2.150 F7800.000
G1 A0.06426 F2400.00000
G92 A0
G1 X106.192 Y91.452 F7800.000
G1 A2.00000 F2400.00000
G1 X106.154 Y92.041 A2.03279 F3600.000
G1 X105.771 Y94.049 A2.14638
G1 X105.140 Y95.994 A2.25998
G1 X104.269 Y97.844 A2.37357
G1 X103.173 Y99.571 A2.48719
G1 X101.870 Y101.146 A2.60078
G1 X100.379 Y102.546 A2.71438
G1 X99.103 Y103.473 A2.80202
G1 X98.725 Y103.748 A2.82799
G1 X96.933 Y104.733 A2.94157
G1 X95.031 Y105.486 A3.05520
G1 X93.051 Y105.995 A3.16879
G1 X91.022 Y106.251 A3.28239
G1 X88.978 Y106.251 A3.39599
G1 X86.949 Y105.995 A3.50959
G1 X84.969 Y105.486 A3.62318
G1 X83.079 Y104.738 A3.73607
G1 X81.265 Y103.740 A3.85112
G1 X79.621 Y102.546 A3.96399
G1 X78.130 Y101.146 A4.07759
G1 X76.827 Y99.571 A4.19118
G1 X75.975 Y98.228 A4.27955
G1 X75.731 Y97.844 A4.30481
G1 X74.860 Y95.994 A4.41839
G1 X74.229 Y94.049 A4.53199
G1 X73.846 Y92.041 A4.64558
G1 X73.717 Y90.000 A4.75920
G1 X73.846 Y87.959 A4.87282
G1 X74.229 Y85.950 A4.98641
G1 X74.860 Y84.006 A5.10000
G1 X75.731 Y82.156 A5.21359
G1 X76.827 Y80.429 A5.32722
G1 X78.130 Y78.854 A5.44081
G1 X79.621 Y77.454 A5.55441
G1 X80.897 Y76.527 A5.64205
G1 X81.275 Y76.252 A5.66802
G1 X83.067 Y75.267 A5.78160
G1 X84.969 Y74.514 A5.89523
G1 X86.949 Y74.005 A6.00882
G1 X88.978 Y73.749 A6.12242
G1 X91.022 Y73.749 A6.23602 F3600.000
G1 X93.051 Y74.005 A6.34962
G1 X95.031 Y74.514 A6.46321
G1 X96.921 Y75.262 A6.57609
G1 X98.735 Y76.260 A6.69115
G1 X100.379 Y77.454 A6.80402
G1 X101.870 Y78.854 A6.91762
G1 X103.173 Y80.429 A7.03121
G1 X104.025 Y81.772 A7.11957
G1 X104.269 Y82.156 A7.14483
G1 X105.140 Y84.006 A7.25842
G1 X105.771 Y85.950 A7.37202
G1 X106.154 Y87.959 A7.48561
G1 X106.283 Y90.000 A7.59923
G1 X106.196 Y91.377 A7.67589
G1 X105.538 Y91.411 F7800.000
G1 X105.504 Y91.959 A7.70639 F3600.000
G1 X105.136 Y93.886 A7.81541
G1 X104.530 Y95.753 A7.92443
G1 X103.694 Y97.528 A8.03344
G1 X102.642 Y99.186 A8.14249
G1 X101.392 Y100.698 A8.25151
G1 X99.961 Y102.041 A8.36053
G1 X98.718 Y102.944 A8.44588
G1 X98.373 Y103.194 A8.46956
G1 X96.654 Y104.140 A8.57857
G1 X94.829 Y104.862 A8.68763
G1 X92.928 Y105.350 A8.79664
G1 X90.981 Y105.596 A8.90566
G1 X89.019 Y105.596 A9.01469
G1 X87.072 Y105.350 A9.12371
G1 X85.171 Y104.862 A9.23273
G1 X83.359 Y104.145 A9.34104
G1 X81.616 Y103.187 A9.45151
G1 X80.039 Y102.041 A9.55981
G1 X78.608 Y100.698 A9.66884
G1 X77.358 Y99.186 A9.77785
G1 X76.527 Y97.877 A9.86393
G1 X76.306 Y97.528 A9.88690
G1 X75.470 Y95.753 A9.99591
G1 X74.864 Y93.886 A10.10493
G1 X74.496 Y91.959 A10.21395
G1 X74.373 Y90.000 A10.32299
G1 X74.496 Y88.041 A10.43203
G1 X74.864 Y86.114 A10.54105
G1 X75.470 Y84.247 A10.65007
G1 X76.306 Y82.472 A10.75909
G1 X77.358 Y80.814 A10.86813
G1 X78.608 Y79.302 A10.97715
G1 X80.039 Y77.959 A11.08618
G1 X81.282 Y77.056 A11.17152
G1 X81.627 Y76.806 A11.19521
G1 X83.346 Y75.860 A11.30422
G1 X85.171 Y75.138 A11.41327
G1 X87.072 Y74.650 A11.52228
G1 X89.019 Y74.404 A11.63131
G1 X90.981 Y74.404 A11.74033 F3600.000
G1 X92.928 Y74.650 A11.84936
G1 X94.829 Y75.138 A11.95837
G1 X96.641 Y75.855 A12.06668
G1 X98.384 Y76.813 A12.17716
G1 X99.961 Y77.959 A12.28545
G1 X101.392 Y79.302 A12.39448
G1 X102.642 Y80.814 A12.50349
G1 X103.473 Y82.123 A12.58957
G1 X103.694 Y82.472 A12.61254
G1 X104.530 Y84.247 A12.72156
G1 X105.136 Y86.114 A12.83058
G1 X105.504 Y88.041 A12.93960
G1 X105.627 Y90.000 A13.04864
G1 X105.543 Y91.336 A13.12301
G1 X104.885 Y91.370 F7800.000
G1 X104.853 Y91.877 A13.15122 F3600.000
G1 X104.501 Y93.723 A13.25567
G1 X103.920 Y95.511 A13.36011
G1 X103.120 Y97.212 A13.46455
G1 X102.112 Y98.800 A13.56903
G1 X100.914 Y100.249 A13.67346
G1 X99.543 Y101.536 A13.77791
G1 X98.334 Y102.414 A13.86097
G1 X98.022 Y102.641 A13.88237
G1 X96.375 Y103.546 A13.98681
