; generated by Slic3r 1.2.9 on 2016-06-07 at 12:13:50

; external perimeters extrusion width = 0.40mm
; perimeters extrusion width = 0.48mm
; infill extrusion width = 0.48mm
; solid infill extrusion width = 0.48mm
; top infill extrusion width = 0.48mm


G28 ; home all axes
G21; [mm] mode
G90; absolute mode
G92 A0

; M140 P0
; M104 P205
; M190 P0
M109 P205

G21 ; set units to millimeters
G90 ; use absolute coordinates
G1 Z0.300 F15000.000
G1 A-2.50000 F4800.00000
G92 A0
G1 Z0.400 F15000.000
G1 X22.366 Y14.811 F15000.000
G1 Z0.300 F15000.000
G1 A4.00000 F4800.00000
G1 A6.33434 F4800.000 ; pressure advance
G92 A4.00000 ; restore E
G1 X22.380 Y15.755 A4.02776 F1800.000
G1 X22.315 Y16.801 A4.05855
G1 X22.175 Y17.790 A4.08790
G1 X21.943 Y18.830 A4.11922
G1 X21.824 Y19.255 A4.13218
G1 X21.508 Y20.199 A4.16143
G1 X19.300 Y25.791 A4.33813
G1 X18.126 Y27.681 A4.40350
G1 X16.364 Y29.039 A4.46888
G1 X13.500 Y29.736 A4.55551
G1 X-13.500 Y29.736 A5.34898
G1 X-15.689 Y29.339 A5.41436
G1 X-17.599 Y28.199 A5.47973
G1 X-19.299 Y25.792 A5.56631
G1 X-21.501 Y20.219 A5.74243
G1 X-21.849 Y19.171 A5.77488
G1 X-22.078 Y18.271 A5.80217
G1 X-22.170 Y17.818 A5.81575
G1 X-22.319 Y16.769 A5.84688
G1 X-22.380 Y15.751 A5.87687
G1 X-22.366 Y14.818 A5.90430
G1 X-19.721 Y-23.925 A7.04550
G1 X-19.176 Y-26.081 A7.11087
G1 X-17.909 Y-27.910 A7.17624
G1 X-16.080 Y-29.177 A7.24162
G1 X-13.500 Y-29.736 A7.31921
G1 X13.500 Y-29.736 A8.11268
G1 X15.689 Y-29.339 A8.17805
G1 X17.599 Y-28.199 A8.24343
G1 X18.988 Y-26.461 A8.30880
G1 X19.721 Y-23.925 A8.38639
G1 X22.361 Y14.751 A9.52562
G1 F12000
G1 A7.19128 F4800.000 ; pressure discharge
G92 A9.52562 ; restore E
G1 X22.380 Y15.755 A9.14384
G1 F12000
G1 X22.315 Y16.801 A8.74574
G1 F12000
G1 X22.175 Y17.790 A8.36628
G1 F12000
G1 X21.943 Y18.830 A7.96122
G1 F12000
G1 X21.824 Y19.255 A7.79370
G1 F12000
G1 X21.508 Y20.199 A7.41546
G1 F12000
G1 X21.252 Y20.847 A7.15062
G1 A7.02562 F4800.00000
G92 A0
G1 Z0.400 F15000.000
G1 X-8.744 Y8.302 F15000.000
G1 Z0.300 F15000.000
G1 A4.00000 F4800.00000
G1 A5.31020 F4800.000 ; pressure advance
G92 A4.00000 ; restore E
G1 X-8.475 Y8.539 A4.01053 F1350.000
G1 X-8.250 Y8.817 A4.02105
G1 X-8.075 Y9.130 A4.03158
G1 X-7.956 Y9.468 A4.04211
G1 X-7.896 Y9.820 A4.05261
G1 X-7.896 Y10.180 A4.06319
G1 X-7.956 Y10.532 A4.07369
G1 X-8.075 Y10.870 A4.08422
G1 X-8.250 Y11.183 A4.09475
G1 X-8.475 Y11.461 A4.10528
G1 X-8.744 Y11.698 A4.11580
G1 X-9.049 Y11.886 A4.12633
G1 X-9.382 Y12.019 A4.13686
G1 X-9.732 Y12.095 A4.14739
G1 X-10.090 Y12.110 A4.15791
G1 X-10.445 Y12.065 A4.16844
G1 X-10.788 Y11.960 A4.17897
G1 X-11.107 Y11.798 A4.18950
G1 X-11.395 Y11.585 A4.20002
G1 X-11.643 Y11.327 A4.21055
G1 X-11.844 Y11.030 A4.22108
G1 X-11.991 Y10.704 A4.23161
G1 X-12.082 Y10.357 A4.24213
G1 X-12.112 Y10.000 A4.25266
G1 X-12.082 Y9.643 A4.26319
G1 X-11.991 Y9.296 A4.27372
G1 X-11.844 Y8.970 A4.28424
G1 X-11.643 Y8.673 A4.29477
G1 X-11.395 Y8.415 A4.30530
G1 X-11.107 Y8.202 A4.31583
G1 X-10.788 Y8.040 A4.32636
G1 X-10.445 Y7.935 A4.33688
G1 X-10.090 Y7.890 A4.34741
G1 X-9.732 Y7.905 A4.35794
G1 X-9.382 Y7.981 A4.36847
G1 X-9.049 Y8.114 A4.37899
G1 X-8.795 Y8.270 A4.38776
G1 X-8.885 Y8.492 F15000.000
G1 X-8.646 Y8.702 A4.39711 F1350.000
G1 X-8.446 Y8.950 A4.40646
G1 X-8.291 Y9.227 A4.41580
G1 X-8.185 Y9.527 A4.42515
G1 X-8.131 Y9.840 A4.43448
G1 X-8.131 Y10.160 A4.44388
G1 X-8.185 Y10.473 A4.45320
G1 X-8.291 Y10.773 A4.46255
G1 X-8.446 Y11.050 A4.47190
G1 X-8.646 Y11.298 A4.48125
G1 X-8.885 Y11.508 A4.49060
G1 X-9.156 Y11.675 A4.49994
G1 X-9.451 Y11.793 A4.50929
G1 X-9.762 Y11.860 A4.51864
G1 X-10.080 Y11.874 A4.52799
G1 X-10.395 Y11.834 A4.53734
G1 X-10.699 Y11.740 A4.54669
G1 X-10.983 Y11.597 A4.55604
G1 X-11.239 Y11.408 A4.56539
G1 X-11.459 Y11.178 A4.57474
G1 X-11.637 Y10.915 A4.58408
G1 X-11.768 Y10.625 A4.59343
G1 X-11.849 Y10.317 A4.60278
G1 X-11.876 Y10.000 A4.61213
G1 X-11.849 Y9.683 A4.62148
G1 X-11.768 Y9.375 A4.63083
G1 X-11.637 Y9.085 A4.64018
G1 X-11.459 Y8.822 A4.64953
G1 X-11.239 Y8.592 A4.65888
G1 X-10.983 Y8.403 A4.66823
G1 X-10.699 Y8.260 A4.67757
G1 X-10.395 Y8.166 A4.68692
G1 X-10.080 Y8.126 A4.69627
G1 X-9.762 Y8.140 A4.70562
G1 X-9.451 Y8.207 A4.71497
G1 X-9.156 Y8.325 A4.72432
G1 X-8.936 Y8.461 A4.73190
G1 X-8.590 Y8.373 F15000.000
G1 X7.888 Y10.000 F15000.000
G1 X7.918 Y9.643 A4.74243 F1350.000
G1 X8.009 Y9.296 A4.75296
G1 X8.156 Y8.970 A4.76349
G1 X8.357 Y8.673 A4.77402
G1 X8.605 Y8.415 A4.78454
G1 X8.893 Y8.202 A4.79507
G1 X9.212 Y8.040 A4.80560
G1 X9.555 Y7.935 A4.81613
G1 X9.910 Y7.890 A4.82665
G1 X10.268 Y7.905 A4.83718
G1 X10.618 Y7.981 A4.84771
G1 X10.951 Y8.114 A4.85824
G1 X11.256 Y8.302 A4.86876
G1 X11.525 Y8.539 A4.87929
G1 X11.750 Y8.817 A4.88982
G1 X11.925 Y9.130 A4.90035
G1 X12.044 Y9.468 A4.91087
G1 X12.104 Y9.820 A4.92138
G1 X12.104 Y10.180 A4.93195
G1 X12.044 Y10.532 A4.94246
G1 X11.925 Y10.870 A4.95298
G1 X11.750 Y11.183 A4.96351
G1 X11.525 Y11.461 A4.97404
G1 X11.256 Y11.698 A4.98457
G1 X10.951 Y11.886 A4.99509
G1 X10.618 Y12.019 A5.00562
G1 X10.268 Y12.095 A5.01615
G1 X9.910 Y12.110 A5.02668
G1 X9.555 Y12.065 A5.03720
G1 X9.212 Y11.960 A5.04773
G1 X8.893 Y11.798 A5.05826
G1 X8.605 Y11.585 A5.06879
G1 X8.357 Y11.327 A5.07932
G1 X8.156 Y11.030 A5.08984
G1 X8.009 Y10.704 A5.10037
G1 X7.918 Y10.357 A5.11090
G1 X7.893 Y10.060 A5.11966
G1 X8.124 Y10.000 F15000.000
G1 X8.151 Y9.683 A5.12901 F1350.000
G1 X8.232 Y9.375 A5.13836
G1 X8.363 Y9.085 A5.14771
G1 X8.541 Y8.822 A5.15706
G1 X8.761 Y8.592 A5.16641
G1 X9.017 Y8.403 A5.17576
G1 X9.301 Y8.260 A5.18511
G1 X9.605 Y8.166 A5.19445
G1 X9.920 Y8.126 A5.20380
G1 X10.238 Y8.140 A5.21315
G1 X10.549 Y8.207 A5.22250
G1 X10.844 Y8.325 A5.23185
G1 X11.115 Y8.492 A5.24120
G1 X11.354 Y8.702 A5.25055
G1 X11.554 Y8.950 A5.25990
G1 X11.709 Y9.227 A5.26925
G1 X11.815 Y9.527 A5.27859
G1 X11.869 Y9.840 A5.28792
G1 X11.869 Y10.160 A5.29732
G1 X11.815 Y10.473 A5.30664
G1 X11.709 Y10.773 A5.31599
G1 X11.554 Y11.050 A5.32534
G1 X11.354 Y11.298 A5.33469
G1 X11.115 Y11.508 A5.34404
G1 X10.844 Y11.675 A5.35339
G1 X10.549 Y11.793 A5.36273
G1 X10.238 Y11.860 A5.37208
G1 X9.920 Y11.874 A5.38143
G1 X9.605 Y11.834 A5.39078
G1 X9.301 Y11.740 A5.40013
G1 X9.017 Y11.597 A5.40948
G1 X8.761 Y11.408 A5.41883
G1 X8.541 Y11.178 A5.42818
G1 X8.363 Y10.915 A5.43753
G1 X8.232 Y10.625 A5.44687
G1 X8.151 Y10.317 A5.45622
G1 X8.129 Y10.060 A5.46381
G1 X7.854 Y9.833 F15000.000
G1 X9.910 Y-7.890 F15000.000
G1 X9.555 Y-7.935 A5.47434 F1350.000
G1 X9.213 Y-8.040 A5.48486
G1 X8.893 Y-8.202 A5.49539
G1 X8.605 Y-8.415 A5.50592
G1 X8.357 Y-8.673 A5.51645
G1 X8.156 Y-8.970 A5.52697
G1 X8.009 Y-9.296 A5.53750
G1 X7.918 Y-9.643 A5.54803
G1 X7.888 Y-10.000 A5.55856
G1 X7.918 Y-10.357 A5.56908
G1 X8.009 Y-10.704 A5.57961
G1 X8.156 Y-11.030 A5.59014
G1 X8.357 Y-11.327 A5.60067
G1 X8.605 Y-11.585 A5.61119
G1 X8.893 Y-11.798 A5.62172
G1 X9.214 Y-11.960 A5.63229
G1 X9.571 Y-12.067 A5.64324
G1 X9.910 Y-12.110 A5.65330
G1 X10.268 Y-12.095 A5.66382
G1 X10.618 Y-12.019 A5.67435
G1 X10.951 Y-11.886 A5.68488
G1 X11.256 Y-11.698 A5.69541
G1 X11.525 Y-11.461 A5.70593
G1 X11.750 Y-11.183 A5.71646
G1 X11.925 Y-10.870 A5.72699
G1 X12.044 Y-10.532 A5.73751
G1 X12.104 Y-10.179 A5.74804
G1 X12.104 Y-9.821 A5.75857
G1 X12.044 Y-9.468 A5.76910
G1 X11.924 Y-9.129 A5.77967
G1 X11.740 Y-8.805 A5.79062
G1 X11.525 Y-8.539 A5.80067
G1 X11.256 Y-8.302 A5.81120
G1 X10.951 Y-8.114 A5.82173
G1 X10.618 Y-7.981 A5.83226
G1 X10.268 Y-7.905 A5.84278
G1 X9.970 Y-7.892 A5.85155
G1 X9.920 Y-8.126 F15000.000
G1 X9.605 Y-8.167 A5.86090 F1350.000
G1 X9.301 Y-8.260 A5.87024
G1 X9.017 Y-8.403 A5.87959
G1 X8.761 Y-8.592 A5.88894
G1 X8.541 Y-8.822 A5.89829
G1 X8.363 Y-9.085 A5.90764
G1 X8.232 Y-9.375 A5.91699
G1 X8.151 Y-9.683 A5.92634
G1 X8.124 Y-10.000 A5.93568
G1 X8.151 Y-10.317 A5.94503
G1 X8.232 Y-10.625 A5.95438
G1 X8.363 Y-10.915 A5.96373
G1 X8.541 Y-11.178 A5.97308
G1 X8.761 Y-11.408 A5.98243
G1 X9.017 Y-11.597 A5.99178
G1 X9.301 Y-11.741 A6.00114
G1 X9.620 Y-11.835 A6.01092
G1 X9.920 Y-11.874 A6.01982
G1 X10.238 Y-11.860 A6.02917
G1 X10.549 Y-11.793 A6.03851
G1 X10.844 Y-11.675 A6.04786
G1 X11.115 Y-11.508 A6.05721
G1 X11.354 Y-11.298 A6.06656
G1 X11.554 Y-11.050 A6.07591
G1 X11.709 Y-10.773 A6.08526
G1 X11.815 Y-10.473 A6.09461
G1 X11.869 Y-10.159 A6.10395
G1 X11.869 Y-9.841 A6.11330
G1 X11.815 Y-9.527 A6.12265
G1 X11.709 Y-9.227 A6.13202
G1 X11.544 Y-8.938 A6.14179
G1 X11.354 Y-8.702 A6.15069
G1 X11.115 Y-8.492 A6.16004
G1 X10.844 Y-8.325 A6.16939
G1 X10.549 Y-8.207 A6.17874
G1 X10.238 Y-8.140 A6.18809
G1 X9.980 Y-8.129 A6.19567
G1 X9.742 Y-7.863 F15000.000
G1 X-7.896 Y-9.821 F15000.000
G1 X-7.956 Y-9.468 A6.20620 F1350.000
G1 X-8.076 Y-9.129 A6.21677
G1 X-8.260 Y-8.805 A6.22772
G1 X-8.475 Y-8.539 A6.23778
G1 X-8.744 Y-8.302 A6.24830
G1 X-9.049 Y-8.114 A6.25883
G1 X-9.382 Y-7.981 A6.26936
G1 X-9.732 Y-7.905 A6.27989
G1 X-10.090 Y-7.890 A6.29041
G1 X-10.445 Y-7.935 A6.30094
G1 X-10.789 Y-8.041 A6.31151
G1 X-11.120 Y-8.211 A6.32246
G1 X-11.395 Y-8.415 A6.33252
G1 X-11.643 Y-8.673 A6.34304
G1 X-11.844 Y-8.970 A6.35357
G1 X-11.991 Y-9.296 A6.36410
G1 X-12.082 Y-9.643 A6.37463
G1 X-12.112 Y-10.002 A6.38520
G1 X-12.078 Y-10.373 A6.39615
G1 X-11.991 Y-10.704 A6.40620
G1 X-11.844 Y-11.030 A6.41673
G1 X-11.643 Y-11.327 A6.42726
G1 X-11.395 Y-11.585 A6.43778
G1 X-11.107 Y-11.798 A6.44831
G1 X-10.786 Y-11.960 A6.45888
G1 X-10.429 Y-12.067 A6.46984
G1 X-10.090 Y-12.110 A6.47989
G1 X-9.732 Y-12.095 A6.49041
G1 X-9.382 Y-12.019 A6.50094
G1 X-9.049 Y-11.886 A6.51147
G1 X-8.744 Y-11.698 A6.52200
G1 X-8.475 Y-11.461 A6.53252
G1 X-8.250 Y-11.183 A6.54305
G1 X-8.075 Y-10.870 A6.55358
G1 X-7.956 Y-10.532 A6.56411
G1 X-7.896 Y-10.179 A6.57463
G1 X-7.896 Y-9.881 A6.58340
G1 X-8.131 Y-9.841 F15000.000
G1 X-8.185 Y-9.527 A6.59275 F1350.000
G1 X-8.291 Y-9.227 A6.60211
G1 X-8.456 Y-8.938 A6.61189
G1 X-8.646 Y-8.702 A6.62079
G1 X-8.885 Y-8.492 A6.63014
G1 X-9.156 Y-8.325 A6.63948
G1 X-9.451 Y-8.207 A6.64883
G1 X-9.762 Y-8.140 A6.65818
G1 X-10.080 Y-8.126 A6.66753
G1 X-10.395 Y-8.167 A6.67688
G1 X-10.700 Y-8.260 A6.68625
G1 X-10.996 Y-8.412 A6.69602
G1 X-11.239 Y-8.592 A6.70492
G1 X-11.459 Y-8.822 A6.71427
G1 X-11.637 Y-9.085 A6.72362
G1 X-11.768 Y-9.375 A6.73296
G1 X-11.849 Y-9.683 A6.74231
G1 X-11.876 Y-10.001 A6.75168
G1 X-11.845 Y-10.332 A6.76145
G1 X-11.768 Y-10.625 A6.77035
G1 X-11.637 Y-10.915 A6.77970
G1 X-11.459 Y-11.178 A6.78905
G1 X-11.239 Y-11.408 A6.79840
G1 X-10.983 Y-11.597 A6.80775
G1 X-10.699 Y-11.741 A6.81711
G1 X-10.380 Y-11.835 A6.82689
G1 X-10.080 Y-11.874 A6.83579
G1 X-9.762 Y-11.860 A6.84514
G1 X-9.451 Y-11.793 A6.85449
G1 X-9.156 Y-11.675 A6.86383
G1 X-8.885 Y-11.508 A6.87318
G1 X-8.646 Y-11.298 A6.88253
G1 X-8.446 Y-11.050 A6.89188
G1 X-8.291 Y-10.773 A6.90123
G1 X-8.185 Y-10.473 A6.91058
G1 X-8.131 Y-10.159 A6.91993
G1 X-8.131 Y-9.901 A6.92751
G1 X-7.875 Y-9.652 F15000.000
G1 F12000
G1 A5.61731 F4800.000 ; pressure discharge
G92 A6.92751 ; restore E
G1 X-8.185 Y-9.527 A6.78410
G1 F12000
G1 X-8.291 Y-9.227 A6.66299
G1 F12000
G1 X-8.456 Y-8.938 A6.53662
G1 F12000
G1 X-8.646 Y-8.702 A6.42153
G1 F12000
G1 X-8.885 Y-8.492 A6.30065
G1 F12000
G1 X-9.156 Y-8.325 A6.17976
G1 F12000
G1 X-9.451 Y-8.207 A6.05888
G1 F12000
G1 X-9.762 Y-8.140 A5.93800
G1 F12000
G1 X-10.080 Y-8.126 A5.81711
G1 F12000
G1 X-10.395 Y-8.167 A5.69623
G1 F12000
G1 X-10.700 Y-8.260 A5.57512
G1 F12000
G1 X-10.996 Y-8.412 A5.44875
G1 F12000
G1 X-11.239 Y-8.592 A5.33366
G1 F12000
G1 X-11.459 Y-8.822 A5.21277
G1 F12000
G1 X-11.637 Y-9.085 A5.09189
G1 F12000
G1 X-11.768 Y-9.375 A4.97101
G1 F12000
G1 X-11.849 Y-9.683 A4.85012
G1 F12000
G1 X-11.876 Y-10.001 A4.72901
G1 F12000
G1 X-11.845 Y-10.332 A4.60264
G1 F12000
G1 X-11.811 Y-10.459 A4.55251
G1 A4.42751 F4800.00000
G92 A0
G1 Z0.400 F15000.000
G1 X-13.114 Y-23.114 F15000.000
G1 Z0.300 F15000.000
G1 A4.00000 F4800.00000
G1 A6.33194 F4800.000 ; pressure advance
G92 A4.00000 ; restore E
G1 X13.114 Y-23.114 A4.77080 F1800.000
G1 X13.114 Y9.249 A5.72189
G1 X13.939 Y10.463 A5.76503
G1 X14.449 Y11.308 A5.79402
G1 X14.802 Y11.965 A5.81594
G1 X15.119 Y12.645 A5.83799
G1 X15.335 Y13.192 A5.85528
G1 X15.518 Y13.769 A5.87305
G1 X15.638 Y14.265 A5.88806
G1 X15.721 Y14.778 A5.90334
G1 X15.759 Y15.251 A5.91728
G1 X15.759 Y15.742 A5.93170
G1 X15.718 Y16.241 A5.94643
G1 X15.641 Y16.721 A5.96071
G1 X15.510 Y17.260 A5.97701
G1 X15.345 Y17.779 A5.99300
G1 X15.099 Y18.401 A6.01266
G1 X14.824 Y18.991 A6.03181
G1 X14.416 Y19.750 A6.05714
G1 X13.979 Y20.474 A6.08196
G1 X13.114 Y21.751 A6.12729
G1 X13.114 Y23.114 A6.16736
G1 X-13.114 Y23.114 A6.93817
G1 X-13.114 Y21.731 A6.97881
G1 X-13.392 Y21.359 A6.99246
G1 X-13.939 Y20.537 A7.02149
G1 X-14.449 Y19.692 A7.05048
G1 X-14.801 Y19.037 A7.07233
G1 X-15.119 Y18.355 A7.09444
G1 X-15.336 Y17.805 A7.11182
G1 X-15.518 Y17.231 A7.12951
G1 X-15.637 Y16.737 A7.14445
G1 X-15.721 Y16.222 A7.15979
G1 X-15.759 Y15.746 A7.17381
G1 X-15.759 Y15.258 A7.18816
G1 X-15.718 Y14.761 A7.20283
G1 X-15.641 Y14.279 A7.21716
G1 X-15.510 Y13.739 A7.23348
G1 X-15.345 Y13.221 A7.24946
G1 X-15.100 Y12.601 A7.26907
G1 X-14.824 Y12.009 A7.28827
G1 X-14.417 Y11.252 A7.31353
G1 X-13.979 Y10.526 A7.33843
G1 X-13.114 Y9.243 A7.38389
G1 X-13.114 Y-23.054 A8.33305
G1 X-13.350 Y-23.350 F15000.000
G1 A7.31276 F4800.000 ; pressure advance
G92 A8.33305 ; restore E
G1 X13.350 Y-23.350 A9.11770 F1350.000
G1 X13.350 Y9.176 A10.07358
G1 X14.138 Y10.336 A10.11478
G1 X14.654 Y11.191 A10.14412
G1 X15.012 Y11.859 A10.16641
G1 X15.336 Y12.552 A10.18887
G1 X15.557 Y13.113 A10.20660
G1 X15.745 Y13.705 A10.22486
G1 X15.869 Y14.219 A10.24038
G1 X15.955 Y14.750 A10.25620
G1 X15.994 Y15.242 A10.27069
G1 X15.995 Y15.752 A10.28568
G1 X15.952 Y16.270 A10.30096
G1 X15.872 Y16.767 A10.31577
G1 X15.737 Y17.324 A10.33259
G1 X15.567 Y17.858 A10.34907
G1 X15.316 Y18.494 A10.36917
G1 X15.034 Y19.097 A10.38873
G1 X14.620 Y19.867 A10.41442
G1 X14.178 Y20.601 A10.43960
G1 X13.350 Y21.823 A10.48299
G1 X13.350 Y23.350 A10.52785
G1 X-13.350 Y23.350 A11.31251
G1 X-13.350 Y21.809 A11.35778
G1 X-13.585 Y21.495 A11.36931
G1 X-14.138 Y20.663 A11.39868
G1 X-14.654 Y19.809 A11.42800
G1 X-15.011 Y19.143 A11.45022
G1 X-15.336 Y18.448 A11.47274
G1 X-15.558 Y17.884 A11.49056
G1 X-15.745 Y17.295 A11.50873
G1 X-15.868 Y16.783 A11.52419
G1 X-15.955 Y16.250 A11.54007
G1 X-15.994 Y15.756 A11.55464
G1 X-15.995 Y15.248 A11.56955
G1 X-15.952 Y14.732 A11.58478
G1 X-15.872 Y14.233 A11.59965
G1 X-15.737 Y13.676 A11.61648
G1 X-15.567 Y13.142 A11.63294
G1 X-15.317 Y12.507 A11.65299
G1 X-15.034 Y11.903 A11.67260
G1 X-14.622 Y11.135 A11.69823
G1 X-14.178 Y10.399 A11.72347
G1 X-13.350 Y9.171 A11.76700
G1 X-13.350 Y-23.290 A12.72096
G1 X-13.004 Y-23.150 F15000.000
G1 X-6.820 Y-22.984 F15000.000
G1 A13.74208 F4800.000 ; pressure advance
G92 A12.72096 ; restore E
G1 X12.984 Y-3.180 A13.54419 F1800.000
G1 X12.984 Y-2.847 A13.55399
G1 X-7.153 Y-22.984 A14.39108
G1 X-7.486 Y-22.984 A14.40087
G1 X12.984 Y-2.514 A15.25182
G1 X12.984 Y-2.180 A15.26161
G1 X-7.820 Y-22.984 A16.12641
G1 X-8.153 Y-22.984 A16.13621
G1 X12.984 Y-1.847 A17.01486
G1 X12.984 Y-1.514 A17.02466
G1 X-8.486 Y-22.984 A17.91716
G1 X-8.819 Y-22.984 A17.92696
G1 X12.984 Y-1.181 A18.83332
G1 X12.984 Y-0.847 A18.84312
G1 X-9.153 Y-22.984 A19.76334
G1 X-9.486 Y-22.984 A19.77313
G1 X12.984 Y-0.514 A20.70720
G1 X12.984 Y-0.181 A20.71700
G1 X-9.819 Y-22.984 A21.66492
G1 X-10.153 Y-22.984 A21.67472
G1 X12.984 Y0.153 A22.63650
G1 X12.984 Y0.486 A22.64630
G1 X-10.486 Y-22.984 A23.62193
G1 X-10.819 Y-22.984 A23.63173
G1 X12.984 Y0.819 A24.62122
G1 X12.984 Y1.152 A24.63101
G1 X-11.152 Y-22.984 A25.63436
G1 X-11.486 Y-22.984 A25.64415
G1 X12.984 Y1.486 A26.66135
G1 X12.984 Y1.819 A26.67115
G1 X-11.819 Y-22.984 A27.70220
G1 X-12.152 Y-22.984 A27.71200
G1 X12.984 Y2.152 A28.75690
G1 X12.984 Y2.486 A28.76670
G1 X-12.486 Y-22.984 A29.82546
G1 X-12.819 Y-22.984 A29.83526
G1 X12.984 Y2.819 A30.90787
G1 X12.984 Y3.152 A30.91767
G1 X-12.984 Y-22.816 A31.99715
G1 X-12.984 Y-22.483 A32.00695
G1 X12.984 Y3.486 A33.08643
G1 X12.984 Y3.819 A33.09623
G1 X-12.984 Y-22.149 A34.17571
G1 X-12.984 Y-21.816 A34.18550
G1 X12.984 Y4.152 A35.26499
G1 X12.984 Y4.485 A35.27478
G1 X-12.984 Y-21.483 A36.35426
G1 X-12.984 Y-21.150 A36.36406
G1 X12.984 Y4.819 A37.44354
G1 X12.984 Y5.152 A37.45334
G1 X-12.984 Y-20.816 A38.53282
G1 X-12.984 Y-20.483 A38.54262
G1 X12.984 Y5.485 A39.62210
G1 X12.984 Y5.819 A39.63190
G1 X-12.984 Y-20.150 A40.71138
G1 X-12.984 Y-19.816 A40.72118
G1 X12.984 Y6.152 A41.80066
G1 X12.984 Y6.485 A41.81045
G1 X-12.984 Y-19.483 A42.88994
G1 X-12.984 Y-19.150 A42.89973
G1 X12.984 Y6.818 A43.97921
G1 X12.984 Y7.152 A43.98901
G1 X-12.984 Y-18.817 A45.06849
G1 X-12.984 Y-18.483 A45.07829
G1 X12.984 Y7.485 A46.15777
G1 X12.984 Y7.818 A46.16757
G1 X-12.984 Y-18.150 A47.24705
G1 X-12.984 Y-17.817 A47.25685
G1 X12.984 Y8.152 A48.33633
G1 X12.984 Y8.485 A48.34612
G1 X-12.984 Y-17.483 A49.42561
G1 X-12.984 Y-17.150 A49.43540
G1 X12.984 Y8.818 A50.51489
G1 X12.984 Y9.151 A50.52468
G1 X-12.984 Y-16.817 A51.60416
G1 X-12.984 Y-16.484 A51.61396
G1 X13.260 Y9.761 A52.70492
G1 X12.231 Y9.731 F15000.000
G1 X14.774 Y12.274 A52.81065 F1800.000
G1 X15.050 Y12.883 F15000.000
G1 X12.235 Y10.068 A52.92768 F1800.000
G1 X12.197 Y10.364 A52.93644
G1 X15.252 Y13.419 A53.06343
G1 X15.403 Y13.904 A53.07836
G1 X12.132 Y10.632 A53.21435
G1 X12.045 Y10.879 A53.22203
G1 X15.509 Y14.342 A53.36602
G1 X15.574 Y14.741 A53.37788
G1 X11.928 Y11.095 A53.52944
G1 X11.798 Y11.298 A53.53654
G1 X15.613 Y15.113 A53.69511
G1 X15.629 Y15.462 A53.70539
G1 X11.649 Y11.483 A53.87081
G1 X11.480 Y11.647 A53.87774
G1 X15.628 Y15.795 A54.05016
G1 X15.603 Y16.103 A54.05924
G1 X11.301 Y11.801 A54.23805
G1 X11.095 Y11.928 A54.24517
G1 X15.568 Y16.401 A54.43110
G1 X15.521 Y16.688 A54.43965
G1 X10.874 Y12.041 A54.63282
G1 X10.637 Y12.136 A54.64035
G1 X15.460 Y16.959 A54.84084
G1 X15.395 Y17.228 A54.84895
G1 X10.365 Y12.198 A55.05804
G1 X10.065 Y12.232 A55.06690
G1 X15.316 Y17.483 A55.28516
G1 X15.236 Y17.735 A55.29296
G1 X9.725 Y12.225 A55.52204
G1 X9.311 Y12.144 A55.53445
G1 X15.143 Y17.976 A55.77690
G1 X15.049 Y18.215 A55.78445
G1 X8.703 Y11.870 A56.04822
G1 X8.145 Y11.311 F15000.000
G1 X-11.297 Y-8.130 A56.85638 F1800.000
G1 X-10.689 Y-7.856 F15000.000
G1 X7.855 Y10.688 A57.62728 F1800.000
G1 X7.776 Y10.276 A57.63962
G1 X-10.275 Y-7.776 A58.39000
G1 X-9.935 Y-7.768 A58.40002
G1 X7.767 Y9.933 A59.13586
G1 X7.798 Y9.631 A59.14479
G1 X-9.635 Y-7.802 A59.86949
G1 X-9.363 Y-7.864 A59.87768
G1 X7.867 Y9.367 A60.59394
G1 X7.960 Y9.127 A60.60151
G1 X-9.126 Y-7.959 A61.31176
G1 X-8.905 Y-8.072 A61.31904
G1 X8.068 Y8.902 A62.02462
G1 X8.203 Y8.703 A62.03167
G1 X-8.699 Y-8.199 A62.73427
G1 X-8.520 Y-8.353 A62.74121
G1 X8.352 Y8.519 A63.44259
G1 X8.516 Y8.349 A63.44952
G1 X-8.351 Y-8.518 A64.15065
G1 X-8.202 Y-8.702 A64.15761
G1 X8.704 Y8.204 A64.86038
G1 X8.903 Y8.070 A64.86743
G1 X-8.073 Y-8.907 A65.57313
G1 X-7.955 Y-9.121 A65.58034
G1 X9.124 Y7.958 A66.29032
G1 X9.369 Y7.869 A66.29796
G1 X-7.868 Y-9.368 A67.01448
G1 X-7.803 Y-9.636 A67.02260
G1 X9.633 Y7.800 A67.74740
G1 X9.928 Y7.762 A67.75616
G1 X-7.765 Y-9.932 A68.49167
G1 X-7.770 Y-10.269 A68.50160
G1 X10.272 Y7.773 A69.25158
G1 X10.682 Y7.849 A69.26383
G1 X-7.851 Y-10.684 A70.03422
G1 X-8.128 Y-11.294 F15000.000
G1 X11.307 Y8.141 A70.84213 F1800.000
G1 X11.872 Y8.706 F15000.000
G1 X13.930 Y10.764 A70.92766 F1800.000
G1 X14.414 Y11.581 F15000.000
G1 X12.149 Y9.316 A71.02182 F1800.000
G1 X14.951 Y18.450 F15000.000
G1 X-12.984 Y-9.485 A72.18305 F1800.000
G1 X-12.984 Y-9.151 A72.19285
G1 X14.845 Y18.678 A73.34967
G1 X14.739 Y18.905 A73.35704
G1 X-12.984 Y-8.818 A74.50946
G1 X-12.984 Y-8.485 A74.51925
G1 X14.625 Y19.124 A75.66693
G1 X14.508 Y19.341 A75.67416
G1 X-12.984 Y-8.151 A76.81700
G1 X-12.984 Y-7.818 A76.82679
G1 X14.392 Y19.558 A77.96478
G1 X14.272 Y19.772 A77.97198
G1 X-12.984 Y-7.485 A79.10502
G1 X-12.984 Y-7.152 A79.11482
G1 X14.147 Y19.980 A80.24264
G1 X14.022 Y20.187 A80.24977
G1 X-12.984 Y-6.818 A81.37238
G1 X-12.984 Y-6.485 A81.38218
G1 X13.896 Y20.395 A82.49957
G1 X13.763 Y20.595 A82.50664
G1 X-12.984 Y-6.152 A83.61850
G1 X-12.984 Y-5.818 A83.62829
G1 X13.628 Y20.794 A84.73456
G1 X13.494 Y20.993 A84.74161
G1 X-12.984 Y-5.485 A85.84228
G1 X-12.984 Y-5.152 A85.85208
G1 X13.359 Y21.192 A86.94716
G1 X13.225 Y21.390 A86.95421
G1 X-12.984 Y-4.819 A88.04370
G1 X-12.984 Y-4.485 A88.05349
G1 X13.090 Y21.589 A89.13738
G1 X12.984 Y21.816 A89.14475
G1 X-12.984 Y-4.152 A90.22424
G1 X-12.984 Y-3.819 A90.23403
G1 X12.984 Y22.150 A91.31351
G1 X12.984 Y22.483 A91.32331
G1 X-12.984 Y-3.485 A92.40279
G1 X-12.984 Y-3.152 A92.41259
G1 X12.984 Y22.816 A93.49207
G1 X12.819 Y22.984 A93.49900
G1 X-12.984 Y-2.819 A94.57161
G1 X-12.984 Y-2.486 A94.58140
G1 X12.486 Y22.984 A95.64016
G1 X12.152 Y22.984 A95.64996
G1 X-12.984 Y-2.152 A96.69486
G1 X-12.984 Y-1.819 A96.70465
G1 X11.819 Y22.984 A97.73570
G1 X11.486 Y22.984 A97.74550
G1 X-12.984 Y-1.486 A98.76269
G1 X-12.984 Y-1.152 A98.77249
G1 X11.152 Y22.984 A99.77582
G1 X10.819 Y22.984 A99.78562
G1 X-12.984 Y-0.819 A100.77510
G1 X-12.984 Y-0.486 A100.78490
G1 X10.486 Y22.984 A101.76053
G1 X10.152 Y22.984 A101.77032
G1 X-12.984 Y-0.153 A102.73210
G1 X-12.984 Y0.181 A102.74189
G1 X9.819 Y22.984 A103.68981
G1 X9.486 Y22.984 A103.69961
G1 X-12.984 Y0.514 A104.63367
G1 X-12.984 Y0.847 A104.64347
G1 X9.153 Y22.984 A105.56368
G1 X8.819 Y22.984 A105.57348
G1 X-12.984 Y1.181 A106.47983
G1 X-12.984 Y1.514 A106.48963
G1 X8.486 Y22.984 A107.38213
G1 X8.153 Y22.984 A107.39193
G1 X-12.984 Y1.847 A108.27057
G1 X-12.984 Y2.181 A108.28037
G1 X7.819 Y22.984 A109.14516
G1 X7.486 Y22.984 A109.15496
G1 X-12.984 Y2.514 A110.00590
G1 X-12.984 Y2.847 A110.01569
G1 X7.153 Y22.984 A110.85278
G1 X6.820 Y22.984 A110.86257
G1 X-12.984 Y3.180 A111.68580
G1 X-12.984 Y3.514 A111.69560
G1 X6.486 Y22.984 A112.50497
G1 X6.153 Y22.984 A112.51477
G1 X-8.131 Y8.700 A113.10857
G1 X-7.852 Y9.312 F15000.000
G1 X5.820 Y22.984 A113.67690 F1800.000
G1 X5.486 Y22.984 A113.68670
G1 X-7.770 Y9.728 A114.23777
G1 X-7.765 Y10.065 A114.24770
G1 X5.153 Y22.984 A114.78472
G1 X4.820 Y22.984 A114.79452
G1 X-7.803 Y10.362 A115.31922
G1 X-7.867 Y10.630 A115.32734
G1 X4.487 Y22.984 A115.84088
G1 X4.153 Y22.984 A115.85068
G1 X-7.954 Y10.877 A116.35398
G1 X-8.071 Y11.093 A116.36121
G1 X3.820 Y22.984 A116.85553
G1 X3.487 Y22.984 A116.86532
G1 X-8.201 Y11.297 A117.35117
G1 X-8.350 Y11.481 A117.35813
G1 X3.153 Y22.984 A117.83631
G1 X2.820 Y22.984 A117.84611
G1 X-8.518 Y11.646 A118.31744
G1 X-8.697 Y11.800 A118.32439
G1 X2.487 Y22.984 A118.78930
G1 X2.154 Y22.984 A118.79910
G1 X-8.903 Y11.927 A119.25873
G1 X-9.124 Y12.040 A119.26601
G1 X1.820 Y22.984 A119.72094
G1 X1.487 Y22.984 A119.73074
G1 X-9.361 Y12.136 A120.18170
G1 X-9.633 Y12.197 A120.18989
G1 X1.154 Y22.984 A120.63829
G1 X0.820 Y22.984 A120.64809
G1 X-9.932 Y12.232 A121.09505
G1 X-10.272 Y12.225 A121.10505
G1 X0.487 Y22.984 A121.55230
G1 X0.154 Y22.984 A121.56210
G1 X-10.685 Y12.145 A122.01268
G1 X-11.286 Y11.878 F15000.000
G1 X-0.179 Y22.984 A122.47436 F1800.000
G1 X-0.513 Y22.984 A122.48416
G1 X-13.493 Y10.004 A123.02375
G1 X-13.359 Y9.804 A123.03081
G1 X-11.861 Y11.302 A123.09307
G1 X-12.146 Y10.685 F15000.000
G1 X-13.225 Y9.605 A123.13792 F1800.000
G1 X-13.091 Y9.406 A123.14498
G1 X-12.224 Y10.273 A123.18101
G1 X-12.233 Y9.931 A123.19107
G1 X-12.984 Y9.180 A123.22230
G1 X-12.984 Y8.846 A123.23209
G1 X-12.201 Y9.629 A123.26463
G1 X-12.132 Y9.365 A123.27266
G1 X-12.984 Y8.513 A123.30807
G1 X-12.984 Y8.180 A123.31786
G1 X-12.039 Y9.125 A123.35715
G1 X-11.930 Y8.900 A123.36448
G1 X-12.984 Y7.846 A123.40828
G1 X-12.984 Y7.513 A123.41808
G1 X-11.796 Y8.701 A123.46747
G1 X-11.646 Y8.518 A123.47443
G1 X-12.984 Y7.180 A123.53005
G1 X-12.984 Y6.847 A123.53985
G1 X-11.483 Y8.348 A123.60225
G1 X-11.295 Y8.203 A123.60923
G1 X-12.984 Y6.513 A123.67946
G1 X-12.984 Y6.180 A123.68926
G1 X-11.095 Y8.069 A123.76778
G1 X-10.874 Y7.957 A123.77507
G1 X-12.984 Y5.847 A123.86280
G1 X-12.984 Y5.513 A123.87259
G1 X-10.629 Y7.868 A123.97049
G1 X-10.365 Y7.800 A123.97853
G1 X-12.984 Y5.180 A124.08742
G1 X-12.984 Y4.847 A124.09722
G1 X-10.069 Y7.762 A124.21839
G1 X-9.725 Y7.773 A124.22852
G1 X-12.984 Y4.514 A124.36400
G1 X-12.984 Y4.180 A124.37380
G1 X-9.315 Y7.850 A124.52634
G1 X-8.686 Y8.145 F15000.000
G1 X-12.984 Y3.847 A124.70502 F1800.000
G1 F12000
G1 A122.37226 F4800.000 ; pressure discharge
G92 A124.70502 ; restore E
G1 X-8.686 Y8.145 A122.39501
G1 A122.20502 F4800.00000
G92 A0
G1 Z0.400 F15000.000
G1 X-13.627 Y10.203 F15000.000
G1 Z0.300 F15000.000
G1 A4.00000 F4800.00000
G1 X-0.846 Y22.984 A4.53132 F1800.000
G1 X-1.179 Y22.984 A4.54111
G1 X-13.762 Y10.402 A5.06415
G1 X-13.895 Y10.602 A5.07122
G1 X-1.513 Y22.984 A5.58593
G1 X-1.846 Y22.984 A5.59573
G1 X-14.020 Y10.810 A6.10180
G1 X-14.145 Y11.018 A6.10894
G1 X-2.179 Y22.984 A6.60637
G1 X-2.512 Y22.984 A6.61616
G1 X-14.271 Y11.226 A7.10495
G1 X-14.390 Y11.440 A7.11215
G1 X-2.846 Y22.984 A7.59205
G1 X-3.179 Y22.984 A7.60185
G1 X-14.507 Y11.656 A8.07273
G1 X-14.623 Y11.873 A8.07996
G1 X-3.512 Y22.984 A8.54184
G1 X-3.846 Y22.984 A8.55163
G1 X-14.737 Y12.092 A9.00439
G1 X-14.843 Y12.320 A9.01176
G1 X-4.179 Y22.984 A9.45508
G1 X-4.512 Y22.984 A9.46488
G1 X-14.949 Y12.547 A9.89875
G1 X-15.048 Y12.782 A9.90624
G1 X-4.845 Y22.984 A10.33034
G1 X-5.179 Y22.984 A10.34013
G1 X-15.142 Y13.021 A10.75430
G1 X-15.235 Y13.261 A10.76188
G1 X-5.512 Y22.984 A11.16604
G1 X-5.845 Y22.984 A11.17584
G1 X-15.315 Y13.514 A11.56950
G1 X-15.394 Y13.769 A11.57733
G1 X-6.179 Y22.984 A11.96040
G1 X-6.512 Y22.984 A11.97020
G1 X-15.459 Y14.037 A12.34211
G1 X-15.521 Y14.308 A12.35029
G1 X-6.845 Y22.984 A12.71093
G1 X-7.178 Y22.984 A12.72073
G1 X-15.567 Y14.596 A13.06943
G1 X-15.602 Y14.893 A13.07825
G1 X-7.512 Y22.984 A13.41458
G1 X-7.845 Y22.984 A13.42437
G1 X-15.628 Y15.201 A13.74789
G1 X-15.629 Y15.534 A13.75766
G1 X-8.178 Y22.984 A14.06737
G1 X-8.512 Y22.984 A14.07717
G1 X-15.613 Y15.883 A14.37237
G1 X-15.575 Y16.254 A14.38335
G1 X-8.845 Y22.984 A14.66310
G1 X-9.178 Y22.984 A14.67290
G1 X-15.510 Y16.652 A14.93613
G1 X-15.405 Y17.091 A14.94939
G1 X-9.511 Y22.984 A15.19438
G1 X-9.845 Y22.984 A15.20417
G1 X-15.254 Y17.575 A15.42903
G1 X-15.052 Y18.110 F15000.000
G1 X-10.178 Y22.984 A15.63166 F1800.000
G1 X-10.511 Y22.984 A15.64146
G1 X-14.778 Y18.718 A15.81881
G1 X-14.419 Y19.410 F15000.000
G1 X-10.845 Y22.984 A15.96740 F1800.000
G1 X-11.178 Y22.984 A15.97720
G1 X-13.936 Y20.226 A16.09186
G1 X-13.304 Y21.191 F15000.000
G1 X-11.511 Y22.984 A16.16639 F1800.000
G1 X-11.844 Y22.984 A16.17619
G1 X-12.984 Y21.844 A16.22356
G1 X-12.984 Y22.178 A16.23336
G1 X-12.178 Y22.984 A16.26688
G1 X-12.511 Y22.984 A16.27668
G1 X-12.984 Y22.511 A16.29635
G1 X-12.984 Y22.844 A16.30614
G1 X-12.844 Y22.984 A16.31196
G1 X-11.855 Y-8.689 F15000.000
G1 X-12.984 Y-9.818 A16.35888 F1800.000
G1 X-12.984 Y-10.151 A16.36868
G1 X-12.145 Y-9.312 A16.40357
G1 X-12.224 Y-9.724 A16.41592
G1 X-12.984 Y-10.484 A16.44753
G1 X-12.984 Y-10.818 A16.45732
G1 X-12.233 Y-10.066 A16.48857
G1 X-12.202 Y-10.369 A16.49751
G1 X-12.984 Y-11.151 A16.53002
G1 X-12.984 Y-11.484 A16.53982
G1 X-12.133 Y-10.633 A16.57520
G1 X-12.040 Y-10.873 A16.58277
G1 X-12.984 Y-11.818 A16.62202
G1 X-12.984 Y-12.151 A16.63182
G1 X-11.932 Y-11.098 A16.67558
G1 X-11.797 Y-11.297 A16.68263
G1 X-12.984 Y-12.484 A16.73197
G1 X-12.984 Y-12.817 A16.74177
G1 X-11.647 Y-11.481 A16.79733
G1 X-11.484 Y-11.651 A16.80426
G1 X-12.984 Y-13.151 A16.86661
G1 X-12.984 Y-13.484 A16.87640
G1 X-11.296 Y-11.796 A16.94657
G1 X-11.097 Y-11.930 A16.95363
G1 X-12.984 Y-13.817 A17.03207
G1 X-12.984 Y-14.151 A17.04186
G1 X-10.876 Y-12.042 A17.12951
G1 X-10.630 Y-12.130 A17.13717
G1 X-12.984 Y-14.484 A17.23502
G1 X-12.984 Y-14.817 A17.24482
G1 X-10.367 Y-12.200 A17.35361
G1 X-10.071 Y-12.238 A17.36237
G1 X-12.984 Y-15.150 A17.48344
G1 X-12.984 Y-15.484 A17.49324
G1 X-9.728 Y-12.227 A17.62861
G1 X-9.318 Y-12.151 A17.64085
G1 X-12.984 Y-15.817 A17.79325
G1 X-12.984 Y-16.150 A17.80305
G1 X-8.693 Y-11.859 A17.98144
G1 X0.179 Y-22.984 F15000.000
G1 X11.300 Y-11.863 A18.44372 F1800.000
G1 X10.678 Y-12.152 F15000.000
G1 X-0.154 Y-22.984 A18.89401 F1800.000
G1 X-0.487 Y-22.984 A18.90381
G1 X10.269 Y-12.227 A19.35096
G1 X9.926 Y-12.237 A19.36105
G1 X-0.821 Y-22.984 A19.80778
G1 X-1.154 Y-22.984 A19.81758
G1 X9.631 Y-12.200 A20.26588
G1 X9.368 Y-12.129 A20.27389
G1 X-1.487 Y-22.984 A20.72511
G1 X-1.820 Y-22.984 A20.73491
G1 X9.123 Y-12.041 A21.18980
G1 X8.901 Y-11.929 A21.19710
G1 X-2.154 Y-22.984 A21.65664
G1 X-2.487 Y-22.984 A21.66643
G1 X8.702 Y-11.795 A22.13156
G1 X8.514 Y-11.650 A22.13855
G1 X-2.820 Y-22.984 A22.60972
G1 X-3.154 Y-22.984 A22.61952
G1 X8.351 Y-11.479 A23.09776
G1 X8.202 Y-11.295 A23.10473
G1 X-3.487 Y-22.984 A23.59062
G1 X-3.820 Y-22.984 A23.60041
G1 X8.067 Y-11.097 A24.09457
G1 X7.959 Y-10.871 A24.10191
G1 X-4.153 Y-22.984 A24.60543
G1 X-4.487 Y-22.984 A24.61523
G1 X7.866 Y-10.631 A25.12874
G1 X7.798 Y-10.366 A25.13677
G1 X-4.820 Y-22.984 A25.66128
G1 X-5.153 Y-22.984 A25.67108
G1 X7.767 Y-10.064 A26.20816
G1 X7.777 Y-9.721 A26.21825
G1 X-5.487 Y-22.984 A26.76959
G1 X-5.820 Y-22.984 A26.77938
G1 X7.856 Y-9.308 A27.34790
G1 X8.151 Y-8.680 F15000.000
G1 X-6.153 Y-22.984 A27.94250 F1800.000
G1 X-6.486 Y-22.984 A27.95229
G1 X12.984 Y-3.514 A28.76167
G1 X12.984 Y-3.847 A28.77147
G1 X8.692 Y-8.138 A28.94987
G1 X9.307 Y-7.858 F15000.000
G1 X12.984 Y-4.180 A29.10274 F1800.000
G1 X12.984 Y-4.513 A29.11254
G1 X9.722 Y-7.776 A29.24816
G1 X10.063 Y-7.768 A29.25819
G1 X12.984 Y-4.847 A29.37963
G1 X12.984 Y-5.180 A29.38943
G1 X10.362 Y-7.802 A29.49842
G1 X10.635 Y-7.863 A29.50662
G1 X12.984 Y-5.513 A29.60429
G1 X12.984 Y-5.847 A29.61408
G1 X10.872 Y-7.958 A29.70187
G1 X11.093 Y-8.071 A29.70916
G1 X12.984 Y-6.180 A29.78776
G1 X12.984 Y-6.513 A29.79756
G1 X11.299 Y-8.198 A29.86759
G1 X11.479 Y-8.352 A29.87454
G1 X12.984 Y-6.846 A29.93712
G1 X12.984 Y-7.180 A29.94692
G1 X11.648 Y-8.516 A30.00247
G1 X11.797 Y-8.700 A30.00943
G1 X12.984 Y-7.513 A30.05879
G1 X12.984 Y-7.846 A30.06859
G1 X11.926 Y-8.905 A30.11259
G1 X12.044 Y-9.119 A30.11980
G1 X12.984 Y-8.180 A30.15887
G1 X12.984 Y-8.513 A30.16866
G1 X12.131 Y-9.366 A30.20412
G1 X12.197 Y-9.634 A30.21222
G1 X12.984 Y-8.846 A30.24496
G1 X12.984 Y-9.179 A30.25475
G1 X12.235 Y-9.929 A30.28591
G1 X12.231 Y-10.266 A30.29581
G1 X12.984 Y-9.513 A30.32712
G1 X12.984 Y-9.846 A30.33691
G1 X12.151 Y-10.679 A30.37156
G1 X11.875 Y-11.288 F15000.000
G1 X12.984 Y-10.179 A30.41764 F1800.000
G1 X12.984 Y-10.513 A30.42744
G1 X0.513 Y-22.984 A30.94587
G1 X0.846 Y-22.984 A30.95567
G1 X12.984 Y-10.846 A31.46025
G1 X12.984 Y-11.179 A31.47005
G1 X1.179 Y-22.984 A31.96078
G1 X1.512 Y-22.984 A31.97057
G1 X12.984 Y-11.512 A32.44744
G1 X12.984 Y-11.846 A32.45724
G1 X1.846 Y-22.984 A32.92026
G1 X2.179 Y-22.984 A32.93005
G1 X12.984 Y-12.179 A33.37922
G1 X12.984 Y-12.512 A33.38901
G1 X2.512 Y-22.984 A33.82432
G1 X2.846 Y-22.984 A33.83412
G1 X12.984 Y-12.846 A34.25557
G1 X12.984 Y-13.179 A34.26537
G1 X3.179 Y-22.984 A34.67297
G1 X3.512 Y-22.984 A34.68276
G1 X12.984 Y-13.512 A35.07651
G1 X12.984 Y-13.845 A35.08631
G1 X3.845 Y-22.984 A35.46620
G1 X4.179 Y-22.984 A35.47599
G1 X12.984 Y-14.179 A35.84203
G1 X12.984 Y-14.512 A35.85182
G1 X4.512 Y-22.984 A36.20401
G1 X4.845 Y-22.984 A36.21380
G1 X12.984 Y-14.845 A36.55213
G1 X12.984 Y-15.179 A36.56192
G1 X5.179 Y-22.984 A36.88640
G1 X5.512 Y-22.984 A36.89619
G1 X12.984 Y-15.512 A37.20681
G1 X12.984 Y-15.845 A37.21661
G1 X5.845 Y-22.984 A37.51337
G1 X6.178 Y-22.984 A37.52317
G1 X12.984 Y-16.178 A37.80608
G1 X12.984 Y-16.512 A37.81587
G1 X6.512 Y-22.984 A38.08493
G1 X6.845 Y-22.984 A38.09472
G1 X12.984 Y-16.845 A38.34992
G1 X12.984 Y-17.178 A38.35972
G1 X7.178 Y-22.984 A38.60106
G1 X7.512 Y-22.984 A38.61086
G1 X12.984 Y-17.512 A38.83835
G1 X12.984 Y-17.845 A38.84815
G1 X7.845 Y-22.984 A39.06178
G1 X8.178 Y-22.984 A39.07158
G1 X12.984 Y-18.178 A39.27136
G1 X12.984 Y-18.511 A39.28116
G1 X8.511 Y-22.984 A39.46709
G1 X8.845 Y-22.984 A39.47688
G1 X12.984 Y-18.845 A39.64895
G1 X12.984 Y-19.178 A39.65875
G1 X9.178 Y-22.984 A39.81697
G1 X9.511 Y-22.984 A39.82677
G1 X12.984 Y-19.511 A39.97113
G1 X12.984 Y-19.845 A39.98093
G1 X9.845 Y-22.984 A40.11143
G1 X10.178 Y-22.984 A40.12123
G1 X12.984 Y-20.178 A40.23789
G1 X12.984 Y-20.511 A40.24768
G1 X10.511 Y-22.984 A40.35048
G1 X10.844 Y-22.984 A40.36028
G1 X12.984 Y-20.844 A40.44922
G1 X12.984 Y-21.178 A40.45902
G1 X11.178 Y-22.984 A40.53411
G1 X11.511 Y-22.984 A40.54391
G1 X12.984 Y-21.511 A40.60514
G1 X12.984 Y-21.844 A40.61494
G1 X11.844 Y-22.984 A40.66232
G1 X12.178 Y-22.984 A40.67212
G1 X12.984 Y-22.178 A40.70565
G1 X12.984 Y-22.511 A40.71544
G1 X12.511 Y-22.984 A40.73512
G1 X12.844 Y-22.984 A40.74491
G1 X12.984 Y-22.844 A40.75073
M104 P200 ; set temperature
G1 Z0.600 F15000.000
G1 A38.25073 F4800.00000
G92 A0
G1 Z0.700 F15000.000
G1 X8.795 Y8.036 F15000.000
G1 Z0.600 F15000.000
G1 A4.00000 F4800.00000
G1 A20.61876 F4800.000 ; pressure advance
G92 A4.00000 ; restore E
G1 X9.144 Y7.861 A4.02042 F2700.000
G1 X9.517 Y7.747 A4.04082
G1 X9.894 Y7.699 A4.06064
G1 X10.295 Y7.715 A4.08161
G1 X10.678 Y7.798 A4.10209
G1 X11.040 Y7.944 A4.12251
G1 X11.373 Y8.149 A4.14293
G1 X11.666 Y8.408 A4.16335
G1 X11.911 Y8.712 A4.18375
G1 X12.096 Y9.043 A4.20357
G1 X12.231 Y9.421 A4.22453
G1 X12.296 Y9.805 A4.24487
G1 X12.296 Y10.198 A4.26542
G1 X12.229 Y10.584 A4.28586
G1 X12.098 Y10.952 A4.30628
G1 X11.907 Y11.293 A4.32667
G1 X11.669 Y11.588 A4.34650
G1 X11.369 Y11.854 A4.36747
G1 X11.034 Y12.059 A4.38795
G1 X10.671 Y12.204 A4.40837
G1 X10.289 Y12.286 A4.42879
G1 X9.899 Y12.302 A4.44921
G1 X9.511 Y12.252 A4.46963
G1 X9.138 Y12.137 A4.49005
G1 X8.789 Y11.961 A4.51044
G1 X8.484 Y11.735 A4.53027
G1 X8.206 Y11.446 A4.55124
G1 X7.987 Y11.121 A4.57172
G1 X7.826 Y10.764 A4.59214
G1 X7.728 Y10.386 A4.61256
G1 X7.696 Y9.997 A4.63298
G1 X7.729 Y9.608 A4.65337
G1 X7.825 Y9.240 A4.67320
G1 X7.989 Y8.874 A4.69416
G1 X8.209 Y8.550 A4.71465
G1 X8.480 Y8.268 A4.73507
G1 X8.746 Y8.072 A4.75235
G1 X8.993 Y8.359 F15000.000
G1 X9.285 Y8.212 A4.76602 F2700.000
G1 X9.597 Y8.117 A4.77969
G1 X9.910 Y8.077 A4.79292
G1 X10.247 Y8.090 A4.80702
G1 X10.567 Y8.160 A4.82071
G1 X10.869 Y8.282 A4.83438
G1 X11.147 Y8.453 A4.84806
G1 X11.392 Y8.670 A4.86173
G1 X11.597 Y8.924 A4.87539
G1 X11.751 Y9.200 A4.88862
G1 X11.864 Y9.517 A4.90272
G1 X11.919 Y9.837 A4.91630
G1 X11.919 Y10.166 A4.93008
G1 X11.863 Y10.488 A4.94376
G1 X11.754 Y10.796 A4.95743
G1 X11.594 Y11.081 A4.97109
G1 X11.395 Y11.326 A4.98433
G1 X11.143 Y11.550 A4.99842
G1 X10.864 Y11.721 A5.01211
G1 X10.561 Y11.842 A5.02579
G1 X10.242 Y11.910 A5.03946
G1 X9.915 Y11.924 A5.05313
G1 X9.592 Y11.882 A5.06680
G1 X9.279 Y11.786 A5.08048
G1 X8.988 Y11.638 A5.09414
G1 X8.734 Y11.450 A5.10737
G1 X8.500 Y11.208 A5.12147
G1 X8.317 Y10.937 A5.13516
G1 X8.183 Y10.639 A5.14884
G1 X8.102 Y10.323 A5.16251
G1 X8.074 Y9.997 A5.17618
G1 X8.102 Y9.672 A5.18985
G1 X8.182 Y9.366 A5.20308
G1 X8.320 Y9.059 A5.21717
G1 X8.504 Y8.788 A5.23087
G1 X8.730 Y8.553 A5.24454
G1 X8.944 Y8.394 A5.25570
G1 X8.993 Y8.032 F15000.000
G1 X-7.704 Y9.805 F15000.000
G1 X-7.704 Y10.198 A5.27625 F2700.000
G1 X-7.771 Y10.584 A5.29669
G1 X-7.902 Y10.952 A5.31711
G1 X-8.093 Y11.293 A5.33750
G1 X-8.331 Y11.588 A5.35733
G1 X-8.631 Y11.854 A5.37830
G1 X-8.966 Y12.059 A5.39878
G1 X-9.329 Y12.204 A5.41920
G1 X-9.711 Y12.286 A5.43962
G1 X-10.101 Y12.302 A5.46004
G1 X-10.489 Y12.252 A5.48046
G1 X-10.862 Y12.137 A5.50088
G1 X-11.211 Y11.961 A5.52127
G1 X-11.516 Y11.735 A5.54110
G1 X-11.794 Y11.446 A5.56207
G1 X-12.013 Y11.121 A5.58255
G1 X-12.174 Y10.764 A5.60297
G1 X-12.272 Y10.386 A5.62339
G1 X-12.304 Y9.997 A5.64381
G1 X-12.271 Y9.608 A5.66420
G1 X-12.175 Y9.240 A5.68403
G1 X-12.011 Y8.874 A5.70499
G1 X-11.791 Y8.550 A5.72548
G1 X-11.520 Y8.268 A5.74590
G1 X-11.205 Y8.036 A5.76632
G1 X-10.856 Y7.861 A5.78674
G1 X-10.483 Y7.747 A5.80713
G1 X-10.106 Y7.699 A5.82696
G1 X-9.705 Y7.715 A5.84792
G1 X-9.322 Y7.798 A5.86841
G1 X-8.960 Y7.944 A5.88883
G1 X-8.627 Y8.149 A5.90925
G1 X-8.334 Y8.408 A5.92967
G1 X-8.089 Y8.712 A5.95006
G1 X-7.904 Y9.043 A5.96989
G1 X-7.769 Y9.421 A5.99085
G1 X-7.714 Y9.746 A6.00805
G1 X-8.081 Y9.837 F15000.000
G1 X-8.081 Y10.166 A6.02183 F2700.000
G1 X-8.137 Y10.488 A6.03551
G1 X-8.246 Y10.796 A6.04918
G1 X-8.406 Y11.081 A6.06284
G1 X-8.605 Y11.326 A6.07607
G1 X-8.857 Y11.550 A6.09017
G1 X-9.136 Y11.721 A6.10386
G1 X-9.439 Y11.842 A6.11754
G1 X-9.758 Y11.910 A6.13121
G1 X-10.085 Y11.924 A6.14488
G1 X-10.408 Y11.882 A6.15855
G1 X-10.721 Y11.786 A6.17223
G1 X-11.012 Y11.638 A6.18589
G1 X-11.266 Y11.450 A6.19912
G1 X-11.500 Y11.208 A6.21322
G1 X-11.683 Y10.937 A6.22691
G1 X-11.817 Y10.639 A6.24058
G1 X-11.898 Y10.323 A6.25426
G1 X-11.926 Y9.997 A6.26793
G1 X-11.898 Y9.672 A6.28159
G1 X-11.818 Y9.366 A6.29483
G1 X-11.680 Y9.059 A6.30892
G1 X-11.496 Y8.788 A6.32261
G1 X-11.270 Y8.553 A6.33629
G1 X-11.007 Y8.359 A6.34996
G1 X-10.715 Y8.212 A6.36363
G1 X-10.403 Y8.117 A6.37730
G1 X-10.090 Y8.077 A6.39053
G1 X-9.753 Y8.090 A6.40463
G1 X-9.433 Y8.160 A6.41832
G1 X-9.131 Y8.282 A6.43199
G1 X-8.853 Y8.453 A6.44566
G1 X-8.608 Y8.670 A6.45933
G1 X-8.403 Y8.924 A6.47300
G1 X-8.249 Y9.200 A6.48623
G1 X-8.136 Y9.517 A6.50033
G1 X-8.091 Y9.778 A6.51140
G1 X-7.788 Y9.985 F15000.000
G1 X-9.707 Y-7.714 F15000.000
G1 X-10.098 Y-7.698 A6.53182 F2700.000
G1 X-10.485 Y-7.747 A6.55224
G1 X-10.859 Y-7.862 A6.57266
G1 X-11.208 Y-8.038 A6.59308
G1 X-11.522 Y-8.270 A6.61349
G1 X-11.793 Y-8.552 A6.63391
G1 X-12.012 Y-8.876 A6.65433
G1 X-12.173 Y-9.232 A6.67475
G1 X-12.271 Y-9.611 A6.69517
G1 X-12.305 Y-10.006 A6.71593
G1 X-12.259 Y-10.438 A6.73861
G1 X-12.173 Y-10.768 A6.75640
G1 X-12.012 Y-11.124 A6.77682
G1 X-11.793 Y-11.448 A6.79724
G1 X-11.522 Y-11.730 A6.81766
G1 X-11.208 Y-11.962 A6.83808
G1 X-10.853 Y-12.141 A6.85884
G1 X-10.436 Y-12.259 A6.88152
G1 X-10.101 Y-12.302 A6.89915
G1 X-9.728 Y-12.290 A6.91864
G1 X-9.325 Y-12.203 A6.94017
G1 X-8.963 Y-12.058 A6.96059
G1 X-8.630 Y-11.853 A6.98101
G1 X-8.336 Y-11.594 A7.00143
G1 X-8.091 Y-11.290 A7.02185
G1 X-7.900 Y-10.949 A7.04226
G1 X-7.770 Y-10.581 A7.06268
G1 X-7.704 Y-10.195 A7.08310
G1 X-7.704 Y-9.805 A7.10352
G1 X-7.770 Y-9.419 A7.12394
G1 X-7.902 Y-9.045 A7.14470
G1 X-8.122 Y-8.670 A7.16738
G1 X-8.336 Y-8.406 A7.18517
G1 X-8.630 Y-8.147 A7.20559
G1 X-8.963 Y-7.942 A7.22601
G1 X-9.325 Y-7.797 A7.24643
G1 X-9.649 Y-7.727 A7.26372
G1 X-9.755 Y-8.090 F15000.000
G1 X-10.082 Y-8.076 A7.27739 F2700.000
G1 X-10.406 Y-8.117 A7.29106
G1 X-10.718 Y-8.213 A7.30474
G1 X-11.010 Y-8.360 A7.31841
G1 X-11.272 Y-8.554 A7.33208
G1 X-11.498 Y-8.790 A7.34575
G1 X-11.681 Y-9.061 A7.35943
G1 X-11.816 Y-9.358 A7.37310
G1 X-11.898 Y-9.675 A7.38677
G1 X-11.926 Y-10.002 A7.40054
G1 X-11.886 Y-10.370 A7.41602
G1 X-11.816 Y-10.642 A7.42777
G1 X-11.681 Y-10.939 A7.44144
G1 X-11.498 Y-11.210 A7.45511
G1 X-11.272 Y-11.446 A7.46878
G1 X-11.010 Y-11.640 A7.48246
G1 X-10.716 Y-11.788 A7.49622
G1 X-10.360 Y-11.888 A7.51171
G1 X-10.083 Y-11.924 A7.52341
G1 X-9.774 Y-11.914 A7.53634
G1 X-9.436 Y-11.841 A7.55081
G1 X-9.133 Y-11.720 A7.56448
G1 X-8.855 Y-11.548 A7.57815
G1 X-8.610 Y-11.332 A7.59183
G1 X-8.405 Y-11.078 A7.60550
G1 X-8.245 Y-10.793 A7.61917
G1 X-8.136 Y-10.485 A7.63284
G1 X-8.081 Y-10.163 A7.64652
G1 X-8.081 Y-9.837 A7.66019
G1 X-8.136 Y-9.515 A7.67386
G1 X-8.246 Y-9.205 A7.68763
G1 X-8.433 Y-8.886 A7.70312
G1 X-8.610 Y-8.668 A7.71486
G1 X-8.855 Y-8.452 A7.72853
G1 X-9.133 Y-8.280 A7.74220
G1 X-9.436 Y-8.159 A7.75588
G1 X-9.697 Y-8.103 A7.76704
G1 X-9.890 Y-7.792 F15000.000
G1 X7.729 Y-9.611 F15000.000
G1 X7.696 Y-10.000 A7.78746 F2700.000
G1 X7.729 Y-10.389 A7.80788
G1 X7.827 Y-10.768 A7.82830
G1 X7.988 Y-11.124 A7.84872
G1 X8.207 Y-11.448 A7.86913
G1 X8.478 Y-11.730 A7.88955
G1 X8.792 Y-11.962 A7.90997
G1 X9.147 Y-12.141 A7.93073
G1 X9.564 Y-12.259 A7.95341
G1 X9.902 Y-12.302 A7.97121
G1 X10.293 Y-12.286 A7.99162
G1 X10.675 Y-12.203 A8.01204
G1 X11.037 Y-12.058 A8.03246
G1 X11.370 Y-11.853 A8.05288
G1 X11.664 Y-11.594 A8.07330
G1 X11.909 Y-11.290 A8.09372
G1 X12.100 Y-10.949 A8.11414
G1 X12.230 Y-10.581 A8.13456
G1 X12.296 Y-10.195 A8.15498
G1 X12.296 Y-9.805 A8.17540
G1 X12.230 Y-9.419 A8.19582
G1 X12.098 Y-9.045 A8.21658
G1 X11.878 Y-8.670 A8.23926
G1 X11.664 Y-8.406 A8.25705
G1 X11.370 Y-8.147 A8.27747
G1 X11.037 Y-7.942 A8.29789
G1 X10.675 Y-7.797 A8.31831
G1 X10.293 Y-7.714 A8.33873
G1 X9.902 Y-7.698 A8.35915
G1 X9.515 Y-7.747 A8.37957
G1 X9.141 Y-7.862 A8.39999
G1 X8.792 Y-8.038 A8.42041
G1 X8.478 Y-8.270 A8.44083
G1 X8.207 Y-8.552 A8.46125
G1 X7.988 Y-8.876 A8.48167
G1 X7.827 Y-9.232 A8.50209
G1 X7.744 Y-9.553 A8.51937
G1 X8.102 Y-9.675 F15000.000
G1 X8.074 Y-10.000 A8.53304 F2700.000
G1 X8.102 Y-10.325 A8.54672
G1 X8.184 Y-10.642 A8.56039
G1 X8.319 Y-10.939 A8.57406
G1 X8.502 Y-11.210 A8.58773
G1 X8.728 Y-11.446 A8.60141
G1 X8.990 Y-11.640 A8.61508
G1 X9.284 Y-11.788 A8.62885
G1 X9.640 Y-11.888 A8.64433
G1 X9.918 Y-11.924 A8.65607
G1 X10.245 Y-11.910 A8.66975
G1 X10.564 Y-11.841 A8.68342
G1 X10.867 Y-11.720 A8.69709
G1 X11.145 Y-11.548 A8.71077
G1 X11.390 Y-11.332 A8.72444
G1 X11.595 Y-11.078 A8.73811
G1 X11.755 Y-10.793 A8.75178
G1 X11.864 Y-10.485 A8.76546
G1 X11.919 Y-10.163 A8.77913
G1 X11.919 Y-9.837 A8.79280
G1 X11.864 Y-9.515 A8.80647
G1 X11.754 Y-9.205 A8.82024
G1 X11.567 Y-8.886 A8.83573
G1 X11.390 Y-8.668 A8.84747
G1 X11.145 Y-8.452 A8.86114
G1 X10.867 Y-8.280 A8.87481
G1 X10.564 Y-8.159 A8.88849
G1 X10.245 Y-8.090 A8.90216
G1 X9.918 Y-8.076 A8.91583
G1 X9.594 Y-8.117 A8.92950
G1 X9.282 Y-8.213 A8.94318
G1 X8.990 Y-8.360 A8.95685
G1 X8.728 Y-8.554 A8.97052
G1 X8.502 Y-8.790 A8.98420
G1 X8.319 Y-9.061 A8.99787
G1 X8.184 Y-9.358 A9.01154
G1 X8.117 Y-9.616 A9.02270
G1 X7.799 Y-9.796 F15000.000
G1 F12000
G1 A-7.59606 F4800.000 ; pressure discharge
G92 A9.02270 ; restore E
G1 X8.074 Y-10.000 A8.87606
G1 F12000
G1 X8.102 Y-10.325 A8.75194
G1 F12000
G1 X8.184 Y-10.642 A8.62783
G1 F12000
G1 X8.319 Y-10.939 A8.50371
G1 F12000
G1 X8.502 Y-11.210 A8.37959
G1 F12000
G1 X8.728 Y-11.446 A8.25547
G1 F12000
G1 X8.990 Y-11.640 A8.13136
G1 F12000
G1 X9.284 Y-11.788 A8.00639
G1 F12000
G1 X9.640 Y-11.888 A7.86580
G1 F12000
G1 X9.918 Y-11.924 A7.75921
G1 F12000
G1 X10.245 Y-11.910 A7.63509
G1 F12000
G1 X10.564 Y-11.841 A7.51097
G1 F12000
G1 X10.867 Y-11.720 A7.38686
G1 F12000
G1 X11.145 Y-11.548 A7.26274
G1 F12000
G1 X11.390 Y-11.332 A7.13862
G1 F12000
G1 X11.595 Y-11.078 A7.01450
G1 F12000
G1 X11.755 Y-10.793 A6.89038
G1 F12000
G1 X11.864 Y-10.485 A6.76627
G1 F12000
G1 X11.916 Y-10.178 A6.64770
G1 A6.52270 F4800.00000
G92 A0
G1 Z0.700 F15000.000
G1 X12.923 Y-22.923 F15000.000
G1 Z0.600 F15000.000
G1 A4.00000 F4800.00000
G1 A33.47770 F4800.000 ; pressure advance
G92 A4.00000 ; restore E
G1 X12.923 Y9.027 A5.66919 F3600.000
G1 X13.647 Y10.034 A5.73403
G1 X14.166 Y10.813 A5.78291
G1 X14.658 Y11.631 A5.83278
G1 X14.977 Y12.224 A5.86796
G1 X15.279 Y12.874 A5.90540
G1 X15.474 Y13.367 A5.93312
G1 X15.648 Y13.915 A5.96316
G1 X15.754 Y14.358 A5.98694
G1 X15.833 Y14.844 A6.01266
G1 X15.867 Y15.262 A6.03460
G1 X15.868 Y15.725 A6.05878
G1 X15.827 Y16.195 A6.08343
G1 X15.759 Y16.623 A6.10605
G1 X15.633 Y17.135 A6.13360
G1 X15.485 Y17.600 A6.15912
G1 X15.251 Y18.192 A6.19239
G1 X15.000 Y18.729 A6.22331
G1 X14.610 Y19.455 A6.26640
G1 X14.210 Y20.117 A6.30678
G1 X12.923 Y21.978 A6.42500
G1 X12.923 Y22.923 A6.47438
G1 X-12.923 Y22.923 A7.82468
G1 X-12.923 Y21.933 A7.87640
G1 X-13.650 Y20.961 A7.93982
G1 X-14.167 Y20.186 A7.98851
G1 X-14.646 Y19.390 A8.03703
G1 X-14.976 Y18.778 A8.07337
G1 X-15.279 Y18.126 A8.11090
G1 X-15.475 Y17.630 A8.13876
G1 X-15.648 Y17.085 A8.16866
G1 X-15.754 Y16.644 A8.19234
G1 X-15.833 Y16.156 A8.21815
G1 X-15.867 Y15.735 A8.24023
G1 X-15.868 Y15.275 A8.26427
G1 X-15.828 Y14.806 A8.28884
G1 X-15.759 Y14.377 A8.31155
G1 X-15.633 Y13.865 A8.33912
G1 X-15.485 Y13.400 A8.36462
G1 X-15.252 Y12.809 A8.39780
G1 X-15.000 Y12.271 A8.42881
G1 X-14.611 Y11.547 A8.47179
G1 X-14.209 Y10.881 A8.51240
G1 X-13.265 Y9.493 A8.60009
G1 X-12.923 Y9.037 A8.62989
G1 X-12.923 Y-22.923 A10.29964
G1 X12.863 Y-22.923 A11.64680
G1 X13.300 Y-23.300 F15000.000
G1 A-7.18578 F4800.000 ; pressure advance
G92 A11.64680 ; restore E
G1 X13.300 Y8.905 A12.99491 F2700.000
G1 X13.958 Y9.819 A13.04206
G1 X14.485 Y10.611 A13.08187
G1 X14.986 Y11.444 A13.12257
G1 X15.314 Y12.055 A13.15160
G1 X15.626 Y12.725 A13.18252
G1 X15.830 Y13.241 A13.20574
G1 X16.012 Y13.814 A13.23091
G1 X16.125 Y14.283 A13.25114
G1 X16.208 Y14.798 A13.27296
G1 X16.244 Y15.247 A13.29180
G1 X16.245 Y15.741 A13.31248
G1 X16.202 Y16.241 A13.33351
G1 X16.129 Y16.697 A13.35285
G1 X15.997 Y17.237 A13.37610
G1 X15.841 Y17.727 A13.39763
G1 X15.598 Y18.342 A13.42530
G1 X15.338 Y18.898 A13.45100
G1 X14.937 Y19.642 A13.48636
G1 X14.527 Y20.322 A13.51960
G1 X13.300 Y22.095 A13.60989
G1 X13.300 Y23.300 A13.66031
G1 X-13.300 Y23.300 A14.77380
G1 X-13.300 Y22.058 A14.82577
G1 X-13.959 Y21.179 A14.87176
G1 X-14.486 Y20.388 A14.91157
G1 X-14.974 Y19.577 A14.95118
G1 X-15.313 Y18.947 A14.98114
G1 X-15.626 Y18.275 A15.01215
G1 X-15.830 Y17.757 A15.03548
G1 X-16.012 Y17.186 A15.06054
G1 X-16.124 Y16.718 A15.08068
G1 X-16.208 Y16.202 A15.10259
G1 X-16.244 Y15.751 A15.12153
G1 X-16.245 Y15.259 A15.14210
G1 X-16.202 Y14.760 A15.16306
G1 X-16.129 Y14.303 A15.18247
G1 X-15.997 Y13.763 A15.20573
G1 X-15.841 Y13.273 A15.22726
G1 X-15.598 Y12.660 A15.25486
G1 X-15.338 Y12.102 A15.28063
G1 X-14.939 Y11.360 A15.31590
G1 X-14.527 Y10.678 A15.34925
G1 X-13.572 Y9.274 A15.42031
G1 X-13.300 Y8.911 A15.43929
G1 X-13.300 Y-23.300 A16.78767
G1 X13.240 Y-23.300 A17.89864
G1 X13.100 Y-22.954 F15000.000
G1 X12.049 Y-11.453 F15000.000
G1 A37.01799 F4800.000 ; pressure advance
G92 A17.89864 ; restore E
G1 X12.676 Y-12.080 A17.94519 F3600.000
G1 X12.676 Y-12.676 A17.97647
G1 X11.776 Y-11.776 A18.04328
G1 X11.456 Y-12.051 A18.06545
G1 X12.676 Y-13.271 A18.15606
G1 X12.676 Y-13.867 A18.18733
G1 X11.085 Y-12.276 A18.30546
G1 X10.657 Y-12.443 A18.32962
G1 X12.676 Y-14.462 A18.47957
G1 X12.676 Y-15.058 A18.51085
G1 X10.153 Y-12.535 A18.69818
G1 X9.540 Y-12.517 A18.73042
G1 X12.676 Y-15.653 A18.96333
G1 X12.676 Y-16.248 A18.99460
G1 X8.650 Y-12.223 A19.29358
G1 F12000
G1 A-10.47088 F4800.000 ; pressure discharge
G92 A19.29358 ; restore E
G1 X12.676 Y-16.248 A17.13030
G1 F12000
G1 X12.676 Y-15.691 A16.91858
G1 A16.79358 F4800.00000
G92 A0
G1 Z0.700 F15000.000
G1 X11.343 Y-7.770 F15000.000
G1 Z0.600 F15000.000
G1 A4.00000 F4800.00000
G1 X-7.780 Y11.353 A5.42031 F3600.000
G1 X-7.482 Y10.459 F15000.000
G1 X10.452 Y-7.475 A6.75229 F3600.000
G1 X9.848 Y-7.466 A6.78401
G1 X-7.461 Y9.843 A8.06957
G1 X-7.560 Y9.346 A8.09616
G1 X9.349 Y-7.563 A9.35202
G1 X8.921 Y-7.730 A9.37617
G1 X-7.728 Y8.919 A10.61268
G1 X-7.951 Y8.547 A10.63547
G1 X8.549 Y-7.954 A11.86100
G1 X8.227 Y-8.227 A11.88319
G1 X-8.224 Y8.224 A13.10506
G1 X-8.545 Y7.949 A13.12724
G1 X7.953 Y-8.549 A14.35255
G1 X7.729 Y-8.920 A14.37533
G1 X-8.915 Y7.724 A15.61151
G1 X-9.344 Y7.557 A15.63567
G1 X7.562 Y-9.348 A16.89127
G1 X7.468 Y-9.850 A16.91806
G1 X-9.847 Y7.465 A18.20405
G1 X-10.460 Y7.483 A18.23626
G1 X7.479 Y-10.456 A19.56860
G1 X7.765 Y-11.338 A19.61729
G1 X-11.350 Y7.777 A21.03697
G1 X-12.676 Y7.912 F15000.000
G1 X12.676 Y-17.439 A22.91985 F3600.000
G1 X12.676 Y-16.844 A22.95112
G1 X-12.661 Y8.492 A24.83289
G1 X-12.676 Y7.316 F15000.000
G1 X12.676 Y-18.035 A26.71576 F3600.000
G1 X12.676 Y-18.630 A26.74704
G1 X-12.676 Y6.721 A28.62992
G1 X-12.676 Y6.125 A28.66119
G1 X12.676 Y-19.226 A30.54407
G1 X12.676 Y-19.821 A30.57534
G1 X-12.676 Y5.530 A32.45822
G1 X-12.676 Y4.934 A32.48949
G1 X12.676 Y-20.417 A34.37237
G1 X12.676 Y-21.012 A34.40364
G1 X-12.676 Y4.339 A36.28652
G1 X-12.676 Y3.743 A36.31779
G1 X12.676 Y-21.608 A38.20067
G1 X12.676 Y-22.203 A38.23194
G1 X-12.676 Y3.148 A40.11482
G1 X-12.676 Y2.552 A40.14609
G1 X12.552 Y-22.676 A42.01982
G1 X11.957 Y-22.676 A42.05109
G1 X-12.676 Y1.957 A43.88059
G1 X-12.676 Y1.361 A43.91186
G1 X11.361 Y-22.676 A45.69713
G1 X10.766 Y-22.676 A45.72841
G1 X-12.676 Y0.766 A47.46945
G1 X-12.676 Y0.170 A47.50073
G1 X10.170 Y-22.676 A49.19754
G1 X9.575 Y-22.676 A49.22882
G1 X-12.676 Y-0.425 A50.88140
G1 X-12.676 Y-1.021 A50.91268
G1 X8.979 Y-22.676 A52.52104
G1 X8.384 Y-22.676 A52.55231
G1 X-12.676 Y-1.616 A54.11645
G1 X-12.676 Y-2.211 A54.14772
G1 X7.789 Y-22.676 A55.66763
G1 X7.193 Y-22.676 A55.69890
G1 X-12.676 Y-2.807 A57.17458
G1 X-12.676 Y-3.402 A57.20585
G1 X6.598 Y-22.676 A58.63730
G1 X6.002 Y-22.676 A58.66858
G1 X-7.590 Y-9.084 A59.67806
G1 X-7.457 Y-9.812 A59.71694
G1 X5.407 Y-22.676 A60.67232
G1 X4.811 Y-22.676 A60.70360
G1 X-7.497 Y-10.368 A61.61772
G1 X-7.624 Y-10.836 A61.64320
G1 X4.216 Y-22.676 A62.52255
G1 X3.620 Y-22.676 A62.55383
G1 X-7.816 Y-11.239 A63.40321
G1 X-8.061 Y-11.590 A63.42566
G1 X3.025 Y-22.676 A64.24903
G1 X2.429 Y-22.676 A64.28031
G1 X-8.355 Y-11.891 A65.08127
G1 X-8.697 Y-12.145 A65.10362
G1 X1.834 Y-22.676 A65.88574
G1 X1.238 Y-22.676 A65.91702
G1 X-9.091 Y-12.347 A66.68417
G1 X-9.546 Y-12.487 A66.70919
G1 X0.643 Y-22.676 A67.46594
G1 X0.047 Y-22.676 A67.49721
G1 X-10.083 Y-12.546 A68.24957
G1 X-10.775 Y-12.448 A68.28631
G1 X-0.548 Y-22.676 A69.04589
G1 X-1.144 Y-22.676 A69.07717
G1 X-12.373 Y-11.446 A69.91120
G1 X-12.676 Y-11.739 A69.93332
G1 X-1.739 Y-22.676 A70.74558
G1 X-2.335 Y-22.676 A70.77686
G1 X-12.676 Y-12.335 A71.54489
G1 X-12.676 Y-12.930 A71.57617
G1 X-2.930 Y-22.676 A72.29998
G1 X-3.526 Y-22.676 A72.33125
G1 X-12.676 Y-13.526 A73.01083
G1 X-12.676 Y-14.121 A73.04211
G1 X-4.121 Y-22.676 A73.67746
G1 X-4.717 Y-22.676 A73.70874
G1 X-12.676 Y-14.717 A74.29986
G1 X-12.676 Y-15.312 A74.33114
G1 X-5.312 Y-22.676 A74.87804
G1 X-5.908 Y-22.676 A74.90931
G1 X-12.676 Y-15.908 A75.41198
G1 X-12.676 Y-16.503 A75.44326
G1 X-6.503 Y-22.676 A75.90170
G1 X-7.099 Y-22.676 A75.93298
G1 X-12.676 Y-17.099 A76.34719
G1 X-12.676 Y-17.694 A76.37847
G1 X-7.694 Y-22.676 A76.74846
G1 X-8.290 Y-22.676 A76.77973
G1 X-12.676 Y-18.289 A77.10549
G1 X-12.676 Y-18.885 A77.13677
G1 X-8.885 Y-22.676 A77.41830
G1 X-9.480 Y-22.676 A77.44958
G1 X-12.676 Y-19.480 A77.68688
G1 X-12.676 Y-20.076 A77.71816
G1 X-10.076 Y-22.676 A77.91124
G1 X-10.671 Y-22.676 A77.94251
G1 X-12.676 Y-20.671 A78.09136
G1 X-12.676 Y-21.267 A78.12264
G1 X-11.267 Y-22.676 A78.22726
G1 X-11.862 Y-22.676 A78.25853
G1 X-12.676 Y-21.862 A78.31893
G1 X-12.676 Y-22.458 A78.35020
G1 X-12.458 Y-22.676 A78.36637
G1 X-12.313 Y-8.528 F15000.000
G1 X-12.676 Y-8.166 A78.39327 F3600.000
G1 X-12.676 Y-7.571 A78.42455
G1 X-11.893 Y-8.353 A78.48265
G1 X-11.592 Y-8.059 A78.50477
G1 X-12.676 Y-6.975 A78.58522
G1 X-12.676 Y-6.380 A78.61649
G1 X-11.243 Y-7.813 A78.72290
G1 X-10.840 Y-7.620 A78.74637
G1 X-12.676 Y-5.784 A78.88274
G1 X-12.676 Y-5.189 A78.91401
G1 X-10.370 Y-7.494 A79.08522
G1 X-9.810 Y-7.459 A79.11470
G1 X-12.676 Y-4.593 A79.32751
G1 X-12.676 Y-3.998 A79.35878
G1 X-9.092 Y-7.581 A79.62493
G1 X-12.731 Y9.753 F15000.000
G1 X-13.773 Y10.795 A79.70233 F3600.000
G1 X-12.438 Y10.652 F15000.000
G1 X-15.172 Y13.386 A79.90539 F3600.000
G1 X-15.451 Y14.260 A79.95360
G1 X-12.271 Y11.080 A80.18978
G1 X-12.047 Y11.452 A80.21256
G1 X-15.587 Y14.992 A80.47552
G1 X-15.620 Y15.620 A80.50854
G1 X-11.772 Y11.772 A80.79433
G1 X-11.451 Y12.046 A80.81652
G1 X-15.590 Y16.185 A81.12391
G1 X-15.506 Y16.697 A81.15115
G1 X-11.079 Y12.270 A81.47995
G1 X-10.651 Y12.437 A81.50409
G1 X-15.385 Y17.172 A81.85571
G1 X-15.241 Y17.622 A81.88058
G1 X-10.152 Y12.534 A82.25852
G1 X-9.548 Y12.525 A82.29027
G1 X-15.072 Y18.050 A82.70061
G1 X-14.885 Y18.458 A82.72418
G1 X-8.656 Y12.229 A83.18678
G1 F12000
G1 X-13.076 Y16.649 A80.81178
G1 A80.68678 F4800.00000
G92 A0
G1 Z0.700 F15000.000
G1 X-12.532 Y10.150 F15000.000
G1 Z0.600 F15000.000
G1 A4.00000 F4800.00000
G1 X-14.668 Y12.286 A4.15861 F3600.000
G1 F12000
G1 X-12.532 Y10.150 A3.01096
G1 A1.65861 F4800.00000
G92 A0
G1 Z0.700 F15000.000
G1 X12.467 Y10.757 F15000.000
G1 Z0.600 F15000.000
G1 A4.00000 F4800.00000
G1 X13.304 Y9.920 A4.06219 F3600.000
G1 X12.676 Y8.166 F15000.000
G1 X12.331 Y8.511 A4.08781 F3600.000
G1 X11.893 Y8.353 A4.11224
G1 X12.676 Y7.571 A4.17037
G1 X12.676 Y6.975 A4.20165
G1 X11.590 Y8.060 A4.28224
G1 X11.240 Y7.816 A4.30470
G1 X12.676 Y6.380 A4.41136
G1 X12.676 Y5.784 A4.44263
G1 X10.836 Y7.624 A4.57925
G1 X10.369 Y7.495 A4.60468
G1 X12.676 Y5.189 A4.77596
G1 X12.676 Y4.593 A4.80723
G1 X9.817 Y7.452 A5.01953
G1 X9.084 Y7.589 A5.05870
G1 X12.676 Y3.998 A5.32545
G1 X12.676 Y3.402 A5.35672
G1 X-6.598 Y22.676 A6.78817
G1 X-6.002 Y22.676 A6.81944
G1 X7.582 Y9.091 A7.82839
G1 X7.455 Y9.814 A7.86691
G1 X-5.407 Y22.676 A8.82220
G1 X-4.811 Y22.676 A8.85347
G1 X7.490 Y10.374 A9.76710
G1 X7.620 Y10.840 A9.79247
G1 X-4.216 Y22.676 A10.67155
G1 X-3.620 Y22.676 A10.70282
G1 X7.812 Y11.243 A11.55195
G1 X8.057 Y11.594 A11.57442
G1 X-3.025 Y22.676 A12.39744
G1 X-2.429 Y22.676 A12.42871
G1 X8.349 Y11.898 A13.22921
G1 X8.691 Y12.151 A13.25157
G1 X-1.834 Y22.676 A14.03324
G1 X-1.238 Y22.676 A14.06452
G1 X9.085 Y12.353 A14.83121
G1 X9.539 Y12.494 A14.85620
G1 X-0.643 Y22.676 A15.61241
G1 X-0.047 Y22.676 A15.64368
G1 X10.083 Y12.546 A16.39605
G1 X10.766 Y12.458 A16.43223
G1 X0.548 Y22.676 A17.19112
G1 X1.144 Y22.676 A17.22239
G1 X13.549 Y10.270 A18.14375
G1 X13.787 Y10.628 A18.16631
G1 X1.739 Y22.676 A19.06112
G1 X2.335 Y22.676 A19.09239
G1 X14.022 Y10.988 A19.96042
G1 X14.246 Y11.360 A19.98320
G1 X2.930 Y22.676 A20.82362
G1 X3.526 Y22.676 A20.85489
G1 X14.468 Y11.733 A21.66763
G1 X14.676 Y12.120 A21.69072
G1 X4.121 Y22.676 A22.47468
G1 X4.717 Y22.676 A22.50595
G1 X14.874 Y12.519 A23.26033
G1 X15.062 Y12.925 A23.28387
G1 X5.312 Y22.676 A24.00805
G1 X5.908 Y22.676 A24.03933
G1 X15.231 Y13.352 A24.73178
G1 X15.377 Y13.802 A24.75660
G1 X6.503 Y22.676 A25.41566
G1 X7.099 Y22.676 A25.44693
G1 X15.499 Y14.275 A26.07087
G1 X15.586 Y14.783 A26.09796
G1 X7.694 Y22.676 A26.68412
G1 X8.289 Y22.676 A26.71539
G1 X15.620 Y15.345 A27.25984
G1 X15.591 Y15.970 A27.29268
G1 X8.885 Y22.676 A27.79073
G1 X9.480 Y22.676 A27.82200
G1 X15.463 Y16.694 A28.26630
G1 X15.195 Y17.556 A28.31375
G1 X10.076 Y22.676 A28.69395
G1 X10.671 Y22.676 A28.72523
G1 X14.709 Y18.638 A29.02507
G1 X13.837 Y20.106 F15000.000
G1 X11.267 Y22.676 A29.21594 F3600.000
G1 X11.862 Y22.676 A29.24721
G1 X12.676 Y21.862 A29.30761
G1 X12.676 Y22.458 A29.33889
G1 X12.458 Y22.676 A29.35506
G1 X12.676 Y2.807 F15000.000
G1 X-7.193 Y22.676 A30.83073 F3600.000
G1 X-7.789 Y22.676 A30.86201
G1 X12.676 Y2.211 A32.38192
G1 X12.676 Y1.616 A32.41319
G1 X-8.384 Y22.676 A33.97732
G1 X-8.979 Y22.676 A34.00860
G1 X12.676 Y1.020 A35.61696
G1 X12.676 Y0.425 A35.64823
G1 X-9.575 Y22.676 A37.30082
G1 X-10.170 Y22.676 A37.33209
G1 X12.676 Y-0.170 A39.02891
G1 X12.676 Y-0.766 A39.06018
G1 X-10.766 Y22.676 A40.80123
G1 X-11.361 Y22.676 A40.83250
G1 X12.676 Y-1.361 A42.61777
G1 X12.676 Y-1.957 A42.64905
G1 X-11.957 Y22.676 A44.47855
G1 X-12.552 Y22.676 A44.50982
G1 X12.676 Y-2.552 A46.38355
G1 X12.676 Y-3.148 A46.41482
G1 X-12.676 Y22.203 A48.29770
G1 X-12.805 Y21.737 A48.32310
G1 X12.676 Y-3.743 A50.21559
G1 X12.676 Y-4.339 A50.24686
G1 X-13.060 Y21.397 A52.15828
G1 X-13.315 Y21.056 A52.18062
G1 X12.676 Y-4.934 A54.11099
G1 X12.676 Y-5.530 A54.14226
G1 X-13.563 Y20.709 A56.09104
G1 X-13.801 Y20.351 A56.11360
G1 X12.676 Y-6.125 A58.08006
G1 X12.676 Y-6.721 A58.11133
G1 X-14.035 Y19.990 A60.09517
G1 X-14.259 Y19.618 A60.11796
G1 X12.676 Y-7.316 A62.11843
G1 X12.676 Y-7.912 A62.14971
G1 X-14.480 Y19.244 A64.16661
G1 X-14.688 Y18.857 A64.18970
G1 X12.667 Y-8.499 A66.22145
G1 X12.472 Y8.754 F15000.000
G1 A82.78518 F4800.000 ; pressure advance
G92 A66.22145 ; restore E
G1 X12.530 Y9.094 A66.23946 F2700.000
G1 X12.638 Y9.342 A66.25357
G1 X12.497 Y9.574 A66.26779
G1 X12.492 Y9.631 A66.27073
G1 X12.475 Y-8.769 F15000.000
G1 X12.572 Y-9.343 A66.30115 F2700.000
G1 X12.609 Y-9.769 A66.32351
G1 X12.609 Y-10.213 A66.34672
G1 X12.569 Y-10.682 A66.37128
G1 X12.473 Y-11.246 A66.40117
G1 F12000
G1 A49.83744 F4800.000 ; pressure discharge
G92 A66.40117 ; restore E
G1 X12.569 Y-10.682 A66.18374
G1 F12000
G1 X12.609 Y-10.213 A66.00511
G1 F12000
G1 X12.609 Y-9.769 A65.83632
G1 F12000
G1 X12.572 Y-9.343 A65.67366
G1 F12000
G1 X12.475 Y-8.769 A65.45243
G1 A63.90117 F4800.00000
G92 A0
G1 Z0.700 F15000.000
G1 X-12.465 Y-11.230 F15000.000
G1 Z0.600 F15000.000
G1 A4.00000 F4800.00000
G1 X-12.539 Y-10.882 A4.01862 F2700.000
G1 X-12.587 Y-10.508 A4.03831
G1 X-12.614 Y-10.000 A4.06486
G1 X-12.594 Y-9.545 A4.08867
G1 X-12.539 Y-9.118 A4.11114
G1 X-12.465 Y-8.770 A4.12976
G1 X-12.465 Y8.770 F15000.000
G1 X-12.570 Y9.215 A4.15364 F2700.000
G1 X-12.716 Y9.519 A4.17127
G1 Z0.900 F15000.000
G1 A1.67127 F4800.00000
G92 A0
G1 Z1.000 F15000.000
G1 X10.298 Y7.715 F15000.000
G1 Z0.900 F15000.000
G1 A4.00000 F4800.00000
G1 X10.680 Y7.798 A4.02045 F2700.000
G1 X11.042 Y7.945 A4.04087
G1 X11.375 Y8.151 A4.06128
G1 X11.667 Y8.410 A4.08170
G1 X11.912 Y8.714 A4.10208
G1 X12.093 Y9.038 A4.12152
G1 X12.231 Y9.423 A4.14284
G1 X12.296 Y9.805 A4.16312
G1 X12.296 Y10.201 A4.18376
G1 X12.228 Y10.586 A4.20421
G1 X12.097 Y10.954 A4.22463
G1 X11.906 Y11.294 A4.24501
G1 X11.673 Y11.584 A4.26444
G1 X11.367 Y11.855 A4.28577
G1 X11.032 Y12.060 A4.30630
G1 X10.669 Y12.205 A4.32672
G1 X10.287 Y12.286 A4.34713
G1 X9.897 Y12.302 A4.36755
G1 X9.510 Y12.251 A4.38793
G1 X9.154 Y12.143 A4.40736
G1 X8.789 Y11.960 A4.42870
G1 X8.473 Y11.726 A4.44922
G1 X8.204 Y11.443 A4.46964
G1 X7.986 Y11.119 A4.49006
G1 X7.825 Y10.762 A4.51048
G1 X7.728 Y10.385 A4.53086
G1 X7.697 Y10.014 A4.55029
G1 X7.729 Y9.607 A4.57162
G1 X7.829 Y9.227 A4.59215
G1 X7.991 Y8.871 A4.61257
G1 X8.211 Y8.548 A4.63298
G1 X8.482 Y8.267 A4.65340
G1 X8.796 Y8.035 A4.67378
G1 X9.128 Y7.868 A4.69322
G1 X9.518 Y7.747 A4.71454
G1 X9.903 Y7.698 A4.73482
G1 X10.238 Y7.712 A4.75233
G1 X10.249 Y8.091 F15000.000
G1 X10.568 Y8.160 A4.76601 F2700.000
G1 X10.871 Y8.283 A4.77968
G1 X11.149 Y8.455 A4.79335
G1 X11.393 Y8.671 A4.80702
G1 X11.598 Y8.925 A4.82068
G1 X11.749 Y9.195 A4.83362
G1 X11.865 Y9.519 A4.84800
G1 X11.919 Y9.837 A4.86152
G1 X11.918 Y10.168 A4.87537
G1 X11.862 Y10.490 A4.88905
G1 X11.753 Y10.797 A4.90272
G1 X11.593 Y11.082 A4.91638
G1 X11.399 Y11.322 A4.92932
G1 X11.142 Y11.551 A4.94370
G1 X10.863 Y11.722 A4.95740
G1 X10.559 Y11.843 A4.97108
G1 X10.240 Y11.911 A4.98475
G1 X9.914 Y11.924 A4.99842
G1 X9.590 Y11.881 A5.01208
G1 X9.294 Y11.791 A5.02502
G1 X8.987 Y11.638 A5.03940
G1 X8.724 Y11.442 A5.05310
G1 X8.499 Y11.206 A5.06678
G1 X8.317 Y10.935 A5.08045
G1 X8.183 Y10.637 A5.09412
G1 X8.101 Y10.321 A5.10778
G1 X8.075 Y10.013 A5.12072
G1 X8.103 Y9.671 A5.13510
G1 X8.186 Y9.354 A5.14880
G1 X8.321 Y9.057 A5.16247
G1 X8.505 Y8.787 A5.17615
G1 X8.731 Y8.551 A5.18982
G1 X8.994 Y8.358 A5.20348
G1 X9.270 Y8.219 A5.21642
G1 X9.598 Y8.117 A5.23080
G1 X9.919 Y8.076 A5.24431
G1 X10.189 Y8.088 A5.25565
G1 X10.455 Y7.837 F15000.000
G1 X-7.704 Y9.805 F15000.000
G1 X-7.704 Y10.201 A5.27630 F2700.000
G1 X-7.772 Y10.586 A5.29675
G1 X-7.903 Y10.954 A5.31716
G1 X-8.094 Y11.294 A5.33755
G1 X-8.327 Y11.584 A5.35698
G1 X-8.633 Y11.855 A5.37831
G1 X-8.968 Y12.060 A5.39883
G1 X-9.331 Y12.205 A5.41925
G1 X-9.713 Y12.286 A5.43967
G1 X-10.103 Y12.302 A5.46009
G1 X-10.490 Y12.251 A5.48047
G1 X-10.846 Y12.143 A5.49990
G1 X-11.211 Y11.960 A5.52123
G1 X-11.527 Y11.726 A5.54176
G1 X-11.796 Y11.443 A5.56218
G1 X-12.014 Y11.119 A5.58260
G1 X-12.175 Y10.762 A5.60302
G1 X-12.272 Y10.385 A5.62340
G1 X-12.303 Y10.014 A5.64283
G1 X-12.271 Y9.607 A5.66416
G1 X-12.171 Y9.227 A5.68468
G1 X-12.009 Y8.871 A5.70510
G1 X-11.789 Y8.548 A5.72552
G1 X-11.518 Y8.267 A5.74594
G1 X-11.204 Y8.035 A5.76632
G1 X-10.872 Y7.868 A5.78575
G1 X-10.482 Y7.747 A5.80707
G1 X-10.097 Y7.698 A5.82735
G1 X-9.702 Y7.715 A5.84800
G1 X-9.320 Y7.798 A5.86845
G1 X-8.958 Y7.945 A5.88886
G1 X-8.625 Y8.151 A5.90928
G1 X-8.333 Y8.410 A5.92970
G1 X-8.088 Y8.714 A5.95008
G1 X-7.907 Y9.038 A5.96951
G1 X-7.769 Y9.423 A5.99084
G1 X-7.714 Y9.746 A6.00798
G1 X-8.081 Y9.837 F15000.000
G1 X-8.082 Y10.168 A6.02183 F2700.000
G1 X-8.138 Y10.490 A6.03551
G1 X-8.247 Y10.797 A6.04918
G1 X-8.407 Y11.082 A6.06284
G1 X-8.601 Y11.322 A6.07578
G1 X-8.858 Y11.551 A6.09016
G1 X-9.137 Y11.722 A6.10386
G1 X-9.441 Y11.843 A6.11754
G1 X-9.760 Y11.911 A6.13121
G1 X-10.086 Y11.924 A6.14488
G1 X-10.410 Y11.881 A6.15854
G1 X-10.706 Y11.791 A6.17148
G1 X-11.013 Y11.638 A6.18586
G1 X-11.276 Y11.442 A6.19956
G1 X-11.501 Y11.206 A6.21324
G1 X-11.683 Y10.935 A6.22691
G1 X-11.817 Y10.637 A6.24058
G1 X-11.899 Y10.321 A6.25424
G1 X-11.925 Y10.013 A6.26718
G1 X-11.897 Y9.671 A6.28156
G1 X-11.814 Y9.354 A6.29526
G1 X-11.679 Y9.057 A6.30893
G1 X-11.495 Y8.787 A6.32261
G1 X-11.269 Y8.551 A6.33628
G1 X-11.006 Y8.358 A6.34994
G1 X-10.730 Y8.219 A6.36288
G1 X-10.402 Y8.117 A6.37726
G1 X-10.081 Y8.076 A6.39078
G1 X-9.751 Y8.091 A6.40462
G1 X-9.432 Y8.160 A6.41830
G1 X-9.129 Y8.283 A6.43198
G1 X-8.851 Y8.455 A6.44565
G1 X-8.607 Y8.671 A6.45932
G1 X-8.402 Y8.925 A6.47298
G1 X-8.251 Y9.195 A6.48592
G1 X-8.135 Y9.519 A6.50030
G1 X-8.092 Y9.778 A6.51131
G1 X-7.786 Y9.986 F15000.000
G1 X-9.707 Y-7.714 F15000.000
G1 X-10.108 Y-7.697 A6.53224 F2700.000
G1 X-10.565 Y-7.772 A6.55644
G1 X-10.859 Y-7.862 A6.57252
G1 X-11.208 Y-8.038 A6.59294
G1 X-11.522 Y-8.270 A6.61336
G1 X-11.793 Y-8.552 A6.63378
G1 X-12.012 Y-8.876 A6.65420
G1 X-12.173 Y-9.232 A6.67462
G1 X-12.271 Y-9.611 A6.69504
G1 X-12.305 Y-10.010 A6.71598
G1 X-12.250 Y-10.470 A6.74017
G1 X-12.173 Y-10.768 A6.75626
G1 X-12.012 Y-11.124 A6.77668
G1 X-11.793 Y-11.448 A6.79710
G1 X-11.522 Y-11.730 A6.81752
G1 X-11.208 Y-11.962 A6.83794
G1 X-10.850 Y-12.143 A6.85887
G1 X-10.403 Y-12.263 A6.88307
G1 X-10.098 Y-12.302 A6.89915
G1 X-9.707 Y-12.286 A6.91957
G1 X-9.325 Y-12.203 A6.93999
G1 X-8.963 Y-12.058 A6.96041
G1 X-8.630 Y-11.853 A6.98083
G1 X-8.336 Y-11.594 A7.00125
G1 X-8.091 Y-11.290 A7.02167
G1 X-7.900 Y-10.949 A7.04209
G1 X-7.770 Y-10.581 A7.06251
G1 X-7.704 Y-10.195 A7.08293
G1 X-7.704 Y-9.805 A7.10335
G1 X-7.770 Y-9.419 A7.12377
G1 X-7.900 Y-9.051 A7.14419
G1 X-8.091 Y-8.710 A7.16461
G1 X-8.336 Y-8.406 A7.18503
G1 X-8.630 Y-8.147 A7.20545
G1 X-8.963 Y-7.942 A7.22587
G1 X-9.325 Y-7.797 A7.24629
G1 X-9.649 Y-7.727 A7.26357
G1 X-9.755 Y-8.090 F15000.000
G1 X-10.085 Y-8.076 A7.27739 F2700.000
G1 X-10.479 Y-8.140 A7.29409
G1 X-10.718 Y-8.213 A7.30455
G1 X-11.010 Y-8.360 A7.31823
G1 X-11.272 Y-8.554 A7.33190
G1 X-11.498 Y-8.790 A7.34557
G1 X-11.681 Y-9.061 A7.35924
G1 X-11.816 Y-9.358 A7.37292
G1 X-11.898 Y-9.675 A7.38659
G1 X-11.926 Y-10.003 A7.40041
G1 X-11.879 Y-10.400 A7.41711
G1 X-11.816 Y-10.642 A7.42757
G1 X-11.681 Y-10.939 A7.44125
G1 X-11.498 Y-11.210 A7.45492
G1 X-11.272 Y-11.446 A7.46859
G1 X-11.010 Y-11.640 A7.48226
G1 X-10.715 Y-11.788 A7.49608
G1 X-10.330 Y-11.892 A7.51278
G1 X-10.082 Y-11.924 A7.52325
G1 X-9.755 Y-11.910 A7.53692
G1 X-9.436 Y-11.841 A7.55059
G1 X-9.133 Y-11.720 A7.56427
G1 X-8.855 Y-11.548 A7.57794
G1 X-8.610 Y-11.332 A7.59161
G1 X-8.405 Y-11.078 A7.60528
G1 X-8.245 Y-10.793 A7.61896
G1 X-8.136 Y-10.485 A7.63263
G1 X-8.081 Y-10.163 A7.64630
G1 X-8.081 Y-9.837 A7.65997
G1 X-8.136 Y-9.515 A7.67365
G1 X-8.245 Y-9.207 A7.68732
G1 X-8.405 Y-8.922 A7.70099
G1 X-8.610 Y-8.668 A7.71466
G1 X-8.855 Y-8.452 A7.72834
G1 X-9.133 Y-8.280 A7.74201
G1 X-9.436 Y-8.159 A7.75568
G1 X-9.697 Y-8.103 A7.76684
G1 X-9.891 Y-7.789 F15000.000
G1 X7.729 Y-9.611 F15000.000
G1 X7.695 Y-10.010 A7.78778 F2700.000
G1 X7.750 Y-10.470 A7.81198
G1 X7.827 Y-10.768 A7.82806
G1 X7.988 Y-11.124 A7.84848
G1 X8.207 Y-11.448 A7.86890
G1 X8.478 Y-11.730 A7.88932
G1 X8.792 Y-11.962 A7.90974
G1 X9.150 Y-12.143 A7.93067
G1 X9.597 Y-12.263 A7.95487
G1 X9.902 Y-12.302 A7.97096
G1 X10.293 Y-12.286 A7.99138
G1 X10.675 Y-12.203 A8.01180
G1 X11.037 Y-12.058 A8.03222
G1 X11.370 Y-11.853 A8.05264
G1 X11.664 Y-11.594 A8.07305
G1 X11.909 Y-11.290 A8.09347
G1 X12.100 Y-10.949 A8.11389
G1 X12.230 Y-10.581 A8.13431
G1 X12.296 Y-10.195 A8.15473
G1 X12.296 Y-9.805 A8.17515
G1 X12.230 Y-9.419 A8.19557
G1 X12.100 Y-9.051 A8.21599
G1 X11.909 Y-8.710 A8.23641
G1 X11.664 Y-8.406 A8.25683
G1 X11.370 Y-8.147 A8.27725
G1 X11.037 Y-7.942 A8.29767
G1 X10.675 Y-7.797 A8.31809
G1 X10.293 Y-7.714 A8.33851
G1 X9.892 Y-7.697 A8.35944
G1 X9.435 Y-7.772 A8.38364
G1 X9.141 Y-7.862 A8.39973
G1 X8.792 Y-8.038 A8.42015
G1 X8.478 Y-8.270 A8.44057
G1 X8.207 Y-8.552 A8.46098
G1 X7.988 Y-8.876 A8.48140
G1 X7.827 Y-9.232 A8.50182
G1 X7.744 Y-9.553 A8.51911
G1 X8.102 Y-9.675 F15000.000
G1 X8.074 Y-10.003 A8.53292 F2700.000
G1 X8.121 Y-10.400 A8.54962
G1 X8.184 Y-10.642 A8.56009
G1 X8.319 Y-10.939 A8.57376
G1 X8.502 Y-11.210 A8.58744
G1 X8.728 Y-11.446 A8.60111
G1 X8.990 Y-11.640 A8.61478
G1 X9.285 Y-11.788 A8.62860
G1 X9.670 Y-11.892 A8.64530
G1 X9.918 Y-11.924 A8.65577
G1 X10.245 Y-11.910 A8.66944
G1 X10.564 Y-11.841 A8.68311
G1 X10.867 Y-11.720 A8.69678
G1 X11.145 Y-11.548 A8.71046
G1 X11.390 Y-11.332 A8.72413
G1 X11.595 Y-11.078 A8.73780
G1 X11.755 Y-10.793 A8.75147
G1 X11.864 Y-10.485 A8.76515
G1 X11.919 Y-10.163 A8.77882
G1 X11.919 Y-9.837 A8.79249
G1 X11.864 Y-9.515 A8.80617
G1 X11.755 Y-9.207 A8.81984
G1 X11.595 Y-8.922 A8.83351
G1 X11.390 Y-8.668 A8.84718
G1 X11.145 Y-8.452 A8.86086
G1 X10.867 Y-8.280 A8.87453
G1 X10.564 Y-8.159 A8.88820
G1 X10.245 Y-8.090 A8.90187
G1 X9.915 Y-8.076 A8.91569
G1 X9.521 Y-8.140 A8.93239
G1 X9.282 Y-8.213 A8.94286
G1 X8.990 Y-8.360 A8.95653
G1 X8.728 Y-8.554 A8.97020
G1 X8.502 Y-8.790 A8.98388
G1 X8.319 Y-9.061 A8.99755
G1 X8.184 Y-9.358 A9.01122
G1 X8.117 Y-9.616 A9.02238
G1 X7.796 Y-9.798 F15000.000
G1 F12000
G1 X8.074 Y-10.003 A8.87444
G1 F12000
G1 X8.121 Y-10.400 A8.72285
G1 F12000
G1 X8.184 Y-10.642 A8.62782
G1 F12000
G1 X8.319 Y-10.939 A8.50370
G1 F12000
G1 X8.502 Y-11.210 A8.37958
G1 F12000
G1 X8.728 Y-11.446 A8.25547
G1 F12000
G1 X8.990 Y-11.640 A8.13135
G1 F12000
G1 X9.285 Y-11.788 A8.00593
G1 F12000
G1 X9.670 Y-11.892 A7.85434
G1 F12000
G1 X9.918 Y-11.924 A7.75931
G1 F12000
G1 X10.245 Y-11.910 A7.63519
G1 F12000
G1 X10.564 Y-11.841 A7.51107
G1 F12000
G1 X10.867 Y-11.720 A7.38696
G1 F12000
G1 X11.145 Y-11.548 A7.26284
G1 F12000
G1 X11.390 Y-11.332 A7.13872
G1 F12000
G1 X11.595 Y-11.078 A7.01460
G1 F12000
G1 X11.755 Y-10.793 A6.89048
G1 F12000
G1 X11.864 Y-10.485 A6.76637
G1 F12000
G1 X11.917 Y-10.177 A6.64738
G1 A6.52238 F4800.00000
G92 A0
G1 Z1.000 F15000.000
G1 X12.923 Y-22.923 F15000.000
G1 Z0.900 F15000.000
G1 A4.00000 F4800.00000
G1 A33.47840 F4800.000 ; pressure advance
G92 A4.00000 ; restore E
G1 X12.923 Y8.782 A5.65641 F3600.000
G1 X13.400 Y9.400 A5.69719
G1 X14.062 Y10.321 A5.75647
G1 X14.556 Y11.062 A5.80296
G1 X15.030 Y11.852 A5.85111
G1 X15.323 Y12.397 A5.88348
G1 X15.604 Y13.000 A5.91821
G1 X15.794 Y13.479 A5.94511
G1 X15.963 Y14.010 A5.97424
G1 X16.059 Y14.413 A5.99588
G1 X16.136 Y14.886 A6.02092
G1 X16.166 Y15.266 A6.04083
G1 X16.168 Y15.716 A6.06435
G1 X16.127 Y16.172 A6.08828
G1 X16.065 Y16.562 A6.10891
G1 X15.942 Y17.061 A6.13577
G1 X15.806 Y17.486 A6.15908
G1 X15.579 Y18.060 A6.19130
G1 X15.349 Y18.552 A6.21970
G1 X14.970 Y19.255 A6.26139
G1 X14.602 Y19.865 A6.29865
G1 X13.372 Y21.637 A6.41133
G1 X12.923 Y22.198 A6.44887
G1 X12.923 Y22.923 A6.48674
G1 X-12.923 Y22.923 A7.83703
G1 X-12.923 Y22.198 A7.87490
G1 X-14.029 Y20.726 A7.97110
G1 X-14.557 Y19.937 A8.02071
G1 X-15.010 Y19.183 A8.06667
G1 X-15.323 Y18.604 A8.10103
G1 X-15.616 Y17.973 A8.13737
G1 X-15.794 Y17.520 A8.16284
G1 X-15.963 Y16.990 A8.19188
G1 X-16.059 Y16.589 A8.21343
G1 X-16.136 Y16.114 A8.23856
G1 X-16.167 Y15.732 A8.25858
G1 X-16.168 Y15.284 A8.28199
G1 X-16.128 Y14.829 A8.30584
G1 X-16.065 Y14.438 A8.32655
G1 X-15.941 Y13.938 A8.35342
G1 X-15.806 Y13.514 A8.37672
G1 X-15.579 Y12.942 A8.40886
G1 X-15.349 Y12.448 A8.43734
G1 X-14.971 Y11.747 A8.47893
G1 X-14.600 Y11.132 A8.51643
G1 X-13.700 Y9.809 A8.60004
G1 X-12.923 Y8.773 A8.66773
G1 X-12.923 Y-22.923 A10.32366
G1 X12.863 Y-22.923 A11.67082
G1 X13.300 Y-23.300 F15000.000
G1 A-7.16233 F4800.000 ; pressure advance
G92 A11.67082 ; restore E
G1 X13.300 Y8.653 A13.00839 F2700.000
G1 X13.702 Y9.174 A13.03594
G1 X14.372 Y10.106 A13.08400
G1 X14.874 Y10.860 A13.12189
G1 X15.358 Y11.665 A13.16123
G1 X15.661 Y12.228 A13.18799
G1 X15.951 Y12.851 A13.21673
G1 X16.149 Y13.352 A13.23930
G1 X16.326 Y13.909 A13.26376
G1 X16.429 Y14.339 A13.28226
G1 X16.511 Y14.841 A13.30355
G1 X16.544 Y15.250 A13.32074
G1 X16.545 Y15.732 A13.34092
G1 X16.502 Y16.219 A13.36138
G1 X16.435 Y16.637 A13.37912
G1 X16.305 Y17.164 A13.40181
G1 X16.162 Y17.613 A13.42157
G1 X15.925 Y18.209 A13.44840
G1 X15.686 Y18.721 A13.47207
G1 X15.298 Y19.442 A13.50631
G1 X14.919 Y20.070 A13.53705
G1 X13.674 Y21.863 A13.62839
G1 X13.300 Y22.330 A13.65346
G1 X13.300 Y23.300 A13.69405
G1 X-13.300 Y23.300 A14.80753
G1 X-13.300 Y22.324 A14.84839
G1 X-14.337 Y20.944 A14.92064
G1 X-14.875 Y20.139 A14.96120
G1 X-15.338 Y19.370 A14.99877
G1 X-15.660 Y18.773 A15.02714
G1 X-15.963 Y18.122 A15.05720
G1 X-16.150 Y17.646 A15.07862
G1 X-16.326 Y17.091 A15.10299
G1 X-16.429 Y16.663 A15.12141
G1 X-16.511 Y16.159 A15.14277
G1 X-16.544 Y15.748 A15.16006
G1 X-16.545 Y15.268 A15.18015
G1 X-16.502 Y14.783 A15.20054
G1 X-16.435 Y14.363 A15.21835
G1 X-16.305 Y13.836 A15.24105
G1 X-16.162 Y13.387 A15.26079
G1 X-15.926 Y12.792 A15.28756
G1 X-15.686 Y12.278 A15.31130
G1 X-15.299 Y11.560 A15.34546
G1 X-14.918 Y10.929 A15.37632
G1 X-14.007 Y9.590 A15.44411
G1 X-13.300 Y8.647 A15.49345
G1 X-13.300 Y-23.300 A16.83075
G1 X13.240 Y-23.300 A17.94173
G1 X13.100 Y-22.954 F15000.000
G1 X12.676 Y-22.458 F15000.000
G1 A37.00635 F4800.000 ; pressure advance
G92 A17.94173 ; restore E
G1 X12.458 Y-22.676 A17.95790 F3600.000
G1 X11.862 Y-22.676 A17.98917
G1 X12.676 Y-21.862 A18.04957
G1 X12.676 Y-21.267 A18.08084
G1 X11.267 Y-22.676 A18.18547
G1 X10.671 Y-22.676 A18.21674
G1 X12.676 Y-20.671 A18.36559
G1 X12.676 Y-20.076 A18.39687
G1 X10.076 Y-22.676 A18.58995
G1 X9.480 Y-22.676 A18.62122
G1 X12.676 Y-19.480 A18.85853
G1 X12.676 Y-18.885 A18.88980
G1 X8.885 Y-22.676 A19.17134
G1 X8.289 Y-22.676 A19.20261
G1 X12.676 Y-18.289 A19.52837
G1 X12.676 Y-17.694 A19.55965
G1 X7.694 Y-22.676 A19.92964
G1 X7.099 Y-22.676 A19.96091
G1 X12.676 Y-17.099 A20.37513
G1 X12.676 Y-16.503 A20.40640
G1 X6.503 Y-22.676 A20.86485
G1 X5.908 Y-22.676 A20.89612
G1 X12.676 Y-15.908 A21.39880
G1 X12.676 Y-15.312 A21.43007
G1 X5.312 Y-22.676 A21.97697
G1 X4.717 Y-22.676 A22.00824
G1 X12.676 Y-14.717 A22.59937
G1 X12.676 Y-14.121 A22.63065
G1 X4.121 Y-22.676 A23.26600
G1 X3.526 Y-22.676 A23.29727
G1 X12.676 Y-13.526 A23.97686
G1 X12.676 Y-12.930 A24.00813
G1 X2.930 Y-22.676 A24.73194
G1 X2.335 Y-22.676 A24.76322
G1 X12.676 Y-12.335 A25.53125
G1 X12.676 Y-11.739 A25.56253
G1 X1.739 Y-22.676 A26.37479
G1 X1.144 Y-22.676 A26.40607
G1 X12.357 Y-11.463 A27.23888
G1 X10.766 Y-12.458 F15000.000
G1 X0.548 Y-22.676 A27.99778 F3600.000
G1 X-0.047 Y-22.676 A28.02905
G1 X10.082 Y-12.546 A28.78141
G1 X9.544 Y-12.489 A28.80983
G1 X-0.643 Y-22.676 A29.56644
G1 X-1.238 Y-22.676 A29.59771
G1 X9.080 Y-12.357 A30.36406
G1 X8.691 Y-12.151 A30.38719
G1 X-1.834 Y-22.676 A31.16887
G1 X-2.429 Y-22.676 A31.20014
G1 X8.349 Y-11.898 A32.00063
G1 X8.056 Y-11.594 A32.02275
G1 X-3.025 Y-22.676 A32.84576
G1 X-3.620 Y-22.676 A32.87703
G1 X7.812 Y-11.243 A33.72614
G1 X7.620 Y-10.840 A33.74961
G1 X-4.216 Y-22.676 A34.62867
G1 X-4.811 Y-22.676 A34.65994
G1 X7.490 Y-10.375 A35.57355
G1 X7.440 Y-9.829 A35.60234
G1 X-5.407 Y-22.676 A36.55650
G1 X-6.002 Y-22.676 A36.58777
G1 X7.583 Y-9.091 A37.59673
G1 X9.084 Y-7.589 F15000.000
G1 X12.676 Y-3.998 A37.86348 F3600.000
G1 X12.676 Y-4.593 A37.89476
G1 X9.822 Y-7.447 A38.10667
G1 X10.369 Y-7.495 A38.13551
G1 X12.676 Y-5.189 A38.30680
G1 X12.676 Y-5.784 A38.33807
G1 X10.836 Y-7.624 A38.47470
G1 X11.240 Y-7.816 A38.49817
G1 X12.676 Y-6.380 A38.60482
G1 X12.676 Y-6.975 A38.63610
G1 X11.590 Y-8.061 A38.71669
G1 X11.893 Y-8.353 A38.73881
G1 X12.676 Y-7.571 A38.79694
G1 X12.676 Y-8.166 A38.82822
G1 X12.330 Y-8.511 A38.85385
G1 X12.676 Y-3.402 F15000.000
G1 X-6.598 Y-22.676 A40.28531 F3600.000
G1 X-7.193 Y-22.676 A40.31658
G1 X12.676 Y-2.807 A41.79226
G1 X12.676 Y-2.211 A41.82353
G1 X-7.789 Y-22.676 A43.34344
G1 X-8.384 Y-22.676 A43.37471
G1 X12.676 Y-1.616 A44.93885
G1 X12.676 Y-1.021 A44.97012
G1 X-8.979 Y-22.676 A46.57848
G1 X-9.575 Y-22.676 A46.60975
G1 X12.676 Y-0.425 A48.26234
G1 X12.676 Y0.170 A48.29362
G1 X-10.170 Y-22.676 A49.99043
G1 X-10.766 Y-22.676 A50.02171
G1 X12.676 Y0.766 A51.76275
G1 X12.676 Y1.361 A51.79402
G1 X-11.361 Y-22.676 A53.57930
G1 X-11.957 Y-22.676 A53.61057
G1 X12.676 Y1.957 A55.44007
G1 X12.676 Y2.552 A55.47134
G1 X-12.552 Y-22.676 A57.34507
G1 X-12.676 Y-22.203 A57.37070
G1 X12.676 Y3.148 A59.25358
G1 X12.676 Y3.743 A59.28485
G1 X-12.676 Y-21.608 A61.16773
G1 X-12.676 Y-21.012 A61.19900
G1 X12.676 Y4.339 A63.08188
G1 X12.676 Y4.934 A63.11316
G1 X-12.676 Y-20.417 A64.99603
G1 X-12.676 Y-19.821 A65.02731
G1 X12.676 Y5.530 A66.91018
G1 X12.676 Y6.125 A66.94146
G1 X-12.676 Y-19.226 A68.82433
G1 X-12.676 Y-18.630 A68.85561
G1 X12.676 Y6.721 A70.73848
G1 X12.676 Y7.316 A70.76976
G1 X-12.676 Y-18.035 A72.65263
G1 X-12.676 Y-17.439 A72.68391
G1 X12.676 Y7.912 A74.56679
G1 X12.594 Y8.425 A74.59410
G1 X-12.676 Y-16.844 A76.47090
G1 X-12.676 Y-16.248 A76.50218
G1 X-8.657 Y-12.230 A76.80064
G1 X-9.548 Y-12.525 F15000.000
G1 X-12.676 Y-15.653 A77.03293 F3600.000
G1 X-12.676 Y-15.058 A77.06420
G1 X-10.152 Y-12.534 A77.25164
G1 X-10.648 Y-12.434 A77.27821
G1 X-12.676 Y-14.462 A77.42881
G1 X-12.676 Y-13.867 A77.46008
G1 X-11.079 Y-12.270 A77.57866
G1 X-11.451 Y-12.046 A77.60144
G1 X-12.676 Y-13.271 A77.69242
G1 X-12.676 Y-12.676 A77.72369
G1 X-11.773 Y-11.773 A77.79075
G1 X-12.047 Y-11.451 A77.81293
G1 X-12.676 Y-12.080 A77.85962
G1 X-12.660 Y-8.492 F15000.000
G1 X14.687 Y18.856 A79.89078 F3600.000
G1 X14.479 Y19.243 A79.91387
G1 X-12.676 Y-7.912 A81.93069
G1 X-12.676 Y-7.316 A81.96196
G1 X14.260 Y19.620 A83.96254
G1 X14.036 Y19.991 A83.98532
G1 X-12.676 Y-6.721 A85.96926
G1 X-12.676 Y-6.125 A86.00053
G1 X13.794 Y20.345 A87.96650
G1 X13.551 Y20.697 A87.98898
G1 X-12.676 Y-5.530 A89.93686
G1 X-12.676 Y-4.934 A89.96813
G1 X13.307 Y21.049 A91.89793
G1 X13.064 Y21.401 A91.92041
G1 X-12.676 Y-4.339 A93.83211
G1 X-12.676 Y-3.743 A93.86339
G1 X12.820 Y21.752 A95.75701
G1 X12.676 Y22.203 A95.78187
G1 X-12.676 Y-3.148 A97.66475
G1 X-12.676 Y-2.552 A97.69602
G1 X12.552 Y22.676 A99.56975
G1 X11.957 Y22.676 A99.60102
G1 X-12.676 Y-1.957 A101.43052
G1 X-12.676 Y-1.361 A101.46179
G1 X11.361 Y22.676 A103.24706
G1 X10.766 Y22.676 A103.27834
G1 X-12.676 Y-0.766 A105.01938
G1 X-12.676 Y-0.170 A105.05065
G1 X10.170 Y22.676 A106.74747
G1 X9.575 Y22.676 A106.77874
G1 X-12.676 Y0.425 A108.43133
G1 X-12.676 Y1.021 A108.46261
G1 X8.979 Y22.676 A110.07097
G1 X8.384 Y22.676 A110.10224
G1 X-12.676 Y1.616 A111.66637
G1 X-12.676 Y2.211 A111.69765
G1 X7.789 Y22.676 A113.21755
G1 X7.193 Y22.676 A113.24883
G1 X-12.676 Y2.807 A114.72450
G1 X-12.676 Y3.402 A114.75578
G1 X6.598 Y22.676 A116.18723
G1 X6.002 Y22.676 A116.21850
G1 X-7.591 Y9.082 A117.22809
G1 X-7.457 Y9.812 A117.26704
G1 X5.407 Y22.676 A118.22245
G1 X4.811 Y22.676 A118.25373
G1 X-7.497 Y10.368 A119.16785
G1 X-7.624 Y10.836 A119.19333
G1 X4.216 Y22.676 A120.07269
G1 X3.620 Y22.676 A120.10396
G1 X-7.816 Y11.239 A120.95335
G1 X-8.061 Y11.590 A120.97581
G1 X3.025 Y22.676 A121.79916
G1 X2.429 Y22.676 A121.83044
G1 X-8.356 Y11.891 A122.63145
G1 X-8.697 Y12.145 A122.65380
G1 X1.834 Y22.676 A123.43592
G1 X1.238 Y22.676 A123.46720
G1 X-9.091 Y12.347 A124.23435
G1 X-9.546 Y12.487 A124.25937
G1 X0.643 Y22.676 A125.01612
G1 X0.047 Y22.676 A125.04740
G1 X-10.083 Y12.545 A125.79981
G1 X-10.767 Y12.456 A125.83604
G1 X-0.548 Y22.676 A126.59504
G1 X-1.144 Y22.676 A126.62632
G1 X-13.542 Y10.278 A127.54712
G1 X-13.783 Y10.632 A127.56964
G1 X-1.739 Y22.676 A128.46412
G1 X-2.335 Y22.676 A128.49540
G1 X-14.023 Y10.987 A129.36351
G1 X-14.247 Y11.359 A129.38629
G1 X-2.930 Y22.676 A130.22683
G1 X-3.526 Y22.676 A130.25810
G1 X-14.467 Y11.734 A131.07072
G1 X-14.675 Y12.122 A131.09381
G1 X-4.121 Y22.676 A131.87767
G1 X-4.717 Y22.676 A131.90894
G1 X-14.875 Y12.517 A132.66342
G1 X-15.061 Y12.927 A132.68704
G1 X-5.312 Y22.676 A133.41109
G1 X-5.908 Y22.676 A133.44237
G1 X-15.230 Y13.353 A134.13474
G1 X-15.378 Y13.801 A134.15950
G1 X-6.503 Y22.676 A134.81863
G1 X-7.099 Y22.676 A134.84990
G1 X-15.498 Y14.276 A135.47377
G1 X-15.585 Y14.785 A135.50088
G1 X-7.694 Y22.676 A136.08696
G1 X-8.290 Y22.676 A136.11823
G1 X-15.620 Y15.345 A136.66269
G1 X-15.593 Y15.968 A136.69544
G1 X-8.885 Y22.676 A137.19363
G1 X-9.480 Y22.676 A137.22491
G1 X-15.465 Y16.691 A137.66936
G1 X-15.198 Y17.554 A137.71678
G1 X-10.076 Y22.676 A138.09717
G1 X-10.671 Y22.676 A138.12844
G1 X-14.712 Y18.635 A138.42857
G1 X-13.865 Y20.078 F15000.000
G1 X-11.267 Y22.676 A138.62151 F3600.000
G1 X-11.862 Y22.676 A138.65278
G1 X-12.676 Y21.862 A138.71318
G1 X-12.676 Y22.458 A138.74445
G1 X-12.458 Y22.676 A138.76062
G1 X-12.454 Y10.770 F15000.000
G1 X-13.427 Y9.797 A138.83291 F3600.000
G1 X-13.036 Y9.592 A138.85607
G1 X-12.550 Y10.079 A138.89222
G1 X-12.403 Y8.439 F15000.000
G1 X-12.676 Y8.166 A138.91248 F3600.000
G1 X-12.676 Y7.571 A138.94375
G1 X-11.893 Y8.353 A139.00185
G1 X-11.593 Y8.058 A139.02396
G1 X-12.676 Y6.975 A139.10440
G1 X-12.676 Y6.380 A139.13567
G1 X-11.243 Y7.812 A139.24207
G1 X-10.838 Y7.622 A139.26558
G1 X-12.676 Y5.784 A139.40206
G1 X-12.676 Y5.189 A139.43333
G1 X-10.371 Y7.494 A139.60453
G1 X-9.810 Y7.459 A139.63403
G1 X-12.676 Y4.593 A139.84687
G1 X-12.676 Y3.998 A139.87814
G1 X-9.093 Y7.581 A140.14424
G1 X-9.847 Y-7.465 F15000.000
G1 X7.469 Y9.851 A141.43028 F3600.000
G1 X7.562 Y9.348 A141.45711
G1 X-9.343 Y-7.557 A142.71269
G1 X-8.915 Y-7.724 A142.73684
G1 X7.729 Y8.920 A143.97302
G1 X7.953 Y8.549 A143.99580
G1 X-8.544 Y-7.949 A145.22110
G1 X-8.224 Y-8.224 A145.24328
G1 X8.227 Y8.227 A146.46515
G1 X8.549 Y7.954 A146.48734
G1 X-7.951 Y-8.547 A147.71286
G1 X-7.728 Y-8.919 A147.73565
G1 X8.921 Y7.730 A148.97216
G1 X9.350 Y7.563 A148.99633
G1 X-7.560 Y-9.346 A150.25224
G1 X-7.461 Y-9.843 A150.27883
G1 X9.848 Y7.466 A151.56436
G1 X10.452 Y7.474 A151.59607
G1 X-7.482 Y-10.459 A152.92801
G1 X-7.780 Y-11.353 F15000.000
G1 X11.342 Y7.769 A154.34826 F3600.000
G1 X12.518 Y9.541 F15000.000
G1 X13.795 Y10.818 A154.44312 F3600.000
G1 X12.440 Y10.654 F15000.000
G1 X15.175 Y13.389 A154.64622 F3600.000
G1 X15.453 Y14.263 A154.69439
G1 X12.273 Y11.082 A154.93065
G1 X12.049 Y11.454 A154.95344
G1 X15.590 Y14.994 A155.21641
G1 X15.620 Y15.620 A155.24931
G1 X11.775 Y11.775 A155.53491
G1 X11.456 Y12.051 A155.55708
G1 X15.588 Y16.183 A155.86395
G1 X15.505 Y16.696 A155.89124
G1 X11.085 Y12.276 A156.21951
G1 X10.657 Y12.443 A156.24366
G1 X15.386 Y17.172 A156.59490
G1 X15.240 Y17.622 A156.61971
G1 X10.166 Y12.548 A156.99652
G1 X9.540 Y12.517 A157.02948
G1 X15.071 Y18.048 A157.44029
G1 X14.886 Y18.459 A157.46394
G1 X8.649 Y12.221 A157.92721
G1 X7.740 Y11.312 F15000.000
G1 X-11.350 Y-7.777 A159.34501 F3600.000
G1 X-10.460 Y-7.483 A159.39422
G1 X7.478 Y10.456 A160.72654
G1 F12000
G1 A131.01667 F4800.000 ; pressure discharge
G92 A160.72654 ; restore E
G1 X3.059 Y6.036 A158.35154
G1 A158.22654 F4800.00000
G92 A0
G1 Z1.000 F15000.000
G1 X12.540 Y10.158 F15000.000
G1 Z0.900 F15000.000
G1 A4.00000 F4800.00000
G1 X14.672 Y12.290 A4.15837 F3600.000
G1 X12.656 Y9.208 F15000.000
G1 A20.76015 F4800.000 ; pressure advance
G92 A4.15837 ; restore E
G1 X12.415 Y8.769 A4.18455 F2700.000
G1 X12.473 Y-8.754 F15000.000
G1 X12.572 Y-9.343 A4.21572 F2700.000
G1 X12.609 Y-9.769 A4.23808
G1 X12.609 Y-10.213 A4.26129
G1 X12.569 Y-10.682 A4.28585
G1 X12.473 Y-11.246 A4.31574
G1 F12000
G1 A-12.28604 F4800.000 ; pressure discharge
G92 A4.31574 ; restore E
G1 X12.569 Y-10.682 A4.09830
G1 F12000
G1 X12.609 Y-10.213 A3.91968
G1 F12000
G1 X12.609 Y-9.769 A3.75088
G1 F12000
G1 X12.572 Y-9.343 A3.58823
G1 F12000
G1 X12.473 Y-8.754 A3.36154
G1 A1.81574 F4800.00000
G92 A0
G1 Z1.000 F15000.000
G1 X-12.465 Y-11.230 F15000.000
G1 Z0.900 F15000.000
G1 A4.00000 F4800.00000
G1 X-12.539 Y-10.882 A4.01862 F2700.000
G1 X-12.583 Y-10.542 A4.03653
G1 X-12.614 Y-10.005 A4.06461
G1 X-12.594 Y-9.545 A4.08867
G1 X-12.539 Y-9.118 A4.11113
G1 X-12.465 Y-8.770 A4.12976
G1 X-12.419 Y8.784 F15000.000
G1 X-12.560 Y9.021 A4.14418 F2700.000
G1 X-12.442 Y9.267 A4.15842
G1 X-12.453 Y9.424 A4.16665
M106 P204
G1 Z1.200 F15000.000
G1 A1.66665 F4800.00000
G92 A0
G1 Z1.300 F15000.000
G1 X10.300 Y7.715 F15000.000
G1 Z1.200 F15000.000
G1 A4.00000 F4800.00000
G1 X10.682 Y7.799 A4.02046 F2700.000
G1 X11.044 Y7.946 A4.04088
G1 X11.377 Y8.152 A4.06130
G1 X11.669 Y8.411 A4.08171
G1 X11.913 Y8.715 A4.10208
G1 X12.091 Y9.034 A4.12112
G1 X12.231 Y9.424 A4.14280
G1 X12.296 Y9.806 A4.16302
G1 X12.295 Y10.203 A4.18376
G1 X12.228 Y10.588 A4.20421
G1 X12.096 Y10.956 A4.22463
G1 X11.905 Y11.296 A4.24500
G1 X11.676 Y11.579 A4.26404
G1 X11.366 Y11.856 A4.28573
G1 X11.030 Y12.061 A4.30630
G1 X10.667 Y12.206 A4.32672
G1 X10.285 Y12.287 A4.34714
G1 X9.894 Y12.302 A4.36755
G1 X9.508 Y12.251 A4.38792
G1 X9.159 Y12.144 A4.40696
G1 X8.787 Y11.960 A4.42865
G1 X8.472 Y11.724 A4.44922
G1 X8.202 Y11.441 A4.46964
G1 X7.985 Y11.117 A4.49006
G1 X7.825 Y10.760 A4.51047
G1 X7.728 Y10.383 A4.53084
G1 X7.697 Y10.020 A4.54988
G1 X7.730 Y9.606 A4.57157
G1 X7.830 Y9.225 A4.59214
G1 X7.992 Y8.869 A4.61256
G1 X8.212 Y8.546 A4.63298
G1 X8.484 Y8.265 A4.65340
G1 X8.798 Y8.034 A4.67376
G1 X9.123 Y7.870 A4.69280
G1 X9.519 Y7.746 A4.71448
G1 X9.903 Y7.698 A4.73470
G1 X10.240 Y7.713 A4.75230
G1 X10.251 Y8.091 F15000.000
G1 X10.570 Y8.161 A4.76599 F2700.000
G1 X10.873 Y8.284 A4.77966
G1 X11.150 Y8.456 A4.79333
G1 X11.395 Y8.672 A4.80700
G1 X11.599 Y8.927 A4.82066
G1 X11.746 Y9.191 A4.83330
G1 X11.865 Y9.520 A4.84797
G1 X11.918 Y9.837 A4.86142
G1 X11.918 Y10.170 A4.87534
G1 X11.862 Y10.492 A4.88902
G1 X11.752 Y10.799 A4.90270
G1 X11.592 Y11.083 A4.91635
G1 X11.402 Y11.318 A4.92899
G1 X11.141 Y11.552 A4.94366
G1 X10.861 Y11.722 A4.95738
G1 X10.558 Y11.843 A4.97105
G1 X10.238 Y11.911 A4.98472
G1 X9.912 Y11.924 A4.99839
G1 X9.588 Y11.881 A5.01205
G1 X9.299 Y11.793 A5.02469
G1 X8.986 Y11.637 A5.03936
G1 X8.723 Y11.441 A5.05307
G1 X8.498 Y11.205 A5.06674
G1 X8.316 Y10.933 A5.08042
G1 X8.182 Y10.635 A5.09409
G1 X8.101 Y10.319 A5.10774
G1 X8.075 Y10.018 A5.12039
G1 X8.103 Y9.669 A5.13505
G1 X8.187 Y9.352 A5.14877
G1 X8.322 Y9.055 A5.16244
G1 X8.506 Y8.785 A5.17611
G1 X8.733 Y8.550 A5.18978
G1 X8.996 Y8.357 A5.20344
G1 X9.265 Y8.221 A5.21608
G1 X9.600 Y8.116 A5.23075
G1 X9.919 Y8.076 A5.24420
G1 X10.191 Y8.088 A5.25561
G1 X10.457 Y7.837 F15000.000
G1 X-7.704 Y9.806 F15000.000
G1 X-7.705 Y10.203 A5.27635 F2700.000
G1 X-7.772 Y10.588 A5.29680
G1 X-7.904 Y10.956 A5.31722
G1 X-8.095 Y11.296 A5.33759
G1 X-8.324 Y11.579 A5.35663
G1 X-8.634 Y11.856 A5.37832
G1 X-8.970 Y12.061 A5.39889
G1 X-9.333 Y12.206 A5.41931
G1 X-9.715 Y12.287 A5.43973
G1 X-10.106 Y12.302 A5.46014
G1 X-10.492 Y12.251 A5.48051
G1 X-10.841 Y12.144 A5.49955
G1 X-11.213 Y11.960 A5.52124
G1 X-11.528 Y11.724 A5.54181
G1 X-11.798 Y11.441 A5.56223
G1 X-12.015 Y11.117 A5.58265
G1 X-12.175 Y10.760 A5.60307
G1 X-12.272 Y10.383 A5.62343
G1 X-12.303 Y10.020 A5.64247
G1 X-12.270 Y9.606 A5.66416
G1 X-12.170 Y9.225 A5.68473
G1 X-12.008 Y8.869 A5.70515
G1 X-11.788 Y8.546 A5.72557
G1 X-11.516 Y8.265 A5.74599
G1 X-11.202 Y8.034 A5.76635
G1 X-10.877 Y7.870 A5.78539
G1 X-10.481 Y7.746 A5.80707
G1 X-10.097 Y7.698 A5.82729
G1 X-9.700 Y7.715 A5.84803
G1 X-9.318 Y7.799 A5.86849
G1 X-8.956 Y7.946 A5.88891
G1 X-8.623 Y8.152 A5.90932
G1 X-8.331 Y8.411 A5.92974
G1 X-8.087 Y8.715 A5.95011
G1 X-7.909 Y9.034 A5.96915
G1 X-7.769 Y9.424 A5.99083
G1 X-7.714 Y9.746 A6.00791
G1 X-8.082 Y9.837 F15000.000
G1 X-8.082 Y10.170 A6.02183 F2700.000
G1 X-8.138 Y10.492 A6.03552
G1 X-8.248 Y10.799 A6.04919
G1 X-8.408 Y11.083 A6.06285
G1 X-8.598 Y11.318 A6.07549
G1 X-8.859 Y11.552 A6.09016
G1 X-9.139 Y11.722 A6.10387
G1 X-9.442 Y11.843 A6.11754
G1 X-9.762 Y11.911 A6.13121
G1 X-10.088 Y11.924 A6.14488
G1 X-10.412 Y11.881 A6.15854
G1 X-10.701 Y11.793 A6.17118
G1 X-11.014 Y11.637 A6.18585
G1 X-11.277 Y11.441 A6.19956
G1 X-11.502 Y11.205 A6.21324
G1 X-11.684 Y10.933 A6.22691
G1 X-11.818 Y10.635 A6.24058
G1 X-11.899 Y10.319 A6.25424
G1 X-11.925 Y10.018 A6.26688
G1 X-11.897 Y9.669 A6.28155
G1 X-11.813 Y9.352 A6.29526
G1 X-11.678 Y9.055 A6.30893
G1 X-11.494 Y8.785 A6.32260
G1 X-11.267 Y8.550 A6.33628
G1 X-11.004 Y8.357 A6.34993
G1 X-10.735 Y8.221 A6.36258
G1 X-10.400 Y8.116 A6.37724
G1 X-10.081 Y8.076 A6.39070
G1 X-9.749 Y8.091 A6.40462
G1 X-9.430 Y8.161 A6.41830
G1 X-9.127 Y8.284 A6.43197
G1 X-8.850 Y8.456 A6.44564
G1 X-8.605 Y8.672 A6.45931
G1 X-8.401 Y8.927 A6.47297
G1 X-8.254 Y9.191 A6.48561
G1 X-8.135 Y9.520 A6.50028
G1 X-8.092 Y9.778 A6.51122
G1 X-7.785 Y9.987 F15000.000
G1 X-9.707 Y-7.714 F15000.000
G1 X-10.098 Y-7.698 A6.53164 F2700.000
G1 X-10.485 Y-7.747 A6.55206
G1 X-10.859 Y-7.862 A6.57248
G1 X-11.208 Y-8.038 A6.59290
G1 X-11.522 Y-8.270 A6.61332
G1 X-11.793 Y-8.552 A6.63374
G1 X-11.878 Y-8.678 A6.64166
G1 X-12.012 Y-8.876 A6.65416
G1 X-12.173 Y-9.232 A6.67458
G1 X-12.271 Y-9.611 A6.69500
G1 X-12.304 Y-10.000 A6.71542
G1 X-12.271 Y-10.389 A6.73584
G1 X-12.173 Y-10.768 A6.75626
G1 X-12.012 Y-11.124 A6.77667
G1 X-11.793 Y-11.448 A6.79709
G1 X-11.522 Y-11.730 A6.81751
G1 X-11.208 Y-11.962 A6.83793
G1 X-10.859 Y-12.138 A6.85835
G1 X-10.485 Y-12.253 A6.87877
G1 X-10.098 Y-12.302 A6.89919
G1 X-9.707 Y-12.286 A6.91961
G1 X-9.325 Y-12.203 A6.94003
G1 X-8.963 Y-12.058 A6.96045
G1 X-8.630 Y-11.853 A6.98087
G1 X-8.336 Y-11.594 A7.00129
G1 X-8.091 Y-11.290 A7.02171
G1 X-8.017 Y-11.158 A7.02963
G1 X-7.900 Y-10.949 A7.04213
G1 X-7.770 Y-10.581 A7.06255
G1 X-7.704 Y-10.195 A7.08297
G1 X-7.704 Y-9.805 A7.10339
G1 X-7.770 Y-9.419 A7.12381
G1 X-7.900 Y-9.051 A7.14423
G1 X-8.091 Y-8.710 A7.16465
G1 X-8.336 Y-8.406 A7.18507
G1 X-8.630 Y-8.147 A7.20549
G1 X-8.963 Y-7.942 A7.22591
G1 X-9.325 Y-7.797 A7.24632
G1 X-9.649 Y-7.727 A7.26361
G1 X-9.755 Y-8.090 F15000.000
G1 X-10.082 Y-8.076 A7.27728 F2700.000
G1 X-10.406 Y-8.117 A7.29095
G1 X-10.718 Y-8.213 A7.30463
G1 X-11.010 Y-8.360 A7.31830
G1 X-11.272 Y-8.554 A7.33197
G1 X-11.498 Y-8.790 A7.34565
G1 X-11.565 Y-8.889 A7.35064
G1 X-11.681 Y-9.061 A7.35932
G1 X-11.816 Y-9.358 A7.37299
G1 X-11.898 Y-9.675 A7.38666
G1 X-11.926 Y-10.000 A7.40034
G1 X-11.898 Y-10.325 A7.41401
G1 X-11.816 Y-10.642 A7.42768
G1 X-11.681 Y-10.939 A7.44135
G1 X-11.498 Y-11.210 A7.45503
G1 X-11.272 Y-11.446 A7.46870
G1 X-11.010 Y-11.640 A7.48237
G1 X-10.718 Y-11.787 A7.49604
G1 X-10.406 Y-11.883 A7.50972
G1 X-10.082 Y-11.924 A7.52339
G1 X-9.755 Y-11.910 A7.53706
G1 X-9.436 Y-11.841 A7.55073
G1 X-9.133 Y-11.720 A7.56441
G1 X-8.855 Y-11.548 A7.57808
G1 X-8.610 Y-11.332 A7.59175
G1 X-8.405 Y-11.078 A7.60543
G1 X-8.346 Y-10.974 A7.61042
G1 X-8.245 Y-10.793 A7.61910
G1 X-8.136 Y-10.485 A7.63277
G1 X-8.081 Y-10.163 A7.64644
G1 X-8.081 Y-9.837 A7.66012
G1 X-8.136 Y-9.515 A7.67379
G1 X-8.245 Y-9.207 A7.68746
G1 X-8.405 Y-8.922 A7.70113
G1 X-8.610 Y-8.668 A7.71481
G1 X-8.855 Y-8.452 A7.72848
G1 X-9.133 Y-8.280 A7.74215
G1 X-9.436 Y-8.159 A7.75582
G1 X-9.697 Y-8.103 A7.76699
G1 X-9.890 Y-7.792 F15000.000
G1 X7.727 Y-9.617 F15000.000
G1 X7.700 Y-10.055 A7.78989 F2700.000
G1 X7.729 Y-10.389 A7.80743
G1 X7.827 Y-10.768 A7.82785
G1 X7.988 Y-11.124 A7.84827
G1 X8.207 Y-11.448 A7.86869
G1 X8.478 Y-11.730 A7.88911
G1 X8.792 Y-11.962 A7.90953
G1 X9.141 Y-12.138 A7.92995
G1 X9.515 Y-12.253 A7.95037
G1 X9.902 Y-12.302 A7.97079
G1 X10.293 Y-12.286 A7.99121
G1 X10.675 Y-12.203 A8.01163
G1 X11.037 Y-12.058 A8.03205
G1 X11.370 Y-11.853 A8.05247
G1 X11.664 Y-11.594 A8.07289
G1 X11.909 Y-11.290 A8.09331
G1 X12.100 Y-10.949 A8.11372
G1 X12.230 Y-10.581 A8.13414
G1 X12.296 Y-10.195 A8.15456
G1 X12.296 Y-9.805 A8.17498
G1 X12.230 Y-9.419 A8.19540
G1 X12.100 Y-9.051 A8.21582
G1 X11.909 Y-8.710 A8.23624
G1 X11.664 Y-8.406 A8.25666
G1 X11.370 Y-8.147 A8.27708
G1 X11.037 Y-7.942 A8.29750
G1 X10.675 Y-7.797 A8.31792
G1 X10.293 Y-7.714 A8.33834
G1 X9.902 Y-7.698 A8.35876
G1 X9.515 Y-7.747 A8.37918
G1 X9.141 Y-7.862 A8.39960
G1 X8.792 Y-8.038 A8.42002
G1 X8.478 Y-8.270 A8.44044
G1 X8.207 Y-8.552 A8.46086
G1 X7.988 Y-8.876 A8.48128
G1 X7.827 Y-9.232 A8.50170
G1 X7.742 Y-9.559 A8.51934
G1 X8.101 Y-9.677 F15000.000
G1 X8.079 Y-10.050 A8.53500 F2700.000
G1 X8.102 Y-10.325 A8.54656
G1 X8.184 Y-10.642 A8.56024
G1 X8.319 Y-10.939 A8.57391
G1 X8.502 Y-11.210 A8.58758
G1 X8.728 Y-11.446 A8.60125
G1 X8.990 Y-11.640 A8.61493
G1 X9.282 Y-11.787 A8.62860
G1 X9.594 Y-11.883 A8.64227
G1 X9.918 Y-11.924 A8.65595
G1 X10.245 Y-11.910 A8.66962
G1 X10.564 Y-11.841 A8.68329
G1 X10.867 Y-11.720 A8.69696
G1 X11.145 Y-11.548 A8.71064
G1 X11.390 Y-11.332 A8.72431
G1 X11.595 Y-11.078 A8.73798
G1 X11.755 Y-10.793 A8.75165
G1 X11.864 Y-10.485 A8.76533
G1 X11.919 Y-10.163 A8.77900
G1 X11.919 Y-9.837 A8.79267
G1 X11.864 Y-9.515 A8.80634
G1 X11.755 Y-9.207 A8.82002
G1 X11.595 Y-8.922 A8.83369
G1 X11.390 Y-8.668 A8.84736
G1 X11.145 Y-8.452 A8.86103
G1 X10.867 Y-8.280 A8.87471
G1 X10.564 Y-8.159 A8.88838
G1 X10.245 Y-8.090 A8.90205
G1 X9.918 Y-8.076 A8.91573
G1 X9.594 Y-8.117 A8.92940
G1 X9.282 Y-8.213 A8.94307
G1 X8.990 Y-8.360 A8.95674
G1 X8.728 Y-8.554 A8.97042
G1 X8.502 Y-8.790 A8.98409
G1 X8.319 Y-9.061 A8.99776
G1 X8.184 Y-9.358 A9.01143
G1 X8.116 Y-9.619 A9.02270
G1 X7.757 Y-9.822 F15000.000
G1 F12000
G1 X8.079 Y-10.050 A8.85810
G1 F12000
G1 X8.102 Y-10.325 A8.75317
G1 F12000
G1 X8.184 Y-10.642 A8.62905
G1 F12000
G1 X8.319 Y-10.939 A8.50493
G1 F12000
G1 X8.502 Y-11.210 A8.38081
G1 F12000
G1 X8.728 Y-11.446 A8.25670
G1 F12000
G1 X8.990 Y-11.640 A8.13258
G1 F12000
G1 X9.282 Y-11.787 A8.00846
G1 F12000
G1 X9.594 Y-11.883 A7.88434
G1 F12000
G1 X9.918 Y-11.924 A7.76022
G1 F12000
G1 X10.245 Y-11.910 A7.63611
G1 F12000
G1 X10.564 Y-11.841 A7.51199
G1 F12000
G1 X10.867 Y-11.720 A7.38787
G1 F12000
G1 X11.145 Y-11.548 A7.26375
G1 F12000
G1 X11.390 Y-11.332 A7.13964
G1 F12000
G1 X11.595 Y-11.078 A7.01552
G1 F12000
G1 X11.755 Y-10.793 A6.89140
G1 F12000
G1 X11.864 Y-10.485 A6.76728
G1 F12000
G1 X11.917 Y-10.175 A6.64770
G1 A6.52270 F4800.00000
G92 A0
G1 Z1.300 F15000.000
G1 X12.923 Y-22.923 F15000.000
G1 Z1.200 F15000.000
G1 A4.00000 F4800.00000
G1 A33.47820 F4800.000 ; pressure advance
G92 A4.00000 ; restore E
G1 X12.923 Y8.535 A5.64350 F3600.000
G1 X13.852 Y9.738 A5.72291
G1 X14.477 Y10.608 A5.77889
G1 X14.945 Y11.310 A5.82300
G1 X15.375 Y12.024 A5.86651
G1 X15.670 Y12.571 A5.89898
G1 X15.952 Y13.180 A5.93403
G1 X16.113 Y13.589 A5.95700
G1 X16.277 Y14.105 A5.98531
G1 X16.364 Y14.468 A6.00480
G1 X16.439 Y14.928 A6.02916
G1 X16.466 Y15.269 A6.04703
G1 X16.468 Y15.707 A6.06990
G1 X16.427 Y16.149 A6.09311
G1 X16.371 Y16.502 A6.11175
G1 X16.250 Y16.987 A6.13791
G1 X16.127 Y17.372 A6.15901
G1 X15.906 Y17.927 A6.19019
G1 X15.697 Y18.375 A6.21606
G1 X15.331 Y19.054 A6.25635
G1 X14.993 Y19.614 A6.29052
G1 X13.832 Y21.288 A6.39692
G1 X12.923 Y22.423 A6.47293
G1 X12.923 Y22.923 A6.49902
G1 X-12.923 Y22.923 A7.84932
G1 X-12.923 Y22.464 A7.87330
G1 X-14.435 Y20.453 A8.00473
G1 X-14.946 Y19.688 A8.05280
G1 X-15.402 Y18.928 A8.09914
G1 X-15.669 Y18.431 A8.12858
G1 X-15.952 Y17.820 A8.16376
G1 X-16.114 Y17.409 A8.18684
G1 X-16.277 Y16.895 A8.21503
G1 X-16.364 Y16.534 A8.23444
G1 X-16.439 Y16.072 A8.25888
G1 X-16.466 Y15.729 A8.27686
G1 X-16.468 Y15.293 A8.29962
G1 X-16.427 Y14.852 A8.32276
G1 X-16.371 Y14.498 A8.34147
G1 X-16.250 Y14.012 A8.36765
G1 X-16.127 Y13.628 A8.38873
G1 X-15.907 Y13.075 A8.41984
G1 X-15.697 Y12.625 A8.44578
G1 X-15.332 Y11.948 A8.48596
G1 X-14.977 Y11.362 A8.52172
G1 X-14.137 Y10.127 A8.59976
G1 X-12.923 Y8.542 A8.70409
G1 X-12.923 Y-22.923 A10.34796
G1 X12.863 Y-22.923 A11.69512
G1 X13.300 Y-23.300 F15000.000
G1 A-7.13783 F4800.000 ; pressure advance
G92 A11.69512 ; restore E
G1 X13.300 Y8.406 A13.02235 F2700.000
G1 X14.154 Y9.512 A13.08086
G1 X14.787 Y10.393 A13.12626
G1 X15.264 Y11.108 A13.16225
G1 X15.702 Y11.837 A13.19784
G1 X16.007 Y12.402 A13.22471
G1 X16.299 Y13.031 A13.25374
G1 X16.469 Y13.462 A13.27315
G1 X16.641 Y14.004 A13.29693
G1 X16.734 Y14.394 A13.31370
G1 X16.813 Y14.883 A13.33445
G1 X16.843 Y15.253 A13.35001
G1 X16.845 Y15.723 A13.36968
G1 X16.802 Y16.196 A13.38957
G1 X16.741 Y16.577 A13.40571
G1 X16.613 Y17.090 A13.42785
G1 X16.483 Y17.499 A13.44582
G1 X16.253 Y18.076 A13.47182
G1 X16.034 Y18.545 A13.49346
G1 X15.658 Y19.241 A13.52658
G1 X15.310 Y19.819 A13.55484
G1 X14.135 Y21.513 A13.64114
G1 X13.300 Y22.556 A13.69704
G1 X13.300 Y23.300 A13.72819
G1 X-13.300 Y23.300 A14.84168
G1 X-13.300 Y22.590 A14.87141
G1 X-14.742 Y20.671 A14.97188
G1 X-15.265 Y19.890 A15.01122
G1 X-15.730 Y19.114 A15.04911
G1 X-16.006 Y18.600 A15.07353
G1 X-16.299 Y17.969 A15.10265
G1 X-16.470 Y17.535 A15.12215
G1 X-16.641 Y16.996 A15.14584
G1 X-16.734 Y16.608 A15.16254
G1 X-16.813 Y16.117 A15.18336
G1 X-16.843 Y15.745 A15.19900
G1 X-16.845 Y15.277 A15.21859
G1 X-16.802 Y14.805 A15.23842
G1 X-16.741 Y14.423 A15.25462
G1 X-16.613 Y13.909 A15.27677
G1 X-16.483 Y13.501 A15.29473
G1 X-16.253 Y12.925 A15.32067
G1 X-16.034 Y12.455 A15.34237
G1 X-15.659 Y11.760 A15.37541
G1 X-15.295 Y11.158 A15.40487
G1 X-14.443 Y9.906 A15.46827
G1 X-13.300 Y8.414 A15.54695
G1 X-13.300 Y-23.300 A16.87451
G1 X13.240 Y-23.300 A17.98548
G1 X13.100 Y-22.954 F15000.000
G1 X12.473 Y-11.246 F15000.000
G1 X12.569 Y-10.682 A18.01537 F2700.000
G1 X12.609 Y-10.213 A18.03993
G1 X12.609 Y-9.787 A18.06221
G1 X12.572 Y-9.343 A18.08550
G1 X12.473 Y-8.754 A18.11667
G1 X10.805 Y-7.551 F15000.000
G1 A36.94932 F4800.000 ; pressure advance
G92 A18.11667 ; restore E
G1 X-7.549 Y10.803 A19.47274 F3600.000
G1 X-9.196 Y12.450 F15000.000
G1 X-15.338 Y18.592 A19.92652 F3600.000
G1 X-16.143 Y16.435 A20.04680
G1 X-11.625 Y11.917 A20.38062
G1 X-12.547 Y9.877 F15000.000
G1 X-15.428 Y12.758 A20.59346 F3600.000
G1 X-12.676 Y7.044 F15000.000
G1 X12.676 Y-18.307 A22.46654 F3600.000
G1 X12.676 Y-15.345 A22.62129
G1 X9.877 Y-12.547 A22.82805
G1 X11.913 Y-11.621 F15000.000
G1 X12.676 Y-12.384 A22.88438 F3600.000
G1 F12000
G1 A-6.59352 F4800.000 ; pressure discharge
G92 A22.88438 ; restore E
G1 X11.913 Y-11.621 A22.47472
G1 A20.38438 F4800.00000
G92 A0
G1 Z1.300 F15000.000
G1 X7.454 Y-10.124 F15000.000
G1 Z1.200 F15000.000
G1 A4.00000 F4800.00000
G1 X-10.123 Y7.453 A5.29868 F3600.000
G1 X-12.676 Y4.082 A5.51961
G1 X12.676 Y-21.269 A7.39269
G1 X11.120 Y-22.676 A7.50225
G1 X-12.676 Y1.120 A9.26039
G1 X-12.676 Y-1.842 A9.41513
G1 X8.158 Y-22.676 A10.95443
G1 X5.196 Y-22.676 A11.10918
G1 X-7.457 Y-10.023 A12.04404
G1 X-8.459 Y-11.983 F15000.000
G1 X2.234 Y-22.676 A12.83408 F3600.000
G1 X-0.728 Y-22.676 A12.98883
G1 X-11.027 Y-12.377 A13.74977
G1 X-12.676 Y-13.690 A13.85989
G1 X-3.690 Y-22.676 A14.52381
G1 X-6.652 Y-22.676 A14.67856
G1 X-12.676 Y-16.652 A15.12364
G1 X-12.676 Y-19.614 A15.27839
G1 X-9.614 Y-22.676 A15.50463
G1 F12000
G1 X-12.676 Y-19.614 A13.85909
G1 F12000
G1 X-12.676 Y-17.694 A13.12963
G1 A13.00463 F4800.00000
G92 A0
G1 Z1.300 F15000.000
G1 X-11.985 Y-8.457 F15000.000
G1 Z1.200 F15000.000
G1 A4.00000 F4800.00000
G1 X-12.676 Y-7.766 A4.05104 F3600.000
G1 X-10.029 Y-7.450 A4.19028
G1 X-12.676 Y-4.804 A4.38581
G1 X-8.087 Y8.379 F15000.000
G1 X8.375 Y-8.083 A5.60208 F3600.000
G1 X10.533 Y7.531 F15000.000
G1 X12.676 Y5.388 A5.76039 F3600.000
G1 X12.676 Y8.350 A5.91514
G1 X12.213 Y8.812 A5.94929
G1 F12000
G1 X12.676 Y8.350 A5.70087
G1 F12000
G1 X12.676 Y5.388 A4.57534
G1 F12000
G1 X10.813 Y7.251 A3.57429
G1 A3.44929 F4800.00000
G92 A0
G1 Z1.300 F15000.000
G1 X8.812 Y12.214 F15000.000
G1 Z1.200 F15000.000
G1 A4.00000 F4800.00000
G1 X3.748 Y17.278 A4.37413 F3600.000
G1 X3.748 Y20.240 A4.52888
G1 X13.866 Y10.121 A5.27648
G1 X15.050 Y11.900 A5.38808
G1 X4.274 Y22.676 A6.18427
G1 X7.236 Y22.676 A6.33902
G1 X15.985 Y13.926 A6.98545
G1 X15.991 Y16.882 A7.13987
G1 X10.198 Y22.676 A7.56792
G1 X7.531 Y10.532 F15000.000
G1 X3.748 Y14.315 A7.84743 F3600.000
G1 X3.748 Y11.353 A8.00218
G1 X12.676 Y2.426 A8.66179
G1 X12.676 Y-0.536 A8.81654
G1 X3.748 Y8.391 A9.47613
G1 X1.778 Y7.399 F15000.000
G1 X12.676 Y-3.498 A10.28128 F3600.000
G1 X12.676 Y-6.460 A10.43602
G1 X-1.184 Y7.399 A11.46001
G1 X-3.748 Y9.964 F15000.000
G1 X-14.199 Y20.415 A12.23215 F3600.000
G1 X-12.928 Y22.105 A12.34266
G1 X-3.748 Y12.926 A13.02089
G1 X-3.748 Y15.888 A13.17563
G1 X-10.536 Y22.676 A13.67715
G1 X-7.574 Y22.676 A13.83190
G1 X-3.748 Y18.850 A14.11458
G1 X-3.748 Y21.811 A14.26932
G1 X-4.612 Y22.676 A14.33318
G1 X3.329 Y22.676 F15000.000
G1 X3.547 Y22.458 A14.34957 F3600.000
G1 X3.547 Y21.854 A14.38171
G1 X2.725 Y22.676 A14.44357
G1 X2.121 Y22.676 A14.47571
G1 X3.547 Y21.250 A14.58302
G1 X3.547 Y20.647 A14.61516
G1 X1.518 Y22.676 A14.76793
G1 X0.914 Y22.676 A14.80007
G1 X3.547 Y20.043 A14.99830
G1 X3.547 Y19.439 A15.03045
G1 X0.310 Y22.676 A15.27413
G1 X-0.293 Y22.676 A15.30628
G1 X3.547 Y18.835 A15.59542
G1 X3.547 Y18.232 A15.62757
G1 X-0.897 Y22.676 A15.96217
G1 X-1.501 Y22.676 A15.99431
G1 X3.547 Y17.628 A16.37437
G1 X3.547 Y17.024 A16.40652
G1 X-2.104 Y22.676 A16.83204
G1 X-2.708 Y22.676 A16.86418
G1 X3.547 Y16.421 A17.33516
G1 X3.547 Y15.817 A17.36731
G1 X-3.312 Y22.676 A17.88374
G1 X-3.547 Y22.307 A17.90703
G1 X3.547 Y15.213 A18.44114
G1 X3.547 Y14.609 A18.47329
G1 X-3.547 Y21.703 A19.00740
G1 X-3.547 Y21.099 A19.03955
G1 X3.547 Y14.006 A19.57367
G1 X3.547 Y13.402 A19.60581
G1 X-3.547 Y20.496 A20.13994
G1 X-3.547 Y19.892 A20.17208
G1 X3.547 Y12.798 A20.70621
G1 X3.547 Y12.195 A20.73835
G1 X-3.547 Y19.288 A21.27248
G1 X-3.547 Y18.685 A21.30462
G1 X3.547 Y11.591 A21.83876
G1 X3.547 Y10.987 A21.87090
G1 X-3.547 Y18.081 A22.40504
G1 X-3.547 Y17.477 A22.43718
G1 X3.547 Y10.383 A22.97132
G1 X3.547 Y9.780 A23.00347
G1 X-3.547 Y16.873 A23.53761
G1 X-3.547 Y16.270 A23.56975
G1 X3.547 Y9.176 A24.10390
G1 X3.547 Y8.572 A24.13605
G1 X-3.547 Y15.666 A24.67020
G1 X-3.547 Y15.062 A24.70234
G1 X3.547 Y7.968 A25.23649
G1 X3.311 Y7.601 A25.25976
G1 X-3.547 Y14.459 A25.77616
G1 X-3.547 Y13.855 A25.80830
G1 X2.708 Y7.601 A26.27925
G1 X2.104 Y7.601 A26.31139
G1 X-3.547 Y13.251 A26.73688
G1 X-3.547 Y12.648 A26.76902
G1 X1.500 Y7.601 A27.14906
G1 X0.896 Y7.601 A27.18120
G1 X-3.547 Y12.044 A27.51578
G1 X-3.547 Y11.440 A27.54792
G1 X0.293 Y7.601 A27.83705
G1 X-0.311 Y7.601 A27.86919
G1 X-3.547 Y10.837 A28.11286
G1 X-3.547 Y10.233 A28.14500
G1 X-0.915 Y7.601 A28.34322
G1 X-1.518 Y7.601 A28.37536
G1 X-3.547 Y9.629 A28.52812
G1 X-3.547 Y9.026 A28.56026
G1 X-2.122 Y7.601 A28.66756
G1 X-2.726 Y7.601 A28.69971
G1 X-3.547 Y8.422 A28.76155
G1 X-3.547 Y7.818 A28.79370
G1 X-3.329 Y7.601 A28.81009
G1 X-12.465 Y-8.770 F15000.000
G1 A45.44960 F4800.000 ; pressure advance
G92 A28.81009 ; restore E
G1 X-12.539 Y-9.118 A28.82871 F2700.000
G1 X-12.594 Y-9.545 A28.85118
G1 X-12.614 Y-9.992 A28.87453
G1 X-12.594 Y-10.455 A28.89877
G1 X-12.539 Y-10.882 A28.92123
G1 X-12.465 Y-11.230 A28.93985
M106 P198.9
G1 Z1.500 F15000.000
G1 A12.30034 F4800.000 ; pressure discharge
G92 A28.93985 ; restore E
G1 A26.43985 F4800.00000
G92 A0
G1 Z1.600 F15000.000
G1 X10.302 Y7.716 F15000.000
G1 Z1.500 F15000.000
G1 A4.00000 F4800.00000
G1 X10.684 Y7.800 A4.02047 F2700.000
G1 X11.046 Y7.947 A4.04089
G1 X11.378 Y8.153 A4.06131
G1 X11.671 Y8.413 A4.08172
G1 X11.914 Y8.717 A4.10207
G1 X12.088 Y9.029 A4.12072
G1 X12.232 Y9.425 A4.14276
G1 X12.296 Y9.806 A4.16292
G1 X12.295 Y10.205 A4.18375
G1 X12.227 Y10.590 A4.20422
G1 X12.095 Y10.958 A4.22464
G1 X11.904 Y11.298 A4.24499
G1 X11.680 Y11.575 A4.26363
G1 X11.365 Y11.857 A4.28569
G1 X11.028 Y12.062 A4.30630
G1 X10.665 Y12.206 A4.32672
G1 X10.283 Y12.287 A4.34714
G1 X9.892 Y12.302 A4.36755
G1 X9.506 Y12.250 A4.38791
G1 X9.165 Y12.146 A4.40655
G1 X8.786 Y11.959 A4.42861
G1 X8.470 Y11.723 A4.44922
G1 X8.201 Y11.440 A4.46964
G1 X7.983 Y11.115 A4.49005
G1 X7.824 Y10.758 A4.51047
G1 X7.728 Y10.381 A4.53082
G1 X7.697 Y10.025 A4.54947
G1 X7.730 Y9.604 A4.57153
G1 X7.831 Y9.223 A4.59213
G1 X7.993 Y8.867 A4.61255
G1 X8.214 Y8.545 A4.63297
G1 X8.485 Y8.264 A4.65339
G1 X8.800 Y8.033 A4.67374
G1 X9.118 Y7.873 A4.69238
G1 X9.521 Y7.746 A4.71443
G1 X9.904 Y7.698 A4.73459
G1 X10.242 Y7.713 A4.75228
G1 X10.253 Y8.091 F15000.000
G1 X10.572 Y8.161 A4.76597 F2700.000
G1 X10.874 Y8.284 A4.77964
G1 X11.152 Y8.457 A4.79331
G1 X11.396 Y8.674 A4.80698
G1 X11.600 Y8.928 A4.82063
G1 X11.744 Y9.186 A4.83298
G1 X11.865 Y9.522 A4.84793
G1 X11.918 Y9.837 A4.86132
G1 X11.918 Y10.171 A4.87531
G1 X11.861 Y10.493 A4.88900
G1 X11.751 Y10.801 A4.90267
G1 X11.591 Y11.085 A4.91632
G1 X11.405 Y11.314 A4.92867
G1 X11.139 Y11.553 A4.94362
G1 X10.859 Y11.723 A4.95735
G1 X10.556 Y11.844 A4.97102
G1 X10.236 Y11.911 A4.98469
