; generated by Slic3r 1.2.9 on 2016-06-02 at 12:57:06

; external perimeters extrusion width = 0.50mm
; perimeters extrusion width = 0.72mm
; infill extrusion width = 0.72mm
; solid infill extrusion width = 0.72mm
; top infill extrusion width = 0.72mm

M104 P200 ; set temperature
G28 ; home all axes
G1 Z5 F5000 ; lift nozzle

M109 P200 ; wait for temperature to be reached
G21 ; set units to millimeters
G90 ; use absolute coordinates
G1 Z0.350 F7800.000
G1 A-2.00000 F2400.00000
G92 A0
G1 X-23.107 Y-22.986 F7800.000
G1 A2.00000 F2400.00000
G1 X-22.077 Y-23.913 A2.08573 F1800.000
G1 X-21.231 Y-24.527 A2.15041
G1 X-20.032 Y-25.220 A2.23609
G1 X-19.077 Y-25.645 A2.30078
G1 X-17.760 Y-26.073 A2.38652
G1 X-16.737 Y-26.290 A2.45120
G1 X-15.360 Y-26.435 A2.53689
G1 X15.360 Y-26.435 A4.43794
G1 X16.737 Y-26.290 A4.52363
G1 X17.760 Y-26.073 A4.58832 F1800.000
G1 X19.077 Y-25.645 A4.67406
G1 X20.032 Y-25.220 A4.73874
G1 X21.231 Y-24.527 A4.82442
G1 X22.077 Y-23.913 A4.88911
G1 X23.107 Y-22.986 A4.97484
G1 X23.806 Y-22.209 A5.03952
G1 X24.620 Y-21.089 A5.12522
G1 X25.143 Y-20.184 A5.18990
G1 X25.706 Y-18.918 A5.27560
G1 X26.029 Y-17.924 A5.34029
G1 X26.317 Y-16.570 A5.42598
G1 X26.426 Y-15.530 A5.49067
G1 X26.462 Y-14.838 A5.53359
G1 X26.462 Y14.838 A7.36996
G1 X26.426 Y15.530 A7.41288
G1 X26.317 Y16.570 A7.47757
G1 X26.029 Y17.924 A7.56326
G1 X25.706 Y18.918 A7.62795
G1 X25.143 Y20.184 A7.71365
G1 X24.620 Y21.089 A7.77833
G1 X23.806 Y22.209 A7.86403
G1 X23.107 Y22.986 A7.92872
G1 X22.077 Y23.913 A8.01444
G1 X21.231 Y24.527 A8.07913
G1 X20.032 Y25.220 A8.16481
G1 X19.077 Y25.645 A8.22949
G1 X17.760 Y26.073 A8.31523
G1 X16.737 Y26.290 A8.37992
G1 X15.360 Y26.435 A8.46561
G1 X-15.360 Y26.435 A10.36666
G1 X-16.737 Y26.290 A10.45235
G1 X-17.760 Y26.073 A10.51704
G1 X-19.077 Y25.645 A10.60278
G1 X-20.032 Y25.220 A10.66746
G1 X-21.231 Y24.527 A10.75314
G1 X-22.077 Y23.913 A10.81783
G1 X-23.107 Y22.986 A10.90355
G1 X-23.806 Y22.209 A10.96824
G1 X-24.620 Y21.089 A11.05394
G1 X-25.143 Y20.184 A11.11862
G1 X-25.706 Y18.918 A11.20432
G1 X-26.029 Y17.924 A11.26900
G1 X-26.317 Y16.570 A11.35470
G1 X-26.426 Y15.530 A11.41938
G1 X-26.462 Y14.838 A11.46231
G1 X-26.462 Y-14.838 A13.29868
G1 X-26.426 Y-15.530 A13.34160
G1 X-26.317 Y-16.570 A13.40629
G1 X-26.029 Y-17.924 A13.49198
G1 X-25.706 Y-18.918 A13.55666
G1 X-25.143 Y-20.184 A13.64237
G1 X-24.620 Y-21.089 A13.70705
G1 X-23.806 Y-22.209 A13.79275
G1 X-23.157 Y-22.930 A13.85279
G1 A11.85279 F2400.00000
G92 A0
G1 X11.328 Y10.638 F7800.000
G1 A2.00000 F2400.00000
G1 X9.906 Y11.974 A2.12075 F1800.000
G1 X8.328 Y13.120 A2.24142
G1 X6.616 Y14.061 A2.36232
G1 X4.802 Y14.779 A2.48308
G1 X2.912 Y15.265 A2.60383
G1 X0.976 Y15.509 A2.72460
G1 X-0.976 Y15.509 A2.84535
G1 X-2.912 Y15.265 A2.96612
G1 X-4.802 Y14.779 A3.08687
G1 X-6.618 Y14.061 A3.20771
G1 X-8.349 Y13.104 A3.33013
G1 X-9.906 Y11.974 A3.44919
G1 X-11.328 Y10.638 A3.56994
G1 X-12.572 Y9.134 A3.69069
G1 X-13.604 Y7.508 A3.80986
G1 X-14.448 Y5.722 A3.93213
G1 X-15.052 Y3.865 A4.05298
G1 X-15.417 Y1.948 A4.17373
G1 X-15.540 Y-0.001 A4.29460
G1 X-15.413 Y-1.973 A4.41688
G1 X-15.052 Y-3.865 A4.53604
G1 X-14.448 Y-5.722 A4.65689
G1 X-13.604 Y-7.508 A4.77916
G1 X-12.572 Y-9.134 A4.89833
G1 X-11.328 Y-10.638 A5.01908
G1 X-9.906 Y-11.974 A5.13984
G1 X-8.328 Y-13.120 A5.26051
G1 X-6.563 Y-14.091 A5.38518
G1 X-4.798 Y-14.780 A5.50241
G1 X-2.912 Y-15.265 A5.62294
G1 X-0.976 Y-15.509 A5.74372
G1 X0.976 Y-15.509 A5.86446 F1800.000
G1 X2.912 Y-15.265 A5.98524
G1 X4.802 Y-14.779 A6.10598
G1 X6.616 Y-14.061 A6.22674
G1 X8.328 Y-13.120 A6.34764
G1 X9.906 Y-11.974 A6.46831
G1 X11.328 Y-10.638 A6.58906
G1 X12.572 Y-9.134 A6.70981
G1 X13.604 Y-7.508 A6.82898
G1 X14.448 Y-5.722 A6.95126
G1 X15.052 Y-3.865 A7.07211
G1 X15.417 Y-1.948 A7.19286
G1 X15.540 Y-0.000 A7.31364
G1 X15.417 Y1.948 A7.43443
G1 X15.052 Y3.865 A7.55518
G1 X14.448 Y5.722 A7.67603
G1 X13.604 Y7.508 A7.79830
G1 X12.572 Y9.134 A7.91747
G1 X11.376 Y10.580 A8.03358
G1 X10.872 Y10.209 F7800.000
G1 X9.507 Y11.491 A8.14947 F1800.000
G1 X7.993 Y12.591 A8.26527
G1 X6.350 Y13.495 A8.38131
G1 X4.608 Y14.184 A8.49720
G1 X2.795 Y14.650 A8.61308
G1 X0.936 Y14.884 A8.72899
G1 X-0.936 Y14.884 A8.84487
G1 X-2.795 Y14.650 A8.96078
G1 X-4.608 Y14.184 A9.07666
G1 X-6.350 Y13.494 A9.19260
G1 X-8.013 Y12.576 A9.31015
G1 X-9.507 Y11.491 A9.42438
G1 X-10.872 Y10.209 A9.54026
G1 X-12.065 Y8.766 A9.65615
G1 X-13.055 Y7.206 A9.77049
G1 X-13.866 Y5.491 A9.88790
G1 X-14.445 Y3.709 A10.00384
G1 X-14.796 Y1.870 A10.11973
G1 X-14.914 Y-0.001 A10.23570
G1 X-14.791 Y-1.894 A10.35311
G1 X-14.445 Y-3.709 A10.46744
G1 X-13.866 Y-5.491 A10.58339
G1 X-13.055 Y-7.206 A10.70080
G1 X-12.065 Y-8.766 A10.81514
G1 X-10.872 Y-10.209 A10.93102
G1 X-9.507 Y-11.491 A11.04691
G1 X-7.993 Y-12.591 A11.16271
G1 X-6.297 Y-13.523 A11.28244
G1 X-4.606 Y-14.185 A11.39480
G1 X-2.795 Y-14.650 A11.51055
G1 X-0.936 Y-14.884 A11.62646
G1 X0.936 Y-14.884 A11.74234 F1800.000
G1 X2.795 Y-14.650 A11.85825
G1 X4.608 Y-14.184 A11.97412
G1 X6.350 Y-13.495 A12.09002
G1 X7.993 Y-12.591 A12.20605
G1 X9.507 Y-11.491 A12.32186
G1 X10.872 Y-10.209 A12.43774
G1 X12.065 Y-8.766 A12.55363
G1 X13.055 Y-7.206 A12.66797
G1 X13.866 Y-5.491 A12.78538
G1 X14.445 Y-3.709 A12.90132
G1 X14.796 Y-1.870 A13.01721
G1 X14.914 Y-0.000 A13.13313
G1 X14.796 Y1.870 A13.24905
G1 X14.445 Y3.709 A13.36493
G1 X13.866 Y5.491 A13.48088
G1 X13.055 Y7.206 A13.59829
G1 X12.065 Y8.766 A13.71263
G1 X10.920 Y10.151 A13.82387
G1 X10.415 Y9.781 F7800.000
G1 X9.107 Y11.009 A13.93489 F1800.000
G1 X7.657 Y12.062 A14.04583
G1 X6.083 Y12.928 A14.15700
G1 X4.415 Y13.589 A14.26803
G1 X2.677 Y14.035 A14.37904
G1 X0.897 Y14.259 A14.49008
G1 X-0.897 Y14.259 A14.60110
G1 X-2.677 Y14.035 A14.71214
G1 X-4.415 Y13.589 A14.82316
G1 X-6.083 Y12.928 A14.93420
G1 X-7.677 Y12.048 A15.04688
G1 X-9.107 Y11.009 A15.15628
G1 X-10.415 Y9.781 A15.26730
G1 X-11.559 Y8.398 A15.37832
G1 X-12.507 Y6.904 A15.48782
G1 X-13.284 Y5.260 A15.60037
G1 X-13.839 Y3.553 A15.71141
G1 X-14.175 Y1.791 A15.82244
G1 X-14.288 Y-0.000 A15.93351
G1 X-14.170 Y-1.815 A16.04605
G1 X-13.839 Y-3.553 A16.15555
G1 X-13.284 Y-5.260 A16.26660
G1 X-12.507 Y-6.904 A16.37914
G1 X-11.559 Y-8.398 A16.48865
G1 X-10.415 Y-9.781 A16.59967
G1 X-9.107 Y-11.009 A16.71069
G1 X-7.657 Y-12.062 A16.82163
G1 X-6.032 Y-12.956 A16.93641
G1 X-4.414 Y-13.589 A17.04390
G1 X-2.677 Y-14.035 A17.15486
G1 X-0.897 Y-14.259 A17.26591
G1 X0.897 Y-14.259 A17.37692 F1800.000
G1 X2.677 Y-14.035 A17.48797
G1 X4.415 Y-13.589 A17.59898
G1 X6.083 Y-12.928 A17.71000
G1 X7.657 Y-12.062 A17.82117
G1 X9.107 Y-11.009 A17.93211
G1 X10.415 Y-9.781 A18.04313
G1 X11.559 Y-8.398 A18.15415
G1 X12.507 Y-6.904 A18.26366
G1 X13.284 Y-5.260 A18.37620
G1 X13.839 Y-3.553 A18.48725
G1 X14.175 Y-1.791 A18.59827
G1 X14.288 Y-0.000 A18.70932
G1 X14.175 Y1.791 A18.82038
G1 X13.839 Y3.553 A18.93140
G1 X13.284 Y5.260 A19.04244
G1 X12.507 Y6.904 A19.15499
G1 X11.559 Y8.398 A19.26450
G1 X10.463 Y9.723 A19.37087
G1 X10.550 Y10.262 F7800.000
G1 X18.238 Y9.781 F7800.000
G1 X18.238 Y14.754 A19.67862 F1800.000
G1 X18.155 Y15.543 A19.72771
G1 X17.936 Y16.217 A19.77159
G1 X17.581 Y16.831 A19.81546
G1 X17.107 Y17.358 A19.85933
G1 X16.533 Y17.775 A19.90321
G1 X15.886 Y18.063 A19.94708
G1 X15.192 Y18.210 A19.99096
G1 X-15.192 Y18.210 A21.87120
G1 X-15.886 Y18.063 A21.91507
G1 X-16.533 Y17.775 A21.95895
G1 X-17.107 Y17.358 A22.00283
G1 X-17.581 Y16.831 A22.04670
G1 X-17.936 Y16.217 A22.09057
G1 X-18.155 Y15.543 A22.13444
G1 X-18.238 Y14.754 A22.18354
G1 X-18.238 Y-14.754 A24.00953
G1 X-18.155 Y-15.543 A24.05862
G1 X-17.936 Y-16.217 A24.10250
G1 X-17.581 Y-16.831 A24.14637
G1 X-17.107 Y-17.358 A24.19024
G1 X-16.533 Y-17.775 A24.23412
G1 X-15.886 Y-18.063 A24.27799
G1 X-15.192 Y-18.210 A24.32187
G1 X15.192 Y-18.210 A26.20211
G1 X15.692 Y-18.104 A26.23375
G1 X15.886 Y-18.063 A26.24598 F1800.000
G1 X16.533 Y-17.775 A26.28986
G1 X17.107 Y-17.358 A26.33373
G1 X17.581 Y-16.831 A26.37761
G1 X17.936 Y-16.217 A26.42148
G1 X18.155 Y-15.543 A26.46535
G1 X18.238 Y-14.754 A26.51445
G1 X18.238 Y9.706 A28.02805
G1 X18.863 Y9.781 F7800.000
G1 X18.863 Y14.786 A28.33782 F1800.000
G1 X18.769 Y15.673 A28.39301
G1 X18.510 Y16.472 A28.44501
G1 X18.090 Y17.200 A28.49701
G1 X17.527 Y17.825 A28.54901
G1 X16.847 Y18.319 A28.60102
G1 X16.080 Y18.661 A28.65302
G1 X15.258 Y18.835 A28.70503
G1 X-15.258 Y18.835 A30.59339
G1 X-16.080 Y18.661 A30.64540
G1 X-16.847 Y18.319 A30.69740
G1 X-17.527 Y17.825 A30.74941
G1 X-18.090 Y17.200 A30.80141
G1 X-18.510 Y16.472 A30.85341
G1 X-18.769 Y15.673 A30.90541
G1 X-18.863 Y14.786 A30.96060
G1 X-18.863 Y-14.786 A32.79064
G1 X-18.769 Y-15.673 A32.84582
G1 X-18.510 Y-16.473 A32.89783
G1 X-18.090 Y-17.200 A32.94983
G1 X-17.527 Y-17.825 A33.00183
G1 X-16.847 Y-18.319 A33.05384
G1 X-16.080 Y-18.661 A33.10584
G1 X-15.258 Y-18.835 A33.15784
G1 X15.258 Y-18.835 A35.04621
G1 X15.822 Y-18.715 A35.08192
G1 X16.080 Y-18.661 A35.09822 F1800.000
G1 X16.847 Y-18.319 A35.15022
G1 X17.527 Y-17.825 A35.20223
G1 X18.090 Y-17.200 A35.25423
G1 X18.510 Y-16.473 A35.30623
G1 X18.769 Y-15.673 A35.35823
G1 X18.863 Y-14.786 A35.41342
G1 X18.863 Y9.706 A36.92904
G1 X19.488 Y9.781 F7800.000
G1 X19.488 Y14.819 A37.24084 F1800.000
G1 X19.384 Y15.804 A37.30212
G1 X19.084 Y16.728 A37.36225
G1 X18.598 Y17.570 A37.42238
G1 X17.948 Y18.292 A37.48251
G1 X17.162 Y18.863 A37.54264
G1 X16.274 Y19.258 A37.60278
G1 X15.323 Y19.460 A37.66291
G1 X-15.323 Y19.460 A39.55941
G1 X-16.274 Y19.258 A39.61954
G1 X-17.162 Y18.863 A39.67967
G1 X-17.948 Y18.292 A39.73981
G1 X-18.598 Y17.570 A39.79994
G1 X-19.084 Y16.728 A39.86007
G1 X-19.384 Y15.804 A39.92020
G1 X-19.487 Y14.819 A39.98147
G1 X-19.487 Y-14.819 A41.81557
G1 X-19.384 Y-15.804 A41.87685
G1 X-19.084 Y-16.728 A41.93698
G1 X-18.598 Y-17.570 A41.99711
G1 X-17.948 Y-18.292 A42.05724
G1 X-17.162 Y-18.863 A42.11737
G1 X-16.274 Y-19.258 A42.17750
G1 X-15.323 Y-19.460 A42.23764
G1 X15.323 Y-19.460 A44.13413
G1 X15.952 Y-19.327 A44.17390
G1 X16.274 Y-19.258 A44.19427 F1800.000
G1 X17.162 Y-18.863 A44.25440
G1 X17.948 Y-18.292 A44.31453
G1 X18.598 Y-17.570 A44.37466
G1 X19.084 Y-16.728 A44.43479
G1 X19.384 Y-15.804 A44.49492
G1 X19.488 Y-14.819 A44.55620
G1 X19.488 Y9.706 A46.07386
G1 X19.054 Y10.031 F7800.000
G1 X14.999 Y-5.404 F7800.000
G1 X17.859 Y-2.544 A46.32508 F1800.000
G1 X17.859 Y-1.657 A46.38019
G1 X15.421 Y-4.096 A46.59441
G1 X15.630 Y-3.000 A46.66373
G1 X17.859 Y-0.770 A46.85958
G1 X17.859 Y0.117 A46.91469
G1 X15.806 Y-1.936 A47.09505
G1 X15.866 Y-0.990 A47.15398
G1 X17.859 Y1.004 A47.32911
G1 X17.859 Y1.891 A47.38422
G1 X15.915 Y-0.054 A47.55505
G1 X15.862 Y0.781 A47.60700
G1 X17.859 Y2.778 A47.78245
G1 X17.859 Y3.665 A47.83755
G1 X15.810 Y1.616 A48.01762
G1 X15.696 Y2.389 A48.06617
G1 X17.859 Y4.552 A48.25623
G1 X17.859 Y5.440 A48.31134
G1 X15.554 Y3.134 A48.51388
G1 X15.410 Y3.877 A48.56090
G1 X17.859 Y6.327 A48.77610
G1 X17.859 Y7.214 A48.83120
G1 X15.192 Y4.547 A49.06552
G1 X14.974 Y5.216 A49.10925
G1 X17.859 Y8.101 A49.36268
G1 X17.859 Y8.988 A49.41778
G1 X14.746 Y5.875 A49.69127
G1 X14.461 Y6.477 A49.73266
G1 X17.859 Y9.875 A50.03116
G1 X17.859 Y10.762 A50.08626
G1 X14.177 Y7.080 A50.40978
G1 X13.886 Y7.676 A50.45100
G1 X17.859 Y11.649 A50.80004
G1 X17.859 Y12.536 A50.85515
G1 X13.542 Y8.219 A51.23445
G1 X13.197 Y8.762 A51.27438
G1 X17.859 Y13.424 A51.68394
G1 X17.859 Y14.311 A51.73905
G1 X12.853 Y9.304 A52.17888
G1 X12.451 Y9.790 A52.21802
G1 X17.827 Y15.166 A52.69030
G1 X17.676 Y15.902 A52.73700
G1 X12.049 Y10.275 A53.23132
G1 X11.648 Y10.761 A53.27046
G1 X17.390 Y16.503 A53.77489
G1 X16.988 Y16.988 A53.81403
G1 X11.201 Y11.201 A54.32239
G1 X10.744 Y11.631 A54.36137
G1 X16.505 Y17.392 A54.86751
G1 X15.910 Y17.684 A54.90869
G1 X10.286 Y12.060 A55.40273
G1 X9.795 Y12.457 A55.44192
G1 X15.170 Y17.832 A55.91412
G1 X14.283 Y17.832 A55.96923
G1 X9.282 Y12.830 A56.40864
G1 X8.768 Y13.203 A56.44809
G1 X13.396 Y17.832 A56.85470
G1 X12.509 Y17.832 A56.90981
G1 X8.229 Y13.552 A57.28579
G1 X7.657 Y13.867 A57.32636
G1 X11.622 Y17.832 A57.67469
G1 X10.735 Y17.832 A57.72980
G1 X7.085 Y14.181 A58.05048
G1 X6.491 Y14.475 A58.09161
G1 X9.848 Y17.832 A58.38647
G1 X8.961 Y17.832 A58.44158
G1 X5.856 Y14.727 A58.71434
G1 X5.220 Y14.979 A58.75680
G1 X8.073 Y17.832 A59.00746
G1 X7.186 Y17.832 A59.06257
G1 X4.558 Y15.203 A59.29348
G1 X3.852 Y15.384 A59.33876
G1 X6.299 Y17.832 A59.55375
G1 X5.412 Y17.832 A59.60886
G1 X3.146 Y15.566 A59.80794
G1 X2.390 Y15.697 A59.85561
G1 X4.525 Y17.832 A60.04319
G1 X3.638 Y17.832 A60.09830
G1 X1.602 Y15.796 A60.27714
G1 X0.807 Y15.888 A60.32687
G1 X2.751 Y17.832 A60.49765
G1 X1.864 Y17.832 A60.55276
G1 X-0.080 Y15.888 A60.72353
G1 X-0.967 Y15.888 A60.77864
G1 X0.977 Y17.832 A60.94941
G1 X0.089 Y17.832 A61.00452
G1 X-1.958 Y15.785 A61.18436
G1 X-2.973 Y15.656 A61.24794
G1 X-0.798 Y17.832 A61.43905
G1 X-1.685 Y17.832 A61.49416
G1 X-4.137 Y15.379 A61.70961
G1 X-5.386 Y15.018 A61.79035
G1 X-2.572 Y17.832 A62.03754
G1 X-3.459 Y17.832 A62.09265
G1 X-6.854 Y14.437 A62.39092
G1 X-8.820 Y13.358 F7800.000
G1 X-4.346 Y17.832 A62.78392 F1800.000
G1 X-5.233 Y17.832 A62.83903
G1 X-17.859 Y5.206 A63.94822
G1 X-17.859 Y6.093 A64.00333
G1 X-6.120 Y17.832 A65.03459
G1 X-7.008 Y17.832 A65.08970
G1 X-17.859 Y6.980 A66.04302
G1 X-17.859 Y7.867 A66.09813
G1 X-7.895 Y17.832 A66.97352
G1 X-8.782 Y17.832 A67.02863
G1 X-17.859 Y8.754 A67.82608
G1 X-14.383 Y6.907 F7800.000
G1 X-17.859 Y3.432 A68.13143 F1800.000
G1 X-17.859 Y4.319 A68.18654
G1 X-13.277 Y8.901 A68.58909
G1 X-14.999 Y5.404 F7800.000
G1 X-17.859 Y2.545 A68.84031 F1800.000
G1 X-17.859 Y1.657 A68.89542
G1 X-15.421 Y4.096 A69.10964
G1 X-15.630 Y3.000 A69.17896
G1 X-17.859 Y0.770 A69.37481
G1 X-17.859 Y-0.117 A69.42992
G1 X-15.806 Y1.936 A69.61029
G1 X-15.866 Y0.990 A69.66921
G1 X-17.859 Y-1.004 A69.84434
G1 X-17.859 Y-1.891 A69.89945
G1 X-15.915 Y0.053 A70.07028
G1 X-15.861 Y-0.780 A70.12215
G1 X-17.859 Y-2.778 A70.29770
G1 X-17.859 Y-3.665 A70.35281
G1 X-15.807 Y-1.613 A70.53310
G1 X-15.696 Y-2.389 A70.58179
G1 X-17.859 Y-4.552 A70.77185
G1 X-17.859 Y-5.440 A70.82696
G1 X-15.554 Y-3.134 A71.02950
G1 X-15.410 Y-3.877 A71.07652
G1 X-17.859 Y-6.327 A71.29172
G1 X-17.859 Y-7.214 A71.34682
G1 X-15.192 Y-4.547 A71.58114
G1 X-14.974 Y-5.216 A71.62487
G1 X-17.859 Y-8.101 A71.87829
G1 X-17.859 Y-8.988 A71.93340
G1 X-14.746 Y-5.875 A72.20689
G1 X-14.461 Y-6.477 A72.24827
G1 X-17.859 Y-9.875 A72.54677
G1 X-17.859 Y-10.762 A72.60188
G1 X-14.177 Y-7.080 A72.92539
G1 X-13.886 Y-7.676 A72.96661
G1 X-17.859 Y-11.649 A73.31566
G1 X-17.859 Y-12.536 A73.37076
G1 X-13.542 Y-8.219 A73.75006
G1 X-13.197 Y-8.762 A73.78999
G1 X-17.859 Y-13.424 A74.19955
G1 X-17.859 Y-14.311 A74.25466
G1 X-12.853 Y-9.304 A74.69449
G1 X-12.451 Y-9.790 A74.73363
G1 X-17.827 Y-15.166 A75.20591
G1 X-17.676 Y-15.902 A75.25260
G1 X-12.049 Y-10.275 A75.74692
G1 X-11.648 Y-10.761 A75.78607
G1 X-17.390 Y-16.503 A76.29050
G1 X-16.988 Y-16.988 A76.32964
G1 X-11.201 Y-11.201 A76.83799
G1 X-10.744 Y-11.631 A76.87698
G1 X-16.505 Y-17.392 A77.38311
G1 X-15.910 Y-17.684 A77.42429
G1 X-10.286 Y-12.060 A77.91834
G1 X-9.795 Y-12.457 A77.95753
G1 X-15.170 Y-17.832 A78.42973
G1 X-14.283 Y-17.832 A78.48484
G1 X-9.282 Y-12.830 A78.92425
G1 X-8.768 Y-13.203 A78.96370
G1 X-13.396 Y-17.832 A79.37031
G1 X-12.509 Y-17.832 A79.42542
G1 X-8.229 Y-13.552 A79.80140
G1 X-7.657 Y-13.867 A79.84197
G1 X-11.622 Y-17.832 A80.19030
G1 X-10.735 Y-17.832 A80.24541
G1 X-7.085 Y-14.181 A80.56609
G1 X-6.497 Y-14.481 A80.60707
G1 X-9.848 Y-17.832 A80.90146
G1 X-8.961 Y-17.832 A80.95656
G1 X-5.859 Y-14.730 A81.22904
G1 X-5.221 Y-14.979 A81.27158
G1 X-8.073 Y-17.832 A81.52216
G1 X-7.186 Y-17.832 A81.57726
G1 X-4.558 Y-15.203 A81.80818
G1 X-3.852 Y-15.384 A81.85345
G1 X-6.299 Y-17.832 A82.06845
G1 X-5.412 Y-17.832 A82.12356
G1 X-3.146 Y-15.566 A82.32263
G1 X-2.390 Y-15.697 A82.37031
G1 X-4.525 Y-17.832 A82.55789
G1 X-3.638 Y-17.832 A82.61300
G1 X-1.602 Y-15.796 A82.79184
G1 X-0.807 Y-15.888 A82.84157
G1 X-2.751 Y-17.832 A83.01235
G1 X-1.864 Y-17.832 A83.06745
G1 X0.080 Y-15.888 A83.23823
G1 X0.967 Y-15.888 A83.29334
G1 X-0.977 Y-17.832 A83.46411
G1 X-0.089 Y-17.832 A83.51922
G1 X1.958 Y-15.785 A83.69906
G1 X2.973 Y-15.656 A83.76264
G1 X0.798 Y-17.832 A83.95375
G1 X1.685 Y-17.832 A84.00886
G1 X4.137 Y-15.379 A84.22431
G1 X5.386 Y-15.018 A84.30504
G1 X2.572 Y-17.832 A84.55223
G1 X3.459 Y-17.832 A84.60734
G1 X6.854 Y-14.437 A84.90561
G1 X8.820 Y-13.358 F7800.000
G1 X4.346 Y-17.832 A85.29861 F1800.000
G1 X5.233 Y-17.832 A85.35371
G1 X17.859 Y-5.206 A86.46291
G1 X17.859 Y-6.093 A86.51802
G1 X6.120 Y-17.832 A87.54928
G1 X7.007 Y-17.832 A87.60439
G1 X17.859 Y-6.980 A88.55772
G1 X17.859 Y-7.867 A88.61282
G1 X7.895 Y-17.832 A89.48822
G1 X8.782 Y-17.832 A89.54333
G1 X17.859 Y-8.754 A90.34079
G1 X17.859 Y-9.641 A90.39589
G1 X9.669 Y-17.832 A91.11542
G1 X10.556 Y-17.832 A91.17053
G1 X17.859 Y-10.529 A91.81212
G1 X17.859 Y-11.416 A91.86723
G1 X11.443 Y-17.832 A92.43089
G1 X12.330 Y-17.832 A92.48600
G1 X17.859 Y-12.303 A92.97172
G1 X17.859 Y-13.190 A93.02683
G1 X13.217 Y-17.832 A93.43462
G1 X14.104 Y-17.832 A93.48973
G1 X17.859 Y-14.077 A93.81959
G1 X17.816 Y-15.008 A93.87745
G1 X14.992 Y-17.832 A94.12556
G1 X16.527 Y-17.184 F7800.000
G1 X17.152 Y-16.558 A94.18052 F1800.000
G1 X13.277 Y-8.901 F7800.000
G1 X17.859 Y-4.319 A94.58306 F1800.000
G1 X17.859 Y-3.432 A94.63816
G1 X14.383 Y-6.907 A94.94351
G1 A92.94351 F2400.00000
G92 A0
G1 X-9.669 Y17.832 F7800.000
G1 A2.00000 F2400.00000
G1 X-17.859 Y9.641 A2.71952 F1800.000
G1 X-17.859 Y10.529 A2.77463
G1 X-10.556 Y17.832 A3.41622
G1 X-11.443 Y17.832 A3.47133
G1 X-17.859 Y11.416 A4.03498
G1 X-17.859 Y12.303 A4.09009
G1 X-12.330 Y17.832 A4.57581
G1 X-13.217 Y17.832 A4.63092
G1 X-17.859 Y13.190 A5.03871
G1 X-17.859 Y14.077 A5.09381
G1 X-14.104 Y17.832 A5.42367
G1 X-14.992 Y17.832 A5.47878
G1 X-17.816 Y15.008 A5.72688
G1 X-17.152 Y16.559 F7800.000
G1 X-16.527 Y17.184 A5.78179 F1800.000
G1 Z0.650 F7800.000
G1 A3.78179 F2400.00000
G92 A0
G1 X13.602 Y6.976 F7800.000
G1 A2.00000 F2400.00000
G1 X13.381 Y7.440 A2.02857 F3600.000
G1 X12.390 Y9.002 A2.13135
G1 X11.164 Y10.484 A2.23817
G1 X9.762 Y11.800 A2.34502
G1 X8.209 Y12.929 A2.45165
G1 X6.521 Y13.858 A2.55873
G1 X4.732 Y14.566 A2.66558
G1 X2.870 Y15.044 A2.77241
G1 X0.961 Y15.285 A2.87927
G1 X-0.961 Y15.285 A2.98610
G1 X-2.870 Y15.044 A3.09295
G1 X-4.732 Y14.566 A3.19978
G1 X-6.517 Y13.859 A3.30644
G1 X-8.209 Y12.929 A3.41371
G1 X-9.762 Y11.800 A3.52035
G1 X-11.164 Y10.484 A3.62719
G1 X-12.390 Y9.002 A3.73402
G1 X-13.381 Y7.440 A3.83679
G1 X-14.238 Y5.641 A3.94751
G1 X-14.834 Y3.809 A4.05454
G1 X-15.194 Y1.920 A4.16139
G1 X-15.315 Y-0.000 A4.26825
G1 X-15.194 Y-1.920 A4.37512
G1 X-14.834 Y-3.809 A4.48197
G1 X-14.238 Y-5.641 A4.58900
G1 X-13.381 Y-7.440 A4.69972
G1 X-12.390 Y-9.002 A4.80248
G1 X-11.164 Y-10.484 A4.90931
G1 X-9.762 Y-11.800 A5.01616
G1 X-8.209 Y-12.929 A5.12279
G1 X-6.520 Y-13.858 A5.22988
G1 X-4.729 Y-14.566 A5.33693
G1 X-2.870 Y-15.044 A5.44355
G1 X-0.961 Y-15.285 A5.55041
G1 X0.961 Y-15.285 A5.65724 F3600.000
G1 X2.870 Y-15.044 A5.76410
G1 X4.732 Y-14.566 A5.87093
G1 X6.517 Y-13.859 A5.97759
G1 X8.209 Y-12.929 A6.08485
G1 X9.762 Y-11.800 A6.19149
G1 X11.164 Y-10.484 A6.29834
G1 X12.390 Y-9.002 A6.40516
G1 X13.381 Y-7.440 A6.50793
G1 X14.238 Y-5.641 A6.61865
G1 X14.834 Y-3.809 A6.72568
G1 X15.194 Y-1.920 A6.83253
G1 X15.315 Y-0.000 A6.93940
G1 X15.194 Y1.920 A7.04626
G1 X14.834 Y3.809 A7.15311
G1 X14.238 Y5.641 A7.26014
G1 X13.635 Y6.908 A7.33812
G1 X13.011 Y6.694 F7800.000
G1 X12.807 Y7.123 A7.36450 F3600.000
G1 X11.859 Y8.617 A7.46278
G1 X10.686 Y10.035 A7.56503
G1 X9.344 Y11.295 A7.66730
G1 X7.858 Y12.375 A7.76936
G1 X6.241 Y13.264 A7.87187
G1 X4.530 Y13.942 A7.97414
G1 X2.747 Y14.400 A8.07640
G1 X0.920 Y14.630 A8.17868
G1 X-0.920 Y14.630 A8.28093
G1 X-2.747 Y14.400 A8.38321
G1 X-4.530 Y13.942 A8.48547
G1 X-6.238 Y13.265 A8.58755
G1 X-7.858 Y12.375 A8.69024
G1 X-9.344 Y11.295 A8.79230
G1 X-10.686 Y10.035 A8.89458
G1 X-11.859 Y8.617 A8.99683
G1 X-12.807 Y7.123 A9.09511
G1 X-13.629 Y5.398 A9.20126
G1 X-14.199 Y3.646 A9.30362
G1 X-14.544 Y1.838 A9.40590
G1 X-14.659 Y-0.000 A9.50819
G1 X-14.544 Y-1.838 A9.61048
G1 X-14.199 Y-3.646 A9.71275
G1 X-13.629 Y-5.398 A9.81511
G1 X-12.807 Y-7.123 A9.92126
G1 X-11.859 Y-8.617 A10.01954
G1 X-10.686 Y-10.035 A10.12179
G1 X-9.344 Y-11.295 A10.22407
G1 X-7.858 Y-12.375 A10.32613
G1 X-6.241 Y-13.264 A10.42864
G1 X-4.526 Y-13.943 A10.53110
G1 X-2.747 Y-14.400 A10.63316
G1 X-0.920 Y-14.630 A10.73544
G1 X0.920 Y-14.630 A10.83769 F3600.000
G1 X2.747 Y-14.400 A10.93998
G1 X4.530 Y-13.942 A11.04223
G1 X6.238 Y-13.265 A11.14431
G1 X7.858 Y-12.375 A11.24700
G1 X9.344 Y-11.295 A11.34907
G1 X10.686 Y-10.035 A11.45134
G1 X11.859 Y-8.617 A11.55359
G1 X12.807 Y-7.123 A11.65187
G1 X13.629 Y-5.398 A11.75802
G1 X14.199 Y-3.646 A11.86038
G1 X14.544 Y-1.838 A11.96266
G1 X14.659 Y-0.000 A12.06495
G1 X14.544 Y1.838 A12.16724
G1 X14.199 Y3.646 A12.26951
G1 X13.629 Y5.398 A12.37187
G1 X13.044 Y6.627 A12.44748
G1 X12.519 Y6.460 F7800.000
G1 X12.329 Y6.859 A12.46381 F1800.000
G1 X11.417 Y8.296 A12.52675
G1 X10.288 Y9.661 A12.59226
G1 X8.996 Y10.874 A12.65780
G1 X7.565 Y11.914 A12.72319
G1 X6.009 Y12.770 A12.78888
G1 X4.361 Y13.422 A12.85441
G1 X2.645 Y13.863 A12.91994
G1 X0.886 Y14.085 A12.98548
G1 X-0.886 Y14.085 A13.05100
G1 X-2.645 Y13.863 A13.11654
G1 X-4.361 Y13.422 A13.18206
G1 X-6.006 Y12.771 A13.24747
G1 X-7.565 Y11.914 A13.31328
G1 X-8.996 Y10.874 A13.37868
G1 X-10.288 Y9.661 A13.44421
G1 X-11.417 Y8.296 A13.50973
G1 X-12.329 Y6.859 A13.57266
G1 X-13.122 Y5.196 A13.64077
G1 X-13.670 Y3.510 A13.70632
G1 X-14.002 Y1.769 A13.77185
G1 X-14.113 Y-0.000 A13.83740
G1 X-14.002 Y-1.769 A13.90295
G1 X-13.670 Y-3.510 A13.96848
G1 X-13.122 Y-5.196 A14.03403
G1 X-12.329 Y-6.859 A14.10214
G1 X-11.418 Y-8.296 A14.16507
G1 X-10.288 Y-9.661 A14.23059
G1 X-8.996 Y-10.874 A14.29612
G1 X-7.565 Y-11.914 A14.36152
G1 X-6.009 Y-12.770 A14.42721
G1 X-4.357 Y-13.423 A14.49287
G1 X-2.645 Y-13.863 A14.55826
G1 X-0.886 Y-14.085 A14.62380
G1 X0.886 Y-14.085 A14.68932 F1800.000
G1 X2.645 Y-13.863 A14.75486
G1 X4.361 Y-13.422 A14.82039
G1 X6.006 Y-12.771 A14.88579
G1 X7.565 Y-11.914 A14.95160
G1 X8.996 Y-10.874 A15.01700
G1 X10.288 Y-9.661 A15.08254
G1 X11.417 Y-8.296 A15.14806
G1 X12.329 Y-6.859 A15.21098
G1 X13.122 Y-5.196 A15.27910
G1 X13.670 Y-3.510 A15.34464
G1 X14.002 Y-1.769 A15.41018
G1 X14.113 Y-0.000 A15.47572
G1 X14.002 Y1.769 A15.54127
G1 X13.670 Y3.510 A15.60680
G1 X13.122 Y5.196 A15.67235
G1 X12.552 Y6.392 A15.72135
G1 X12.770 Y6.824 F7800.000
G1 X18.550 Y6.460 F7800.000
G1 X18.550 Y14.924 A16.19157 F3600.000
G1 X18.465 Y15.737 A16.23696
G1 X18.236 Y16.441 A16.27811
G1 X17.866 Y17.082 A16.31925
G1 X17.370 Y17.633 A16.36039
G1 X16.771 Y18.068 A16.40153
G1 X16.095 Y18.369 A16.44268
G1 X15.370 Y18.523 A16.48382
G1 X-15.370 Y18.523 A18.19163
G1 X-16.095 Y18.369 A18.23277
G1 X-16.771 Y18.068 A18.27392
G1 X-17.370 Y17.633 A18.31506
G1 X-17.866 Y17.082 A18.35620
G1 X-18.236 Y16.441 A18.39734
G1 X-18.465 Y15.737 A18.43849
G1 X-18.550 Y14.924 A18.48388
G1 X-18.550 Y-14.924 A20.14210
G1 X-18.465 Y-15.737 A20.18749
G1 X-18.236 Y-16.441 A20.22863
G1 X-17.866 Y-17.082 A20.26977
G1 X-17.370 Y-17.633 A20.31091
G1 X-16.771 Y-18.068 A20.35206
G1 X-16.095 Y-18.369 A20.39320
G1 X-15.370 Y-18.523 A20.43435
G1 X15.370 Y-18.523 A22.14215
G1 X16.095 Y-18.369 A22.18330
G1 X16.771 Y-18.068 A22.22444 F3600.000
G1 X17.370 Y-17.633 A22.26559
G1 X17.866 Y-17.082 A22.30673
G1 X18.236 Y-16.441 A22.34787
G1 X18.465 Y-15.737 A22.38901
G1 X18.550 Y-14.924 A22.43440
G1 X18.550 Y6.385 A23.61824
G1 X19.205 Y6.460 F7800.000
G1 X19.205 Y14.958 A24.09036 F3600.000
G1 X19.109 Y15.873 A24.14148
G1 X18.837 Y16.709 A24.19027
G1 X18.398 Y17.469 A24.23905
G1 X17.811 Y18.122 A24.28783
G1 X17.100 Y18.638 A24.33662
G1 X16.298 Y18.995 A24.38541
G1 X15.439 Y19.178 A24.43420
G1 X-15.439 Y19.178 A26.14965
G1 X-16.298 Y18.995 A26.19844
G1 X-17.100 Y18.638 A26.24722
G1 X-17.811 Y18.122 A26.29601
G1 X-18.398 Y17.469 A26.34480
G1 X-18.837 Y16.709 A26.39358
G1 X-19.109 Y15.873 A26.44237
G1 X-19.205 Y14.958 A26.49348
G1 X-19.205 Y-14.958 A28.15552
G1 X-19.109 Y-15.873 A28.20664
G1 X-18.837 Y-16.709 A28.25542
G1 X-18.398 Y-17.469 A28.30420
G1 X-17.811 Y-18.122 A28.35299
G1 X-17.100 Y-18.638 A28.40178
G1 X-16.298 Y-18.995 A28.45056
G1 X-15.439 Y-19.178 A28.49935
G1 X15.439 Y-19.178 A30.21480
G1 X16.298 Y-18.995 A30.26359
G1 X17.100 Y-18.638 A30.31238 F3600.000
G1 X17.811 Y-18.122 A30.36117
G1 X18.398 Y-17.469 A30.40995
G1 X18.837 Y-16.709 A30.45873
G1 X19.109 Y-15.873 A30.50752
G1 X19.205 Y-14.958 A30.55864
G1 X19.205 Y6.385 A31.74438
G1 X19.750 Y6.460 F7800.000
G1 X19.750 Y14.987 A32.05967 F1800.000
G1 X19.645 Y15.987 A32.09687
G1 X19.338 Y16.931 A32.13358
G1 X18.842 Y17.791 A32.17028
G1 X18.177 Y18.529 A32.20699
G1 X17.374 Y19.112 A32.24370
G1 X16.467 Y19.516 A32.28041
G1 X15.496 Y19.723 A32.31712
G1 X-15.496 Y19.723 A33.46312
G1 X-16.467 Y19.516 A33.49983
G1 X-17.374 Y19.112 A33.53653
G1 X-18.177 Y18.529 A33.57324
G1 X-18.842 Y17.791 A33.60995
G1 X-19.338 Y16.931 A33.64666
G1 X-19.645 Y15.987 A33.68336
G1 X-19.750 Y14.987 A33.72056
G1 X-19.750 Y-14.987 A34.82889
G1 X-19.645 Y-15.987 A34.86608
G1 X-19.338 Y-16.931 A34.90279
G1 X-18.842 Y-17.791 A34.93950
G1 X-18.177 Y-18.529 A34.97620
G1 X-17.374 Y-19.112 A35.01291
G1 X-16.467 Y-19.516 A35.04962
G1 X-15.496 Y-19.723 A35.08633
G1 X15.496 Y-19.723 A36.23233
G1 X16.467 Y-19.516 A36.26904
G1 X17.374 Y-19.112 A36.30575 F1800.000
G1 X18.177 Y-18.529 A36.34246
G1 X18.842 Y-17.791 A36.37916
G1 X19.338 Y-16.931 A36.41587
G1 X19.645 Y-15.987 A36.45258
G1 X19.750 Y-14.987 A36.48977
G1 X19.750 Y6.385 A37.28003
G1 X19.317 Y6.710 F7800.000
G1 X14.132 Y6.958 F7800.000
G1 X18.153 Y2.937 A37.59992 F1200.000
G1 X18.153 Y2.000 A37.65266
G1 X14.803 Y5.349 A37.91916
G1 X15.235 Y3.981 A37.99988
G1 X18.153 Y1.063 A38.23208
G1 X18.153 Y0.125 A38.28482
G1 X15.456 Y2.823 A38.49944
G1 X15.614 Y1.727 A38.56170
G1 X18.153 Y-0.812 A38.76374
G1 X18.153 Y-1.750 A38.81648
G1 X15.676 Y0.727 A39.01352
G1 X15.691 Y-0.225 A39.06705
G1 X18.153 Y-2.687 A39.26297
G1 X18.153 Y-3.624 A39.31570
G1 X15.635 Y-1.106 A39.51603
G1 X15.565 Y-1.973 A39.56496
G1 X18.153 Y-4.562 A39.77090
G1 X18.153 Y-5.499 A39.82364
G1 X15.414 Y-2.760 A40.04152
G1 X15.264 Y-3.548 A40.08661
G1 X18.153 Y-6.436 A40.31645
G1 X18.153 Y-7.374 A40.36918
G1 X15.060 Y-4.281 A40.61524
G1 X14.830 Y-4.988 A40.65709
G1 X18.153 Y-8.311 A40.92144
G1 X18.153 Y-9.248 A40.97418
G1 X14.601 Y-5.696 A41.25682
G1 X14.299 Y-6.331 A41.29640
G1 X18.153 Y-10.186 A41.60306
G1 X18.153 Y-11.123 A41.65580
G1 X13.996 Y-6.966 A41.98653
G1 X13.690 Y-7.597 A42.02600
G1 X18.153 Y-12.060 A42.38110
G1 X18.153 Y-12.998 A42.43384
G1 X13.326 Y-8.171 A42.81790
G1 X12.962 Y-8.744 A42.85611
G1 X18.153 Y-13.935 A43.26913
G1 X18.153 Y-14.872 A43.32187
G1 X12.583 Y-9.303 A43.76500
G1 X12.159 Y-9.816 A43.80245
G1 X18.079 Y-15.736 A44.27348
G1 X17.840 Y-16.434 A44.31500
G1 X11.735 Y-10.329 A44.80075
G1 X11.296 Y-10.827 A44.83811
G1 X17.476 Y-17.007 A45.32983
G1 X17.006 Y-17.474 A45.36712
G1 X10.812 Y-11.281 A45.85990
G1 X10.329 Y-11.735 A45.89720
G1 X16.428 Y-17.834 A46.38250
G1 X15.724 Y-18.068 A46.42422
G1 X9.830 Y-12.174 A46.89316
G1 X9.288 Y-12.568 A46.93092
G1 X14.845 Y-18.126 A47.37307
G1 X13.908 Y-18.126 A47.42581
G1 X8.745 Y-12.963 A47.83658
G1 X8.184 Y-13.339 A47.87458
G1 X12.970 Y-18.126 A48.25539
G1 X12.033 Y-18.126 A48.30813
G1 X7.579 Y-13.672 A48.66248
G1 X6.974 Y-14.004 A48.70131
G1 X11.095 Y-18.126 A49.02921
G1 X10.158 Y-18.126 A49.08195
G1 X6.343 Y-14.311 A49.38547
G1 X5.672 Y-14.577 A49.42610
G1 X9.221 Y-18.126 A49.70848
G1 X8.283 Y-18.126 A49.76121
G1 X5.000 Y-14.842 A50.02244
G1 X4.281 Y-15.061 A50.06472
G1 X7.346 Y-18.126 A50.30858
G1 X6.409 Y-18.126 A50.36132
G1 X3.535 Y-15.252 A50.58995
G1 X2.784 Y-15.439 A50.63347
G1 X5.471 Y-18.126 A50.84726
G1 X4.534 Y-18.126 A50.89999
G1 X1.952 Y-15.544 A51.10541
G1 X1.120 Y-15.649 A51.15260
G1 X3.597 Y-18.126 A51.34966
G1 X2.659 Y-18.126 A51.40239
G1 X0.216 Y-15.682 A51.59680
G1 X-0.721 Y-15.682 A51.64953
G1 X1.722 Y-18.126 A51.84394
G1 X0.785 Y-18.126 A51.89667
G1 X-1.734 Y-15.606 A52.09711
G1 X-2.807 Y-15.471 A52.15795
G1 X-0.153 Y-18.126 A52.36917
G1 X-1.090 Y-18.126 A52.42191
G1 X-4.015 Y-15.200 A52.65468
G1 X-5.332 Y-14.820 A52.73179
G1 X-2.027 Y-18.126 A52.99476
G1 X-2.965 Y-18.126 A53.04749
G1 X-6.883 Y-14.207 A53.35929
G1 X-9.177 Y-12.850 F7800.000
G1 X-3.902 Y-18.126 A53.77902 F1200.000
G1 X-4.839 Y-18.126 A53.83175
G1 X-18.153 Y-4.812 A54.89104
G1 X-18.153 Y-3.875 A54.94378
G1 X-12.886 Y-9.142 A55.36287
G1 X-14.132 Y-6.958 F7800.000
G1 X-18.153 Y-2.937 A55.68276 F1200.000
G1 X-18.153 Y-2.000 A55.73549
G1 X-14.803 Y-5.349 A56.00200
G1 X-15.235 Y-3.981 A56.08273
G1 X-18.153 Y-1.063 A56.31493
G1 X-18.153 Y-0.125 A56.36766
G1 X-15.456 Y-2.823 A56.58228
G1 X-15.614 Y-1.727 A56.64454
G1 X-18.153 Y0.812 A56.84659
G1 X-18.153 Y1.749 A56.89932
G1 X-15.676 Y-0.727 A57.09636
G1 X-15.691 Y0.224 A57.14990
G1 X-18.153 Y2.687 A57.34581
G1 X-18.153 Y3.624 A57.39855
G1 X-15.635 Y1.106 A57.59888
G1 X-15.565 Y1.973 A57.64780
G1 X-18.153 Y4.561 A57.85374
G1 X-18.153 Y5.499 A57.90648
G1 X-15.414 Y2.760 A58.12437
G1 X-15.264 Y3.548 A58.16945
G1 X-18.153 Y6.436 A58.39929
G1 X-18.153 Y7.374 A58.45202
G1 X-15.060 Y4.281 A58.69808
G1 X-14.830 Y4.988 A58.73993
G1 X-18.153 Y8.311 A59.00428
G1 X-18.153 Y9.248 A59.05702
G1 X-14.601 Y5.696 A59.33966
G1 X-14.299 Y6.331 A59.37923
G1 X-18.153 Y10.186 A59.68590
G1 X-18.153 Y11.123 A59.73863
G1 X-13.996 Y6.966 A60.06937
G1 X-13.690 Y7.597 A60.10883
G1 X-18.153 Y12.060 A60.46394
G1 X-18.153 Y12.998 A60.51667
G1 X-13.326 Y8.171 A60.90073
G1 X-12.962 Y8.744 A60.93894
G1 X-18.153 Y13.935 A61.35196
G1 X-18.153 Y14.872 A61.40469
G1 X-12.584 Y9.303 A61.84782
G1 X-12.159 Y9.816 A61.88528
G1 X-18.079 Y15.736 A62.35631
G1 X-17.840 Y16.434 A62.39782
G1 X-11.735 Y10.329 A62.88357
G1 X-11.296 Y10.827 A62.92093
G1 X-17.476 Y17.007 A63.41265
G1 X-17.006 Y17.474 A63.44994
G1 X-10.812 Y11.281 A63.94272
G1 X-10.329 Y11.735 A63.98003
G1 X-16.428 Y17.834 A64.46533
G1 X-15.725 Y18.068 A64.50704
G1 X-9.831 Y12.174 A64.97599
G1 X-9.288 Y12.568 A65.01374
G1 X-14.845 Y18.126 A65.45590
G1 X-13.908 Y18.126 A65.50864
G1 X-8.745 Y12.963 A65.91941
G1 X-8.184 Y13.339 A65.95741
G1 X-12.970 Y18.126 A66.33823
G1 X-12.033 Y18.126 A66.39096
G1 X-7.579 Y13.672 A66.74532
G1 X-6.974 Y14.004 A66.78415
G1 X-11.096 Y18.126 A67.11205
G1 X-10.158 Y18.126 A67.16478
G1 X-6.343 Y14.311 A67.46831
G1 X-5.672 Y14.577 A67.50894
G1 X-9.221 Y18.126 A67.79132
G1 X-8.284 Y18.126 A67.84405
G1 X-5.000 Y14.842 A68.10528
G1 X-4.281 Y15.061 A68.14756
G1 X-7.346 Y18.126 A68.39142
G1 X-6.409 Y18.126 A68.44416
G1 X-3.535 Y15.252 A68.67279
G1 X-2.785 Y15.439 A68.71631
G1 X-5.471 Y18.126 A68.93010
G1 X-4.534 Y18.126 A68.98283
G1 X-1.952 Y15.544 A69.18825
G1 X-1.120 Y15.649 A69.23544
G1 X-3.597 Y18.126 A69.43250
G1 X-2.659 Y18.126 A69.48523
G1 X-0.216 Y15.682 A69.67964
G1 X0.721 Y15.682 A69.73237
G1 X-1.722 Y18.126 A69.92678
G1 X-0.785 Y18.126 A69.97952
G1 X1.734 Y15.606 A70.17995
G1 X2.807 Y15.471 A70.24079
G1 X0.153 Y18.126 A70.45202
G1 X1.090 Y18.126 A70.50475
G1 X4.015 Y15.200 A70.73752
G1 X5.332 Y14.821 A70.81458
G1 X2.027 Y18.126 A71.07749
G1 X2.965 Y18.126 A71.13023
G1 X6.883 Y14.207 A71.44202
G1 X9.177 Y12.850 F7800.000
G1 X3.902 Y18.126 A71.86174 F1200.000
G1 X12.886 Y9.142 F7800.000
G1 X18.153 Y3.875 A72.28083 F1200.000
G1 X18.153 Y4.812 A72.33356
G1 X4.839 Y18.126 A73.39285
G1 X5.777 Y18.126 A73.44559
G1 X18.153 Y5.749 A74.43030
G1 X18.153 Y6.687 A74.48304
G1 X6.714 Y18.126 A75.39317
G1 X7.651 Y18.126 A75.44591
G1 X18.153 Y7.624 A76.28147
G1 X18.153 Y8.561 A76.33420
G1 X8.589 Y18.126 A77.09518
G1 X9.526 Y18.126 A77.14791
G1 X18.153 Y9.499 A77.83431
G1 X18.153 Y10.436 A77.88705
G1 X10.463 Y18.126 A78.49887
G1 X11.401 Y18.126 A78.55160
G1 X18.153 Y11.373 A79.08885
G1 X18.153 Y12.311 A79.14158
G1 X12.338 Y18.126 A79.60424
G1 X13.275 Y18.126 A79.65698
G1 X18.153 Y13.248 A80.04506
G1 X18.153 Y14.185 A80.09780
G1 X14.213 Y18.126 A80.41130
G1 X15.150 Y18.126 A80.46404
G1 X18.110 Y15.166 A80.69955
G1 X17.405 Y16.808 F7800.000
G1 X16.767 Y17.446 A80.75032 F1200.000
G1 A78.75032 F2400.00000
G92 A0
G1 X-18.153 Y-5.749 F7800.000
G1 A2.00000 F2400.00000
G1 X-5.777 Y-18.126 A2.98471 F1200.000
G1 X-6.714 Y-18.126 A3.03744
G1 X-18.153 Y-6.687 A3.94758
G1 X-18.153 Y-7.624 A4.00031
G1 X-7.651 Y-18.126 A4.83586
G1 X-8.589 Y-18.126 A4.88860
G1 X-18.153 Y-8.561 A5.64957
G1 X-18.153 Y-9.499 A5.70231
G1 X-9.526 Y-18.126 A6.38870
G1 X-10.463 Y-18.126 A6.44144
G1 X-18.153 Y-10.436 A7.05325
G1 X-18.153 Y-11.373 A7.10599
G1 X-11.401 Y-18.126 A7.64322
G1 X-12.338 Y-18.126 A7.69596
G1 X-18.153 Y-12.311 A8.15862
G1 X-18.153 Y-13.248 A8.21135
G1 X-13.275 Y-18.126 A8.59943
G1 X-14.213 Y-18.126 A8.65217
G1 X-18.153 Y-14.185 A8.96567
G1 X-18.110 Y-15.166 A9.02087
G1 X-15.150 Y-18.126 A9.25638
G1 X-16.767 Y-17.446 F7800.000
G1 X-17.405 Y-16.808 A9.30710 F1200.000
G1 Z0.950 F7800.000
G1 A7.30710 F2400.00000
G92 A0
G1 X14.459 Y4.741 F7800.000
G1 A2.00000 F2400.00000
G1 X14.176 Y5.613 A2.05092 F3600.000
G1 X13.361 Y7.345 A2.15728
G1 X12.334 Y8.962 A2.26367
G1 X11.114 Y10.437 A2.37003
G1 X9.718 Y11.747 A2.47639
G1 X8.174 Y12.869 A2.58244
G1 X6.491 Y13.795 A2.68916
G1 X4.706 Y14.502 A2.79583
G1 X2.857 Y14.976 A2.90187
G1 X0.957 Y15.216 A3.00824
G1 X-0.957 Y15.216 A3.11460
G1 X-2.857 Y14.976 A3.22097
G1 X-4.711 Y14.500 A3.32732
G1 X-6.486 Y13.797 A3.43340
G1 X-8.174 Y12.870 A3.54039
G1 X-9.718 Y11.747 A3.64644
G1 X-11.114 Y10.437 A3.75281
G1 X-12.334 Y8.962 A3.85917
G1 X-13.360 Y7.345 A3.96556
G1 X-14.176 Y5.613 A4.07192
G1 X-14.767 Y3.792 A4.17828
G1 X-15.126 Y1.911 A4.28464
G1 X-15.246 Y-0.000 A4.39103
G1 X-15.126 Y-1.911 A4.49741
G1 X-14.767 Y-3.792 A4.60377
G1 X-14.176 Y-5.613 A4.71013
G1 X-13.360 Y-7.345 A4.81649
G1 X-12.334 Y-8.962 A4.92288
G1 X-11.114 Y-10.437 A5.02924
G1 X-9.718 Y-11.747 A5.13561
G1 X-8.174 Y-12.869 A5.24165
G1 X-6.491 Y-13.795 A5.34837
G1 X-4.706 Y-14.502 A5.45504
G1 X-2.857 Y-14.976 A5.56108
G1 X-0.957 Y-15.216 A5.66745
G1 X0.957 Y-15.216 A5.77382 F3600.000
G1 X2.857 Y-14.976 A5.88018
G1 X4.711 Y-14.500 A5.98654
G1 X6.486 Y-13.797 A6.09261
G1 X8.174 Y-12.870 A6.19960
G1 X9.718 Y-11.747 A6.30566
G1 X11.114 Y-10.437 A6.41203
G1 X12.334 Y-8.962 A6.51838
G1 X13.361 Y-7.345 A6.62478
G1 X14.176 Y-5.613 A6.73113
G1 X14.767 Y-3.792 A6.83749
G1 X15.126 Y-1.911 A6.94385
G1 X15.246 Y-0.000 A7.05024
G1 X15.126 Y1.911 A7.15662
G1 X14.767 Y3.792 A7.26298
G1 X14.482 Y4.669 A7.31426
G1 X13.836 Y4.539 F7800.000
G1 X13.566 Y5.371 A7.36289 F3600.000
G1 X12.786 Y7.029 A7.46467
G1 X11.804 Y8.576 A7.56649
G1 X10.636 Y9.988 A7.66827
G1 X9.300 Y11.242 A7.77006
G1 X7.823 Y12.316 A7.87154
G1 X6.212 Y13.202 A7.97367
G1 X4.503 Y13.878 A8.07576
G1 X2.734 Y14.332 A8.17723
G1 X0.916 Y14.562 A8.27903
G1 X-0.916 Y14.562 A8.38082
G1 X-2.734 Y14.332 A8.48261
G1 X-4.508 Y13.876 A8.58439
G1 X-6.207 Y13.204 A8.68589
G1 X-7.823 Y12.316 A8.78830
G1 X-9.300 Y11.242 A8.88979
G1 X-10.636 Y9.988 A8.99158
G1 X-11.804 Y8.576 A9.09336
G1 X-12.786 Y7.029 A9.19518
G1 X-13.566 Y5.371 A9.29696
G1 X-14.132 Y3.629 A9.39875
G1 X-14.475 Y1.829 A9.50053
G1 X-14.590 Y-0.000 A9.60234
G1 X-14.475 Y-1.829 A9.70415
G1 X-14.132 Y-3.629 A9.80593
G1 X-13.566 Y-5.371 A9.90772
G1 X-12.786 Y-7.029 A10.00950
G1 X-11.804 Y-8.576 A10.11132
G1 X-10.636 Y-9.988 A10.21310
G1 X-9.300 Y-11.242 A10.31489
G1 X-7.823 Y-12.316 A10.41637
G1 X-6.212 Y-13.202 A10.51850
G1 X-4.503 Y-13.878 A10.62059
G1 X-2.734 Y-14.332 A10.72207
G1 X-0.916 Y-14.562 A10.82386
G1 X0.916 Y-14.562 A10.92565 F3600.000
G1 X2.734 Y-14.332 A11.02745
G1 X4.508 Y-13.876 A11.12922
G1 X6.207 Y-13.204 A11.23072
G1 X7.823 Y-12.316 A11.33313
G1 X9.300 Y-11.242 A11.43462
G1 X10.636 Y-9.988 A11.53641
G1 X11.804 Y-8.576 A11.63819
G1 X12.786 Y-7.029 A11.74001
G1 X13.566 Y-5.371 A11.84179
G1 X14.132 Y-3.629 A11.94358
G1 X14.475 Y-1.829 A12.04536
G1 X14.590 Y-0.000 A12.14717
G1 X14.475 Y1.829 A12.24898
G1 X14.132 Y3.629 A12.35076
G1 X13.860 Y4.467 A12.39975
G1 X13.318 Y4.370 F7800.000
G1 X13.058 Y5.170 A12.43085 F1800.000
G1 X12.307 Y6.766 A12.49606
G1 X11.362 Y8.255 A12.56129
G1 X10.238 Y9.614 A12.62650
G1 X8.952 Y10.821 A12.69171
G1 X7.530 Y11.855 A12.75672
G1 X5.979 Y12.708 A12.82216
G1 X4.334 Y13.358 A12.88757
G1 X2.632 Y13.796 A12.95257
G1 X0.882 Y14.017 A13.01779
G1 X-0.882 Y14.017 A13.08300
G1 X-2.632 Y13.796 A13.14822
G1 X-4.340 Y13.357 A13.21342
G1 X-5.975 Y12.710 A13.27844
G1 X-7.530 Y11.855 A13.34407
G1 X-8.952 Y10.821 A13.40908
G1 X-10.238 Y9.614 A13.47430
G1 X-11.362 Y8.255 A13.53950
G1 X-12.307 Y6.766 A13.60473
G1 X-13.058 Y5.170 A13.66994
G1 X-13.603 Y3.493 A13.73515
G1 X-13.934 Y1.761 A13.80036
G1 X-14.044 Y-0.000 A13.86559
G1 X-13.934 Y-1.761 A13.93081
G1 X-13.603 Y-3.493 A13.99602
G1 X-13.058 Y-5.170 A14.06123
G1 X-12.307 Y-6.766 A14.12644
G1 X-11.362 Y-8.255 A14.19167
G1 X-10.238 Y-9.614 A14.25688
G1 X-8.952 Y-10.821 A14.32210
G1 X-7.530 Y-11.855 A14.38710
G1 X-5.979 Y-12.708 A14.45254
G1 X-4.334 Y-13.358 A14.51795
G1 X-2.632 Y-13.796 A14.58296
G1 X-0.882 Y-14.017 A14.64817
G1 X0.882 Y-14.017 A14.71339 F1800.000
G1 X2.632 Y-13.796 A14.77860
G1 X4.340 Y-13.357 A14.84381
G1 X5.975 Y-12.710 A14.90882
G1 X7.530 Y-11.855 A14.97445
G1 X8.952 Y-10.821 A15.03946
G1 X10.238 Y-9.614 A15.10468
G1 X11.362 Y-8.255 A15.16988
G1 X12.307 Y-6.766 A15.23512
G1 X13.058 Y-5.170 A15.30032
G1 X13.603 Y-3.493 A15.36553
G1 X13.934 Y-1.761 A15.43074
G1 X14.044 Y-0.000 A15.49597
G1 X13.934 Y1.761 A15.56120
G1 X13.603 Y3.493 A15.62640
G1 X13.341 Y4.299 A15.65774
G1 X13.653 Y4.742 F7800.000
G1 X18.550 Y4.370 F7800.000
G1 X18.550 Y14.924 A16.24407 F3600.000
G1 X18.465 Y15.737 A16.28946
G1 X18.236 Y16.441 A16.33060
G1 X17.866 Y17.082 A16.37174
G1 X17.370 Y17.633 A16.41288
G1 X16.771 Y18.068 A16.45403
G1 X16.095 Y18.369 A16.49517
G1 X15.370 Y18.523 A16.53632
G1 X-15.370 Y18.523 A18.24412
G1 X-16.095 Y18.369 A18.28527
G1 X-16.771 Y18.068 A18.32641
G1 X-17.370 Y17.633 A18.36756
G1 X-17.866 Y17.082 A18.40870
G1 X-18.236 Y16.441 A18.44984
G1 X-18.465 Y15.737 A18.49098
G1 X-18.550 Y14.924 A18.53637
G1 X-18.550 Y-14.924 A20.19459
G1 X-18.465 Y-15.737 A20.23998
G1 X-18.236 Y-16.441 A20.28113
G1 X-17.866 Y-17.082 A20.32227
G1 X-17.370 Y-17.633 A20.36341
G1 X-16.771 Y-18.068 A20.40455
G1 X-16.095 Y-18.369 A20.44570
G1 X-15.370 Y-18.523 A20.48684
G1 X15.370 Y-18.523 A22.19465
G1 X15.658 Y-18.462 A22.21096
G1 X16.095 Y-18.369 A22.23579 F3600.000
G1 X16.771 Y-18.068 A22.27693
G1 X17.370 Y-17.633 A22.31808
G1 X17.866 Y-17.082 A22.35922
G1 X18.236 Y-16.441 A22.40036
G1 X18.465 Y-15.737 A22.44151
G1 X18.550 Y-14.924 A22.48689
G1 X18.550 Y4.295 A23.55462
G1 X19.205 Y4.370 F7800.000
G1 X19.205 Y14.958 A24.14286 F3600.000
G1 X19.109 Y15.873 A24.19397
G1 X18.837 Y16.709 A24.24276
G1 X18.398 Y17.469 A24.29154
G1 X17.811 Y18.122 A24.34033
G1 X17.100 Y18.638 A24.38912
G1 X16.298 Y18.995 A24.43790
G1 X15.439 Y19.178 A24.48669
G1 X-15.439 Y19.178 A26.20214
G1 X-16.298 Y18.995 A26.25093
G1 X-17.100 Y18.638 A26.29972
G1 X-17.811 Y18.122 A26.34851
G1 X-18.398 Y17.469 A26.39729
G1 X-18.837 Y16.709 A26.44607
G1 X-19.109 Y15.873 A26.49486
G1 X-19.205 Y14.958 A26.54598
G1 X-19.205 Y-14.958 A28.20801
G1 X-19.109 Y-15.873 A28.25913
G1 X-18.837 Y-16.709 A28.30791
G1 X-18.398 Y-17.469 A28.35670
G1 X-17.811 Y-18.122 A28.40548
G1 X-17.100 Y-18.638 A28.45427
G1 X-16.298 Y-18.995 A28.50306
G1 X-15.439 Y-19.178 A28.55185
G1 X15.439 Y-19.178 A30.26730
G1 X15.794 Y-19.102 A30.28743
G1 X16.298 Y-18.995 A30.31608 F3600.000
G1 X17.100 Y-18.638 A30.36487
G1 X17.811 Y-18.122 A30.41366
G1 X18.398 Y-17.469 A30.46244
G1 X18.837 Y-16.709 A30.51123
G1 X19.109 Y-15.873 A30.56001
G1 X19.205 Y-14.958 A30.61113
G1 X19.205 Y4.295 A31.68077
G1 X19.750 Y4.370 F7800.000
G1 X19.750 Y14.987 A32.07334 F1800.000
G1 X19.645 Y15.987 A32.11053
G1 X19.338 Y16.931 A32.14724
G1 X18.842 Y17.791 A32.18395
G1 X18.177 Y18.529 A32.22065
G1 X17.374 Y19.112 A32.25736
G1 X16.467 Y19.516 A32.29407
G1 X15.496 Y19.723 A32.33078
G1 X-15.496 Y19.723 A33.47678
G1 X-16.467 Y19.516 A33.51349
G1 X-17.374 Y19.112 A33.55020
G1 X-18.177 Y18.529 A33.58691
G1 X-18.842 Y17.791 A33.62362
G1 X-19.338 Y16.931 A33.66032
G1 X-19.645 Y15.987 A33.69703
G1 X-19.750 Y14.987 A33.73422
G1 X-19.750 Y-14.987 A34.84255
G1 X-19.645 Y-15.987 A34.87975
G1 X-19.338 Y-16.931 A34.91646
G1 X-18.842 Y-17.791 A34.95316
G1 X-18.177 Y-18.529 A34.98987
G1 X-17.374 Y-19.112 A35.02658
G1 X-16.467 Y-19.516 A35.06328
G1 X-15.496 Y-19.723 A35.09999
G1 X15.496 Y-19.723 A36.24600
G1 X15.907 Y-19.635 A36.26152
G1 X16.467 Y-19.516 A36.28270 F1800.000
G1 X17.374 Y-19.112 A36.31941
G1 X18.177 Y-18.529 A36.35612
G1 X18.842 Y-17.791 A36.39283
G1 X19.338 Y-16.931 A36.42953
G1 X19.645 Y-15.987 A36.46624
G1 X19.750 Y-14.987 A36.50344
G1 X19.750 Y4.295 A37.21642
G1 X19.317 Y4.620 F7800.000
G1 X18.153 Y-3.875 F7800.000
G1 X12.886 Y-9.142 A37.63550 F1200.000
G1 X13.999 Y-7.091 F7800.000
G1 X18.153 Y-2.937 A37.96600 F1200.000
G1 X18.153 Y-2.000 A38.01874
G1 X14.697 Y-5.456 A38.29374
G1 X15.148 Y-4.068 A38.37588
G1 X18.153 Y-1.063 A38.61499
G1 X18.153 Y-0.125 A38.66772
G1 X15.369 Y-2.909 A38.88920
G1 X15.540 Y-1.801 A38.95229
G1 X18.153 Y0.812 A39.16018
G1 X18.153 Y1.750 A39.21291
G1 X15.603 Y-0.800 A39.41578
G1 X15.626 Y0.160 A39.46982
G1 X18.153 Y2.687 A39.67088
G1 X18.153 Y3.624 A39.72361
G1 X15.571 Y1.042 A39.92908
G1 X15.506 Y1.915 A39.97832
G1 X18.153 Y4.562 A40.18893
G1 X18.153 Y5.499 A40.24166
G1 X15.356 Y2.702 A40.46422
G1 X15.206 Y3.489 A40.50930
G1 X18.153 Y6.436 A40.74380
G1 X18.153 Y7.374 A40.79654
G1 X15.006 Y4.227 A41.04693
G1 X14.776 Y4.934 A41.08878
G1 X18.153 Y8.311 A41.35746
G1 X18.153 Y9.248 A41.41020
G1 X14.546 Y5.641 A41.69717
G1 X14.249 Y6.282 A41.73688
G1 X18.153 Y10.186 A42.04748
G1 X18.153 Y11.123 A42.10022
G1 X13.949 Y6.919 A42.43468
G1 X13.690 Y7.597 A42.47552
G1 X18.153 Y12.060 A42.83062
G1 X18.153 Y12.998 A42.88336
G1 X13.326 Y8.171 A43.26742
G1 X12.962 Y8.744 A43.30563
G1 X18.153 Y13.935 A43.71865
G1 X18.153 Y14.872 A43.77138
G1 X12.584 Y9.303 A44.21451
G1 X12.159 Y9.816 A44.25197
G1 X18.079 Y15.736 A44.72299
G1 X17.840 Y16.434 A44.76451
G1 X11.735 Y10.329 A45.25026
G1 X11.296 Y10.827 A45.28762
G1 X17.476 Y17.007 A45.77934
G1 X17.006 Y17.474 A45.81663
G1 X10.812 Y11.281 A46.30941
G1 X10.329 Y11.735 A46.34672
G1 X16.428 Y17.834 A46.83201
G1 X15.724 Y18.068 A46.87372
G1 X9.831 Y12.174 A47.34267
G1 X9.288 Y12.568 A47.38042
G1 X14.845 Y18.126 A47.82258
G1 X13.908 Y18.126 A47.87532
G1 X8.745 Y12.963 A48.28609
G1 X8.184 Y13.339 A48.32409
G1 X12.970 Y18.126 A48.70490
G1 X12.033 Y18.126 A48.75763
G1 X7.579 Y13.672 A49.11197
G1 X6.975 Y14.005 A49.15080
G1 X11.095 Y18.126 A49.47868
G1 X10.158 Y18.126 A49.53142
G1 X6.290 Y14.258 A49.83915
G1 X5.619 Y14.523 A49.87979
G1 X9.221 Y18.126 A50.16639
G1 X8.283 Y18.126 A50.21913
G1 X4.947 Y14.789 A50.48459
G1 X4.225 Y15.004 A50.52699
G1 X7.346 Y18.126 A50.77533
G1 X6.409 Y18.126 A50.82807
G1 X3.479 Y15.196 A51.06118
G1 X2.723 Y15.377 A51.10491
G1 X5.471 Y18.126 A51.32358
G1 X4.534 Y18.126 A51.37631
G1 X1.891 Y15.482 A51.58662
G1 X1.059 Y15.588 A51.63381
G1 X3.597 Y18.126 A51.83574
G1 X2.659 Y18.126 A51.88848
G1 X0.147 Y15.614 A52.08834
G1 X-0.790 Y15.614 A52.14108
G1 X1.722 Y18.126 A52.34094
G1 X0.785 Y18.126 A52.39367
G1 X-1.814 Y15.527 A52.60041
G1 X-2.886 Y15.392 A52.66125
G1 X-0.153 Y18.126 A52.87876
G1 X-1.090 Y18.126 A52.93150
G1 X-4.111 Y15.105 A53.17184
G1 X-5.454 Y14.699 A53.25078
G1 X-2.027 Y18.126 A53.52341
G1 X-2.965 Y18.126 A53.57615
G1 X-6.883 Y14.207 A53.88790
G1 X-9.177 Y12.850 F7800.000
G1 X-3.902 Y18.126 A54.30763 F1200.000
G1 X-4.839 Y18.126 A54.36036
G1 X-18.153 Y4.812 A55.41965
G1 X-18.153 Y3.875 A55.47238
G1 X-12.886 Y9.142 A55.89147
G1 X-13.999 Y7.091 F7800.000
G1 X-18.153 Y2.937 A56.22197 F1200.000
G1 X-18.153 Y2.000 A56.27471
G1 X-14.697 Y5.456 A56.54972
G1 X-15.148 Y4.068 A56.63185
G1 X-18.153 Y1.063 A56.87096
G1 X-18.153 Y0.125 A56.92370
G1 X-15.369 Y2.909 A57.14518
G1 X-15.540 Y1.801 A57.20827
G1 X-18.153 Y-0.812 A57.41615
G1 X-18.153 Y-1.749 A57.46889
G1 X-15.603 Y0.800 A57.67176
G1 X-15.626 Y-0.160 A57.72580
G1 X-18.153 Y-2.687 A57.92685
G1 X-18.153 Y-3.624 A57.97959
G1 X-15.571 Y-1.042 A58.18506
G1 X-15.506 Y-1.915 A58.23430
G1 X-18.153 Y-4.561 A58.44490
G1 X-18.153 Y-5.499 A58.49764
G1 X-15.356 Y-2.702 A58.72019
G1 X-15.206 Y-3.489 A58.76528
G1 X-18.153 Y-6.436 A58.99978
G1 X-18.153 Y-7.374 A59.05251
G1 X-15.006 Y-4.226 A59.30290
G1 X-14.776 Y-4.934 A59.34475
G1 X-18.153 Y-8.311 A59.61343
G1 X-18.153 Y-9.248 A59.66617
G1 X-14.546 Y-5.641 A59.95314
G1 X-14.249 Y-6.282 A59.99285
G1 X-18.153 Y-10.186 A60.30345
G1 X-18.153 Y-11.123 A60.35618
G1 X-13.949 Y-6.919 A60.69065
G1 X-13.690 Y-7.597 A60.73148
G1 X-18.153 Y-12.060 A61.08659
G1 X-18.153 Y-12.998 A61.13932
G1 X-13.326 Y-8.171 A61.52338
G1 X-12.962 Y-8.744 A61.56159
G1 X-18.153 Y-13.935 A61.97461
G1 X-18.153 Y-14.872 A62.02734
G1 X-12.584 Y-9.303 A62.47047
G1 X-12.159 Y-9.816 A62.50793
G1 X-18.079 Y-15.736 A62.97895
G1 X-17.840 Y-16.434 A63.02047
G1 X-11.735 Y-10.329 A63.50622
G1 X-11.296 Y-10.827 A63.54358
G1 X-17.476 Y-17.007 A64.03530
G1 X-17.006 Y-17.474 A64.07259
G1 X-10.812 Y-11.281 A64.56537
G1 X-10.329 Y-11.735 A64.60267
G1 X-16.428 Y-17.834 A65.08797
G1 X-15.724 Y-18.068 A65.12968
G1 X-9.831 Y-12.174 A65.59863
G1 X-9.288 Y-12.568 A65.63639
G1 X-14.845 Y-18.126 A66.07854
G1 X-13.908 Y-18.126 A66.13128
G1 X-8.745 Y-12.963 A66.54205
G1 X-8.184 Y-13.339 A66.58005
G1 X-12.970 Y-18.126 A66.96086
G1 X-12.033 Y-18.126 A67.01360
G1 X-7.579 Y-13.672 A67.36794
G1 X-6.975 Y-14.005 A67.40677
G1 X-11.096 Y-18.126 A67.73465
G1 X-10.158 Y-18.126 A67.78738
G1 X-6.290 Y-14.258 A68.09512
G1 X-5.619 Y-14.523 A68.13576
G1 X-9.221 Y-18.126 A68.42236
G1 X-8.284 Y-18.126 A68.47509
G1 X-4.947 Y-14.789 A68.74056
G1 X-4.225 Y-15.004 A68.78296
G1 X-7.346 Y-18.126 A69.03130
G1 X-6.409 Y-18.126 A69.08404
G1 X-3.479 Y-15.196 A69.31715
G1 X-2.723 Y-15.377 A69.36088
G1 X-5.471 Y-18.126 A69.57955
G1 X-4.534 Y-18.126 A69.63229
G1 X-1.891 Y-15.482 A69.84259
G1 X-1.059 Y-15.588 A69.88978
G1 X-3.597 Y-18.126 A70.09172
G1 X-2.659 Y-18.126 A70.14445
G1 X-0.148 Y-15.614 A70.34431
G1 X0.790 Y-15.614 A70.39705
G1 X-1.722 Y-18.126 A70.59691
G1 X-0.785 Y-18.126 A70.64965
G1 X1.814 Y-15.527 A70.85638
G1 X2.886 Y-15.392 A70.91722
G1 X0.153 Y-18.126 A71.13474
G1 X1.090 Y-18.126 A71.18747
G1 X4.111 Y-15.105 A71.42782
G1 X5.454 Y-14.699 A71.50675
G1 X2.027 Y-18.126 A71.77938
G1 X2.965 Y-18.126 A71.83212
G1 X6.883 Y-14.207 A72.14386
G1 X9.177 Y-12.850 F7800.000
G1 X3.902 Y-18.126 A72.56358 F1200.000
G1 X4.839 Y-18.126 A72.61631
G1 X18.153 Y-4.812 A73.67561
G1 X18.153 Y-5.749 A73.72834
G1 X5.777 Y-18.126 A74.71305
G1 X6.714 Y-18.126 A74.76579
G1 X18.153 Y-6.687 A75.67592
G1 X18.153 Y-7.624 A75.72866
G1 X7.651 Y-18.126 A76.56422
G1 X8.589 Y-18.126 A76.61695
G1 X18.153 Y-8.561 A77.37793
G1 X18.153 Y-9.499 A77.43066
G1 X9.526 Y-18.126 A78.11706
G1 X10.463 Y-18.126 A78.16980
G1 X18.153 Y-10.436 A78.78162
G1 X18.153 Y-11.373 A78.83435
G1 X11.401 Y-18.126 A79.37159
G1 X12.338 Y-18.126 A79.42433
G1 X18.153 Y-12.311 A79.88699
G1 X18.153 Y-13.248 A79.93973
G1 X13.275 Y-18.126 A80.32781
G1 X14.213 Y-18.126 A80.38055
G1 X18.153 Y-14.185 A80.69405
G1 X18.110 Y-15.166 A80.74926
G1 X15.150 Y-18.126 A80.98477
G1 X16.767 Y-17.446 F7800.000
G1 X17.405 Y-16.808 A81.03554 F1200.000
G1 A79.03554 F2400.00000
G92 A0
G1 X-5.777 Y18.126 F7800.000
G1 A2.00000 F2400.00000
G1 X-18.153 Y5.749 A2.98471 F1200.000
G1 X-18.153 Y6.687 A3.03744
G1 X-6.714 Y18.126 A3.94758
G1 X-7.651 Y18.126 A4.00031
G1 X-18.153 Y7.624 A4.83586
G1 X-18.153 Y8.561 A4.88860
G1 X-8.589 Y18.126 A5.64957
G1 X-9.526 Y18.126 A5.70231
G1 X-18.153 Y9.499 A6.38870
G1 X-18.153 Y10.436 A6.44144
G1 X-10.463 Y18.126 A7.05325
G1 X-11.401 Y18.126 A7.10599
G1 X-18.153 Y11.373 A7.64323
G1 X-18.153 Y12.311 A7.69596
G1 X-12.338 Y18.126 A8.15862
G1 X-13.275 Y18.126 A8.21135
G1 X-18.153 Y13.248 A8.59943
G1 X-18.153 Y14.185 A8.65217
G1 X-14.213 Y18.126 A8.96567
G1 X-15.150 Y18.126 A9.01841
G1 X-18.110 Y15.166 A9.25391
G1 X-17.405 Y16.808 F7800.000
G1 X-16.767 Y17.446 A9.30464 F1200.000
M106 P209.1
G1 Z1.250 F7800.000
G1 A7.30464 F2400.00000
G92 A0
G1 X14.768 Y3.420 F7800.000
G1 A2.00000 F2400.00000
G1 X14.701 Y3.775 A2.02007 F3600.000
G1 X14.112 Y5.587 A2.12595
G1 X13.300 Y7.312 A2.23183
G1 X12.279 Y8.921 A2.33774
G1 X11.064 Y10.390 A2.44362
G1 X9.675 Y11.694 A2.54951
G1 X8.132 Y12.815 A2.65541
G1 X6.462 Y13.733 A2.76129
G1 X4.682 Y14.437 A2.86761
G1 X2.844 Y14.909 A2.97306
G1 X0.953 Y15.148 A3.07895
G1 X-0.953 Y15.148 A3.18484
G1 X-2.844 Y14.909 A3.29073
G1 X-4.690 Y14.435 A3.39660
G1 X-6.455 Y13.736 A3.50209
G1 X-8.139 Y12.810 A3.60881
G1 X-9.675 Y11.694 A3.71428
G1 X-11.064 Y10.390 A3.82017
G1 X-12.279 Y8.921 A3.92605
G1 X-13.169 Y7.519 A4.01830
G1 X-13.300 Y7.312 A4.03196
G1 X-14.112 Y5.587 A4.13784
G1 X-14.701 Y3.775 A4.24372
G1 X-15.058 Y1.903 A4.34960
G1 X-15.178 Y-0.000 A4.45551
G1 X-15.058 Y-1.903 A4.56141
G1 X-14.701 Y-3.775 A4.66729
G1 X-14.112 Y-5.587 A4.77317
G1 X-13.300 Y-7.312 A4.87905
G1 X-12.279 Y-8.921 A4.98497
G1 X-11.064 Y-10.390 A5.09084
G1 X-9.675 Y-11.694 A5.19673
G1 X-8.337 Y-12.666 A5.28857
G1 X-8.132 Y-12.815 A5.30263
G1 X-6.462 Y-13.733 A5.40850
G1 X-4.690 Y-14.435 A5.51442
G1 X-2.844 Y-14.909 A5.62029
G1 X-0.953 Y-15.148 A5.72618
G1 X0.953 Y-15.148 A5.83207 F3600.000
G1 X2.844 Y-14.909 A5.93796
G1 X4.690 Y-14.435 A6.04383
G1 X6.455 Y-13.736 A6.14932
G1 X8.139 Y-12.810 A6.25604
G1 X9.675 Y-11.694 A6.36151
G1 X11.064 Y-10.390 A6.46740
G1 X12.279 Y-8.921 A6.57327
G1 X13.300 Y-7.312 A6.67919
G1 X14.112 Y-5.587 A6.78507
G1 X14.701 Y-3.775 A6.89095
G1 X15.058 Y-1.903 A6.99683
G1 X15.178 Y-0.000 A7.10273
G1 X15.058 Y1.903 A7.20864
G1 X14.782 Y3.346 A7.29029
G1 X14.125 Y3.297 F7800.000
G1 X14.065 Y3.612 A7.30807 F3600.000
G1 X13.502 Y5.346 A7.40937
G1 X12.726 Y6.996 A7.51068
G1 X11.748 Y8.536 A7.61202
G1 X10.586 Y9.941 A7.71332
G1 X9.256 Y11.189 A7.81463
G1 X7.781 Y12.261 A7.91595
G1 X6.183 Y13.140 A8.01726
G1 X4.480 Y13.813 A8.11900
G1 X2.721 Y14.265 A8.21988
G1 X0.912 Y14.493 A8.32120
G1 X-0.912 Y14.493 A8.42251
G1 X-2.721 Y14.265 A8.52383
G1 X-4.487 Y13.811 A8.62512
G1 X-6.176 Y13.142 A8.72604
G1 X-7.787 Y12.257 A8.82818
G1 X-9.256 Y11.189 A8.92908
G1 X-10.586 Y9.941 A9.03039
G1 X-11.748 Y8.536 A9.13169
G1 X-12.616 Y7.169 A9.22166
G1 X-12.726 Y6.996 A9.23303
G1 X-13.502 Y5.346 A9.33433
G1 X-14.065 Y3.612 A9.43564
G1 X-14.407 Y1.820 A9.53694
G1 X-14.522 Y-0.000 A9.63827
G1 X-14.407 Y-1.820 A9.73960
G1 X-14.065 Y-3.612 A9.84091
G1 X-13.502 Y-5.346 A9.94222
G1 X-12.726 Y-6.996 A10.04352
G1 X-11.748 Y-8.536 A10.14486
G1 X-10.586 Y-9.941 A10.24616
G1 X-9.256 Y-11.189 A10.34747
G1 X-7.953 Y-12.137 A10.43702
G1 X-7.781 Y-12.261 A10.44879
G1 X-6.183 Y-13.140 A10.55009
G1 X-4.487 Y-13.811 A10.65143
G1 X-2.721 Y-14.264 A10.75273
G1 X-0.912 Y-14.493 A10.85404
G1 X0.912 Y-14.493 A10.95536 F3600.000
G1 X2.721 Y-14.264 A11.05667
G1 X4.487 Y-13.811 A11.15797
G1 X6.176 Y-13.142 A11.25888
G1 X7.787 Y-12.257 A11.36103
G1 X9.256 Y-11.189 A11.46192
G1 X10.586 Y-9.941 A11.56324
G1 X11.748 Y-8.536 A11.66454
G1 X12.726 Y-6.996 A11.76588
G1 X13.502 Y-5.346 A11.86718
G1 X14.065 Y-3.612 A11.96849
G1 X14.407 Y-1.820 A12.06979
G1 X14.522 Y-0.000 A12.17112
G1 X14.407 Y1.820 A12.27245
G1 X14.140 Y3.223 A12.35181
G1 X13.590 Y3.195 F7800.000
G1 X13.537 Y3.476 A12.36238 F1800.000
G1 X12.994 Y5.145 A12.42727
G1 X12.247 Y6.733 A12.49216
G1 X11.306 Y8.215 A12.55707
G1 X10.188 Y9.567 A12.62196
G1 X8.908 Y10.768 A12.68685
G1 X7.488 Y11.800 A12.75175
G1 X5.951 Y12.645 A12.81664
G1 X4.311 Y13.293 A12.88182
G1 X2.619 Y13.728 A12.94644
G1 X0.878 Y13.948 A13.01133
G1 X-0.878 Y13.948 A13.07623
G1 X-2.619 Y13.728 A13.14113
G1 X-4.318 Y13.292 A13.20601
G1 X-5.944 Y12.648 A13.27064
G1 X-7.495 Y11.796 A13.33609
G1 X-8.908 Y10.768 A13.40071
G1 X-10.188 Y9.567 A13.46560
G1 X-11.306 Y8.215 A13.53049
G1 X-12.156 Y6.877 A13.58910
G1 X-12.247 Y6.733 A13.59540
G1 X-12.994 Y5.145 A13.66029
G1 X-13.537 Y3.476 A13.72519
G1 X-13.865 Y1.752 A13.79008
G1 X-13.976 Y-0.000 A13.85498
G1 X-13.865 Y-1.752 A13.91989
G1 X-13.537 Y-3.476 A13.98478
G1 X-12.994 Y-5.145 A14.04967
G1 X-12.247 Y-6.733 A14.11456
G1 X-11.306 Y-8.215 A14.17947
G1 X-10.188 Y-9.567 A14.24436
G1 X-8.908 Y-10.768 A14.30926
G1 X-7.632 Y-11.696 A14.36758
G1 X-7.488 Y-11.800 A14.37415
G1 X-5.951 Y-12.645 A14.43904
G1 X-4.318 Y-13.292 A14.50396
G1 X-2.619 Y-13.728 A14.56884
G1 X-0.878 Y-13.948 A14.63374
G1 X0.878 Y-13.948 A14.69863 F1800.000
G1 X2.619 Y-13.728 A14.76353
G1 X4.318 Y-13.292 A14.82842
G1 X5.944 Y-12.648 A14.89305
G1 X7.495 Y-11.796 A14.95849
G1 X8.908 Y-10.768 A15.02311
G1 X10.188 Y-9.567 A15.08801
G1 X11.306 Y-8.215 A15.15290
G1 X12.247 Y-6.733 A15.21781
G1 X12.994 Y-5.145 A15.28270
G1 X13.537 Y-3.476 A15.34759
G1 X13.865 Y-1.752 A15.41248
G1 X13.976 Y-0.000 A15.47739
G1 X13.865 Y1.752 A15.54229
G1 X13.604 Y3.121 A15.59385
G1 X13.806 Y3.382 F7800.000
G1 X18.550 Y3.195 F7800.000
G1 X18.550 Y14.924 A16.24546 F3600.000
G1 X18.465 Y15.737 A16.29084
G1 X18.236 Y16.441 A16.33199
G1 X17.866 Y17.082 A16.37313
G1 X17.370 Y17.633 A16.41427
G1 X16.771 Y18.068 A16.45542
G1 X16.095 Y18.369 A16.49656
G1 X15.370 Y18.523 A16.53770
G1 X-15.370 Y18.523 A18.24551
G1 X-16.095 Y18.369 A18.28665
G1 X-16.771 Y18.068 A18.32780
G1 X-17.370 Y17.633 A18.36894
G1 X-17.866 Y17.082 A18.41008
G1 X-18.236 Y16.441 A18.45122
G1 X-18.465 Y15.737 A18.49237
G1 X-18.550 Y14.924 A18.53776
G1 X-18.550 Y-14.924 A20.19598
G1 X-18.465 Y-15.737 A20.24137
G1 X-18.236 Y-16.441 A20.28251
G1 X-17.866 Y-17.082 A20.32365
G1 X-17.370 Y-17.633 A20.36479
G1 X-16.771 Y-18.068 A20.40594
G1 X-16.095 Y-18.369 A20.44708
G1 X-15.370 Y-18.523 A20.48823
G1 X15.370 Y-18.523 A22.19604
G1 X15.835 Y-18.424 A22.22242
G1 X16.095 Y-18.369 A22.23718 F3600.000
G1 X16.771 Y-18.068 A22.27832
G1 X17.370 Y-17.633 A22.31947
G1 X17.866 Y-17.082 A22.36061
G1 X18.236 Y-16.441 A22.40175
G1 X18.465 Y-15.737 A22.44289
G1 X18.550 Y-14.924 A22.48828
G1 X18.550 Y3.120 A23.49073
G1 X19.205 Y3.195 F7800.000
G1 X19.205 Y14.958 A24.14424 F3600.000
G1 X19.109 Y15.873 A24.19536
G1 X18.837 Y16.709 A24.24415
G1 X18.398 Y17.469 A24.29293
G1 X17.811 Y18.122 A24.34172
G1 X17.100 Y18.638 A24.39050
G1 X16.298 Y18.995 A24.43929
G1 X15.439 Y19.178 A24.48808
G1 X-15.439 Y19.178 A26.20353
G1 X-16.298 Y18.995 A26.25232
G1 X-17.100 Y18.638 A26.30110
G1 X-17.811 Y18.122 A26.34989
G1 X-18.398 Y17.469 A26.39868
G1 X-18.837 Y16.709 A26.44746
G1 X-19.109 Y15.873 A26.49625
G1 X-19.205 Y14.958 A26.54736
G1 X-19.205 Y-14.958 A28.20940
G1 X-19.109 Y-15.873 A28.26052
G1 X-18.837 Y-16.709 A28.30930
G1 X-18.398 Y-17.469 A28.35809
G1 X-17.811 Y-18.122 A28.40687
G1 X-17.100 Y-18.638 A28.45566
G1 X-16.298 Y-18.995 A28.50445
G1 X-15.439 Y-19.178 A28.55323
G1 X15.439 Y-19.178 A30.26868
G1 X15.971 Y-19.065 A30.29889
G1 X16.298 Y-18.995 A30.31747 F3600.000
G1 X17.100 Y-18.638 A30.36626
G1 X17.811 Y-18.122 A30.41505
G1 X18.398 Y-17.469 A30.46383
G1 X18.837 Y-16.709 A30.51262
G1 X19.109 Y-15.873 A30.56140
G1 X19.205 Y-14.958 A30.61252
G1 X19.205 Y3.120 A31.61687
G1 X19.750 Y3.195 F7800.000
G1 X19.750 Y14.987 A32.05289 F1800.000
G1 X19.645 Y15.987 A32.09009
G1 X19.338 Y16.931 A32.12680
G1 X18.842 Y17.791 A32.16350
G1 X18.177 Y18.529 A32.20021
G1 X17.374 Y19.112 A32.23692
G1 X16.467 Y19.516 A32.27363
G1 X15.496 Y19.723 A32.31034
G1 X-15.496 Y19.723 A33.45634
G1 X-16.467 Y19.516 A33.49305
G1 X-17.374 Y19.112 A33.52975
G1 X-18.177 Y18.529 A33.56646
G1 X-18.842 Y17.791 A33.60317
G1 X-19.338 Y16.931 A33.63988
G1 X-19.645 Y15.987 A33.67658
G1 X-19.750 Y14.987 A33.71378
G1 X-19.750 Y-14.987 A34.82211
G1 X-19.645 Y-15.987 A34.85930
G1 X-19.338 Y-16.931 A34.89601
G1 X-18.842 Y-17.791 A34.93272
G1 X-18.177 Y-18.529 A34.96942
G1 X-17.374 Y-19.112 A35.00613
G1 X-16.467 Y-19.516 A35.04284
G1 X-15.496 Y-19.723 A35.07955
G1 X15.496 Y-19.723 A36.22555
G1 X16.084 Y-19.598 A36.24777
G1 X16.467 Y-19.516 A36.26226 F1800.000
G1 X17.374 Y-19.112 A36.29897
G1 X18.177 Y-18.529 A36.33568
G1 X18.842 Y-17.791 A36.37238
G1 X19.338 Y-16.931 A36.40909
G1 X19.645 Y-15.987 A36.44580
G1 X19.750 Y-14.987 A36.48299
G1 X19.750 Y3.120 A37.15252
G1 X19.317 Y3.445 F7800.000
G1 X17.994 Y6.662 F7800.000
G1 X16.749 Y6.328 A37.22411 F4800.000
G1 X13.810 Y9.267 A37.45503
G1 X14.593 Y12.187 A37.62298
G1 X11.654 Y15.126 A37.85390
G1 X8.734 Y14.344 A38.02185
G1 X5.794 Y17.283 A38.25277
G1 X5.978 Y17.967 A38.29209
G1 X0.483 Y17.967 A38.59735
G1 X2.412 Y16.038 A38.74890
G1 X5.332 Y16.820 A38.91684
G1 X8.271 Y13.881 A39.14776
G1 X8.152 Y13.439 A39.17321
G1 X8.431 Y13.286 A39.19088
G1 X10.030 Y12.124 A39.30067
G1 X11.470 Y10.771 A39.41045
G1 X12.730 Y9.249 A39.52021
G1 X13.061 Y8.728 A39.55452
G1 X13.347 Y8.804 A39.57103
G1 X16.287 Y5.865 A39.80195
G1 X15.504 Y2.945 A39.96989
G1 X17.994 Y0.455 A40.16552
G1 X17.994 Y6.662 A40.51030
G1 X17.975 Y13.432 F7800.000
G1 X17.994 Y13.414 A40.51177 F4800.000
G1 X17.994 Y14.895 A40.59405
G1 X17.918 Y15.620 A40.63457
G1 X17.725 Y16.213 A40.66922
G1 X17.413 Y16.753 A40.70386
G1 X16.996 Y17.217 A40.73851
G1 X16.492 Y17.583 A40.77316
G1 X15.922 Y17.837 A40.80780
G1 X15.312 Y17.967 A40.84245
G1 X12.753 Y17.967 A40.98458
G1 X12.116 Y15.589 A41.12133
G1 X15.056 Y12.650 A41.35225
G1 X17.975 Y13.432 A41.52020
G1 X17.994 Y-4.173 F7800.000
G1 X17.198 Y-3.377 A41.58273 F4800.000
G1 X17.981 Y-0.457 A41.75068
G1 X15.615 Y1.909 A41.93655
G1 X15.735 Y-0.000 A42.04282
G1 X15.611 Y-1.972 A42.15262
G1 X15.241 Y-3.913 A42.26238
G1 X15.124 Y-4.271 A42.28330
G1 X16.735 Y-3.840 A42.37597
G1 X17.994 Y-5.098 A42.47486
G1 X17.994 Y-4.173 A42.52628
G1 X17.413 Y-16.753 F7800.000
G1 X17.725 Y-16.213 A42.56093 F4800.000
G1 X17.918 Y-15.620 A42.59557
G1 X17.994 Y-14.895 A42.63609
G1 X17.994 Y-10.278 A42.89258
G1 X15.509 Y-10.944 A43.03549
G1 X13.151 Y-8.585 A43.22080
G1 X12.791 Y-9.152 A43.25805
G1 X15.047 Y-11.407 A43.43523
G1 X14.264 Y-14.327 A43.60318
G1 X17.071 Y-17.134 A43.82371
G1 X17.413 Y-16.753 A43.85213
G1 X15.719 Y-17.880 F7800.000
G1 X15.922 Y-17.837 A43.86364 F4800.000
G1 X16.492 Y-17.583 A43.89829
G1 X16.552 Y-17.540 A43.90241
G1 X13.801 Y-14.790 A44.11849
G1 X10.881 Y-15.572 A44.28644
G1 X8.526 Y-13.217 A44.47149
G1 X7.939 Y-13.555 A44.50914
G1 X10.419 Y-16.035 A44.70396
G1 X9.901 Y-17.967 A44.81508
G1 X15.312 Y-17.967 A45.11569
G1 X15.719 Y-17.880 A45.13882
G1 X3.314 Y-17.261 F7800.000
G1 X3.860 Y-15.222 A45.25608 F4800.000
G1 X2.948 Y-15.456 A45.30839
G1 X0.988 Y-15.704 A45.41817
G1 X-0.988 Y-15.704 A45.52795
G1 X-2.976 Y-15.449 A45.63931
G1 X-3.008 Y-15.567 A45.64608
G1 X-0.608 Y-17.967 A45.83463
G1 X1.944 Y-17.967 A45.97640
G1 X2.851 Y-17.724 A46.02859
G1 X3.095 Y-17.967 A46.04770
G1 X4.020 Y-17.967 A46.09912
G1 X3.314 Y-17.261 A46.15459
G1 X-3.471 Y-16.030 F7800.000
G1 X-6.391 Y-16.812 A46.32253 F4800.000
G1 X-9.330 Y-13.873 A46.55345
G1 X-9.052 Y-12.835 A46.61316
G1 X-10.030 Y-12.124 A46.68034
G1 X-11.470 Y-10.771 A46.79012
G1 X-12.730 Y-9.249 A46.89988
G1 X-13.219 Y-8.478 A46.95062
G1 X-14.406 Y-8.796 A47.01891
G1 X-17.346 Y-5.857 A47.24984
G1 X-16.563 Y-2.937 A47.41778
G1 X-17.994 Y-1.506 A47.53020
G1 X-17.994 Y-6.369 A47.80039
G1 X-17.808 Y-6.320 A47.81107
G1 X-14.869 Y-9.259 A48.04200
G1 X-15.652 Y-12.179 A48.20994
G1 X-12.713 Y-15.118 A48.44086
G1 X-9.793 Y-14.336 A48.60881
G1 X-6.853 Y-17.275 A48.83973
G1 X-7.039 Y-17.967 A48.87953
G1 X-1.533 Y-17.967 A49.18538
G1 X-3.471 Y-16.030 A49.33757
G1 X-13.175 Y-15.581 F7800.000
G1 X-16.114 Y-12.642 A49.56850 F4800.000
G1 X-17.994 Y-13.145 A49.67661
G1 X-17.994 Y-14.895 A49.77380
G1 X-17.918 Y-15.620 A49.81432
G1 X-17.725 Y-16.213 A49.84897
G1 X-17.413 Y-16.753 A49.88361
G1 X-16.996 Y-17.217 A49.91826
G1 X-16.492 Y-17.583 A49.95291
G1 X-15.922 Y-17.837 A49.98755
G1 X-15.312 Y-17.967 A50.02220
G1 X-13.815 Y-17.967 A50.10538
G1 X-13.175 Y-15.581 A50.24260
G1 X-15.544 Y-2.325 F7800.000
G1 X-15.611 Y-1.972 A50.26254 F4800.000
G1 X-15.735 Y-0.000 A50.37233
G1 X-15.611 Y1.972 A50.48213
G1 X-15.241 Y3.913 A50.59190
G1 X-15.020 Y4.591 A50.63150
G1 X-17.794 Y3.848 A50.79105
G1 X-17.994 Y4.048 A50.80674
G1 X-17.994 Y-0.580 A51.06385
G1 X-16.100 Y-2.474 A51.21264
G1 X-15.544 Y-2.325 A51.24466
G1 X-13.638 Y7.817 F7800.000
G1 X-13.199 Y8.509 A51.29016 F4800.000
G1 X-16.106 Y11.415 A51.51850
G1 X-15.323 Y14.335 A51.68644
G1 X-17.533 Y16.545 A51.86010
G1 X-17.725 Y16.213 A51.88140
G1 X-17.918 Y15.620 A51.91604
G1 X-17.994 Y14.895 A51.95657
G1 X-17.994 Y10.570 A52.19682
G1 X-16.568 Y10.952 A52.27882
G1 X-13.629 Y8.013 A52.50975
G1 X-13.713 Y7.699 A52.52782
G1 X-13.638 Y7.817 A52.53562
G1 X-8.598 Y13.164 F7800.000
G1 X-11.478 Y16.043 A52.76182 F4800.000
G1 X-10.962 Y17.967 A52.87246
G1 X-15.312 Y17.967 A53.11411
G1 X-15.922 Y17.837 A53.14876
G1 X-16.492 Y17.583 A53.18340
G1 X-16.996 Y17.217 A53.21805
G1 X-17.130 Y17.068 A53.22919
G1 X-14.860 Y14.798 A53.40754
G1 X-11.940 Y15.580 A53.57548
G1 X-9.135 Y12.774 A53.79593
G1 X-8.598 Y13.164 A53.83274
G1 X-4.862 Y14.965 F7800.000
G1 X-2.948 Y15.456 A53.94250 F4800.000
G1 X-0.988 Y15.704 A54.05228
G1 X0.988 Y15.704 A54.16206
G1 X1.940 Y15.584 A54.21539
G1 X-0.443 Y17.967 A54.40262
G1 X-3.034 Y17.967 A54.54657
G1 X-3.910 Y17.732 A54.59698
G1 X-4.145 Y17.967 A54.61543
G1 X-5.071 Y17.967 A54.66686
G1 X-4.373 Y17.269 A54.72167
G1 X-5.006 Y14.908 A54.85747
G1 X-4.862 Y14.965 A54.86606
M106 P168.3
G1 Z1.550 F7800.000
G1 A52.86606 F2400.00000
G92 A0
G1 X14.917 Y2.273 F7800.000
G1 A2.00000 F2400.00000
G1 X14.634 Y3.758 A2.08395 F3600.000
G1 X14.048 Y5.562 A2.18936
G1 X13.240 Y7.279 A2.29476
G1 X12.223 Y8.881 A2.40019
G1 X11.014 Y10.343 A2.50559
G1 X9.631 Y11.641 A2.61100
G1 X8.096 Y12.757 A2.71641
G1 X6.433 Y13.671 A2.82180
G1 X4.669 Y14.369 A2.92724
G1 X2.831 Y14.841 A3.03264
G1 X0.949 Y15.079 A3.13805
G1 X-0.949 Y15.079 A3.24346
G1 X-2.831 Y14.841 A3.34887
G1 X-4.669 Y14.369 A3.45426
G1 X-6.424 Y13.674 A3.55916
G1 X-8.103 Y12.751 A3.66561
G1 X-9.631 Y11.641 A3.77050
G1 X-11.014 Y10.343 A3.87591
G1 X-12.223 Y8.881 A3.98131
G1 X-13.086 Y7.522 A4.07074
G1 X-13.240 Y7.279 A4.08674
G1 X-14.048 Y5.562 A4.19214
G1 X-14.634 Y3.758 A4.29754
G1 X-14.990 Y1.894 A4.40294
G1 X-15.109 Y-0.000 A4.50837
G1 X-14.990 Y-1.894 A4.61379
G1 X-14.634 Y-3.758 A4.71919
G1 X-14.048 Y-5.562 A4.82460
G1 X-13.240 Y-7.279 A4.93000
G1 X-12.223 Y-8.881 A5.03543
G1 X-11.014 Y-10.343 A5.14083
G1 X-9.631 Y-11.641 A5.24624
G1 X-8.336 Y-12.582 A5.33515
G1 X-8.096 Y-12.757 A5.35165
G1 X-6.433 Y-13.671 A5.45704
G1 X-4.669 Y-14.369 A5.56248
G1 X-2.831 Y-14.841 A5.66788
G1 X-0.949 Y-15.079 A5.77329
G1 X0.949 Y-15.079 A5.87870 F3600.000
G1 X2.831 Y-14.841 A5.98411
G1 X4.669 Y-14.369 A6.08950
G1 X6.424 Y-13.674 A6.19440
G1 X8.103 Y-12.751 A6.30085
G1 X9.631 Y-11.642 A6.40574
G1 X11.014 Y-10.343 A6.51115
G1 X12.223 Y-8.881 A6.61655
G1 X13.240 Y-7.279 A6.72198
G1 X14.048 Y-5.562 A6.82738
G1 X14.634 Y-3.758 A6.93278
G1 X14.990 Y-1.894 A7.03818
G1 X15.109 Y-0.000 A7.14361
G1 X14.990 Y1.894 A7.24903
G1 X14.931 Y2.199 A7.26631
G1 X14.274 Y2.150 F7800.000
G1 X13.999 Y3.594 A7.34798 F3600.000
G1 X13.438 Y5.321 A7.44881
G1 X12.665 Y6.963 A7.54963
G1 X11.693 Y8.495 A7.65049
G1 X10.536 Y9.894 A7.75131
G1 X9.213 Y11.136 A7.85215
G1 X7.744 Y12.203 A7.95298
G1 X6.154 Y13.077 A8.05380
G1 X4.466 Y13.746 A8.15467
G1 X2.708 Y14.197 A8.25549
G1 X0.908 Y14.424 A8.35632
G1 X-0.908 Y14.424 A8.45715
G1 X-2.708 Y14.197 A8.55799
G1 X-4.466 Y13.746 A8.65881
G1 X-6.145 Y13.081 A8.75914
G1 X-7.752 Y12.198 A8.86101
G1 X-9.213 Y11.136 A8.96132
G1 X-10.536 Y9.894 A9.06216
G1 X-11.693 Y8.495 A9.16298
G1 X-12.533 Y7.171 A9.25012
G1 X-12.665 Y6.963 A9.26384
G1 X-13.438 Y5.321 A9.36466
G1 X-13.999 Y3.594 A9.46549
G1 X-14.339 Y1.812 A9.56631
G1 X-14.453 Y-0.000 A9.66716
G1 X-14.339 Y-1.812 A9.76801
G1 X-13.999 Y-3.594 A9.86884
G1 X-13.438 Y-5.321 A9.96967
G1 X-12.665 Y-6.963 A10.07049
G1 X-11.693 Y-8.495 A10.17135
G1 X-10.536 Y-9.894 A10.27217
G1 X-9.213 Y-11.136 A10.37300
G1 X-7.951 Y-12.053 A10.45962
G1 X-7.744 Y-12.203 A10.47384
G1 X-6.154 Y-13.077 A10.57466
G1 X-4.466 Y-13.746 A10.67552
G1 X-2.708 Y-14.197 A10.77634
G1 X-0.908 Y-14.424 A10.87718
G1 X0.908 Y-14.424 A10.97801 F3600.000
G1 X2.708 Y-14.197 A11.07885
G1 X4.466 Y-13.746 A11.17967
G1 X6.145 Y-13.081 A11.27999
G1 X7.752 Y-12.198 A11.38186
G1 X9.213 Y-11.136 A11.48218
G1 X10.536 Y-9.894 A11.58301
G1 X11.693 Y-8.495 A11.68383
G1 X12.665 Y-6.963 A11.78469
G1 X13.438 Y-5.321 A11.88552
G1 X13.999 Y-3.594 A11.98634
G1 X14.339 Y-1.812 A12.08717
G1 X14.453 Y-0.000 A12.18802
G1 X14.339 Y1.812 A12.28887
G1 X14.288 Y2.077 A12.30386
G1 X13.739 Y2.048 F7800.000
G1 X13.470 Y3.459 A12.35695 F1800.000
G1 X12.930 Y5.119 A12.42152
G1 X12.187 Y6.699 A12.48609
G1 X11.251 Y8.174 A12.55069
G1 X10.138 Y9.520 A12.61525
G1 X8.865 Y10.715 A12.67983
G1 X7.452 Y11.742 A12.74441
G1 X5.921 Y12.583 A12.80898
G1 X4.297 Y13.226 A12.87357
G1 X2.606 Y13.661 A12.93814
G1 X0.873 Y13.879 A13.00272
G1 X-0.873 Y13.879 A13.06730
G1 X-2.606 Y13.661 A13.13187
G1 X-4.297 Y13.226 A13.19644
G1 X-5.913 Y12.587 A13.26068
G1 X-7.459 Y11.736 A13.32595
G1 X-8.865 Y10.715 A13.39018
G1 X-10.138 Y9.520 A13.45475
G1 X-11.251 Y8.174 A13.51932
G1 X-12.073 Y6.879 A13.57606
G1 X-12.187 Y6.699 A13.58392
G1 X-12.930 Y5.119 A13.64849
G1 X-13.470 Y3.459 A13.71306
G1 X-13.797 Y1.743 A13.77763
G1 X-13.907 Y-0.000 A13.84222
G1 X-13.797 Y-1.743 A13.90680
G1 X-13.470 Y-3.459 A13.97138
G1 X-12.930 Y-5.119 A14.03595
G1 X-12.187 Y-6.699 A14.10052
G1 X-11.251 Y-8.174 A14.16511
G1 X-10.138 Y-9.520 A14.22968
G1 X-8.865 Y-10.715 A14.29426
G1 X-7.631 Y-11.612 A14.35064
G1 X-7.452 Y-11.742 A14.35884
G1 X-5.921 Y-12.583 A14.42341
G1 X-4.297 Y-13.226 A14.48800
G1 X-2.606 Y-13.661 A14.55257
G1 X-0.873 Y-13.879 A14.61714
G1 X0.873 Y-13.879 A14.68172 F1800.000
G1 X2.606 Y-13.661 A14.74630
G1 X4.297 Y-13.226 A14.81087
G1 X5.913 Y-12.587 A14.87511
G1 X7.459 Y-11.736 A14.94037
G1 X8.865 Y-10.715 A15.00460
G1 X10.138 Y-9.520 A15.06918
G1 X11.251 Y-8.174 A15.13375
G1 X12.187 Y-6.699 A15.19834
G1 X12.930 Y-5.119 A15.26291
G1 X13.470 Y-3.459 A15.32749
G1 X13.797 Y-1.743 A15.39206
G1 X13.907 Y-0.000 A15.45664
G1 X13.797 Y1.743 A15.52123
G1 X13.753 Y1.975 A15.52994
G1 X14.117 Y2.375 F7800.000
G1 X18.550 Y2.048 F7800.000
G1 X18.550 Y14.924 A16.24526 F3600.000
G1 X18.465 Y15.737 A16.29065
G1 X18.236 Y16.441 A16.33179
G1 X17.866 Y17.082 A16.37293
G1 X17.370 Y17.633 A16.41407
G1 X16.771 Y18.068 A16.45522
G1 X16.095 Y18.369 A16.49636
G1 X15.370 Y18.523 A16.53750
G1 X-15.370 Y18.523 A18.24531
G1 X-16.095 Y18.369 A18.28646
G1 X-16.771 Y18.068 A18.32760
G1 X-17.370 Y17.633 A18.36874
G1 X-17.866 Y17.082 A18.40988
G1 X-18.236 Y16.441 A18.45103
G1 X-18.465 Y15.737 A18.49217
G1 X-18.550 Y14.924 A18.53756
G1 X-18.550 Y-14.924 A20.19578
G1 X-18.465 Y-15.737 A20.24117
G1 X-18.236 Y-16.441 A20.28231
G1 X-17.866 Y-17.082 A20.32346
G1 X-17.370 Y-17.633 A20.36460
G1 X-16.771 Y-18.068 A20.40574
G1 X-16.095 Y-18.369 A20.44688
G1 X-15.370 Y-18.523 A20.48803
G1 X15.370 Y-18.523 A22.19584
G1 X16.095 Y-18.369 A22.23698
G1 X16.771 Y-18.068 A22.27812 F3600.000
G1 X17.370 Y-17.633 A22.31927
G1 X17.866 Y-17.082 A22.36041
G1 X18.236 Y-16.441 A22.40155
G1 X18.465 Y-15.737 A22.44269
G1 X18.550 Y-14.924 A22.48808
G1 X18.550 Y1.973 A23.42682
G1 X19.205 Y2.048 F7800.000
G1 X19.205 Y14.958 A24.14405 F3600.000
G1 X19.109 Y15.873 A24.19516
G1 X18.837 Y16.709 A24.24395
G1 X18.398 Y17.469 A24.29273
G1 X17.811 Y18.122 A24.34152
G1 X17.100 Y18.638 A24.39031
G1 X16.298 Y18.995 A24.43909
G1 X15.439 Y19.178 A24.48788
G1 X-15.439 Y19.178 A26.20333
G1 X-16.298 Y18.995 A26.25212
G1 X-17.100 Y18.638 A26.30091
G1 X-17.811 Y18.122 A26.34969
G1 X-18.398 Y17.469 A26.39848
G1 X-18.837 Y16.709 A26.44726
G1 X-19.109 Y15.873 A26.49605
G1 X-19.205 Y14.958 A26.54716
G1 X-19.205 Y-14.958 A28.20920
G1 X-19.109 Y-15.873 A28.26032
G1 X-18.837 Y-16.709 A28.30910
G1 X-18.398 Y-17.469 A28.35789
G1 X-17.811 Y-18.122 A28.40667
G1 X-17.100 Y-18.638 A28.45546
G1 X-16.298 Y-18.995 A28.50425
G1 X-15.439 Y-19.178 A28.55303
G1 X15.439 Y-19.178 A30.26848
G1 X16.278 Y-18.999 A30.31611
G1 X17.100 Y-18.638 A30.36603 F3600.000
G1 X17.811 Y-18.122 A30.41482
G1 X18.398 Y-17.469 A30.46361
G1 X18.837 Y-16.709 A30.51239
G1 X19.109 Y-15.873 A30.56118
G1 X19.205 Y-14.958 A30.61229
G1 X19.205 Y1.973 A31.55294
G1 X19.750 Y2.048 F7800.000
G1 X19.750 Y14.987 A32.03136 F1800.000
G1 X19.645 Y15.987 A32.06856
G1 X19.338 Y16.931 A32.10527
G1 X18.842 Y17.791 A32.14197
G1 X18.177 Y18.529 A32.17868
G1 X17.374 Y19.112 A32.21539
G1 X16.467 Y19.516 A32.25210
G1 X15.496 Y19.723 A32.28881
G1 X-15.496 Y19.723 A33.43481
G1 X-16.467 Y19.516 A33.47152
G1 X-17.374 Y19.112 A33.50823
G1 X-18.177 Y18.529 A33.54494
G1 X-18.842 Y17.791 A33.58164
G1 X-19.338 Y16.931 A33.61835
G1 X-19.645 Y15.987 A33.65505
G1 X-19.750 Y14.987 A33.69225
G1 X-19.750 Y-14.987 A34.80058
G1 X-19.645 Y-15.987 A34.83777
G1 X-19.338 Y-16.931 A34.87448
G1 X-18.842 Y-17.791 A34.91119
G1 X-18.177 Y-18.529 A34.94789
G1 X-17.374 Y-19.112 A34.98460
G1 X-16.467 Y-19.516 A35.02131
G1 X-15.496 Y-19.723 A35.05802
G1 X15.496 Y-19.723 A36.20402
G1 X16.391 Y-19.532 A36.23784
G1 X16.467 Y-19.516 A36.24073 F1800.000
G1 X17.374 Y-19.112 A36.27744
G1 X18.177 Y-18.529 A36.31415
G1 X18.842 Y-17.791 A36.35086
G1 X19.338 Y-16.931 A36.38756
G1 X19.645 Y-15.987 A36.42427
G1 X19.750 Y-14.987 A36.46146
G1 X19.750 Y1.973 A37.08859
G1 X19.317 Y2.298 F7800.000
G1 X11.084 Y11.389 F7800.000
G1 X10.670 Y11.777 A37.12010 F4800.000
G1 X10.556 Y11.535 A37.13494
G1 X10.850 Y11.260 A37.15728
G1 X11.084 Y11.389 A37.17211
G1 A35.17211 F2400.00000
G92 A0
G1 X11.084 Y-11.389 F7800.000
G1 A2.00000 F2400.00000
G1 X10.850 Y-11.260 A2.01484 F4800.000
G1 X10.557 Y-11.535 A2.03717
G1 X10.670 Y-11.777 A2.05200
G1 X11.084 Y-11.389 A2.08350
G1 X10.326 Y-12.048 F7800.000
M106 P255
G1 X4.218 Y-18.156 A2.56760 F3600.000
G1 X4.999 Y-18.156 A2.61137
G1 X10.576 Y-12.579 A3.05338
M106 P168.3
G1 X8.458 Y-13.135 F7800.000
M106 P255
G1 X3.437 Y-18.156 A3.45131 F3600.000
G1 X2.656 Y-18.156 A3.49508
G1 X6.737 Y-14.074 A3.81855
M106 P168.3
G1 X5.445 Y-14.586 F7800.000
M106 P255
G1 X1.875 Y-18.156 A4.10146 F3600.000
G1 X1.094 Y-18.156 A4.14523
G1 X4.303 Y-14.947 A4.39951
G1 X3.252 Y-15.217 A4.46030
G1 X0.423 Y-18.045 A4.68448
G1 X0.377 Y-17.311 A4.72573
G1 X2.328 Y-15.360 A4.88036
G1 X1.434 Y-15.473 A4.93085
G1 X0.331 Y-16.576 A5.01829
G1 X0.285 Y-15.841 A5.05955
G1 X0.540 Y-15.586 A5.07982
M106 P168.3
G1 X13.049 Y-8.543 F7800.000
M106 P255
G1 X18.083 Y-3.509 A5.47876 F3600.000
G1 X18.083 Y-4.290 A5.52253
G1 X11.332 Y-11.042 A6.05761
G1 X11.836 Y-11.319 A6.08983
G1 X18.083 Y-5.071 A6.58497
G1 X18.083 Y-5.852 A6.62874
G1 X5.780 Y-18.156 A7.60387
G1 X6.661 Y-18.056 A7.65356
G1 X18.083 Y-6.633 A8.55887
G1 X18.083 Y-7.414 A8.60264
G1 X7.441 Y-18.056 A9.44606
G1 X8.222 Y-18.056 A9.48982
G1 X18.083 Y-8.195 A10.27135
G1 X18.083 Y-8.976 A10.31511
G1 X9.003 Y-18.056 A11.03475
G1 X9.784 Y-18.056 A11.07851
G1 X18.083 Y-9.757 A11.73626
G1 X18.083 Y-10.538 A11.78002
G1 X10.565 Y-18.056 A12.37587
G1 X11.346 Y-18.056 A12.41964
G1 X18.083 Y-11.319 A12.95359
G1 X18.083 Y-12.100 A12.99736
G1 X12.127 Y-18.056 A13.46942
G1 X12.908 Y-18.056 A13.51319
G1 X18.083 Y-12.880 A13.92336
G1 X18.083 Y-13.661 A13.96712
G1 X13.689 Y-18.056 A14.31540
G1 X14.470 Y-18.056 A14.35917
G1 X18.083 Y-14.442 A14.64555
G1 X18.019 Y-15.287 A14.69301
G1 X15.290 Y-18.016 A14.90931
M106 P168.3
G1 X16.724 Y-17.363 F7800.000
M106 P255
G1 X17.318 Y-16.769 A14.95637 F3600.000
M106 P168.3
G1 X14.017 Y-6.795 F7800.000
M106 P255
G1 X18.083 Y-2.729 A15.27866 F3600.000
G1 X18.183 Y-1.848 A15.32835
G1 X14.589 Y-5.441 A15.61318
G1 X14.965 Y-4.285 A15.68134
G1 X18.183 Y-1.067 A15.93638
G1 X18.183 Y-0.286 A15.98015
G1 X15.194 Y-3.274 A16.21701
G1 X15.379 Y-2.309 A16.27207
G1 X18.183 Y0.495 A16.49434
G1 X18.183 Y1.276 A16.53811
G1 X15.462 Y-1.445 A16.75375
G1 X15.515 Y-0.611 A16.80054
G1 X18.183 Y2.057 A17.01202
G1 X18.083 Y2.738 A17.05059
G1 X15.527 Y0.182 A17.25317
G1 X15.481 Y0.917 A17.29442
G1 X18.083 Y3.519 A17.50067
G1 X18.083 Y4.300 A17.54443
G1 X15.435 Y1.651 A17.75434
G1 X15.330 Y2.328 A17.79271
G1 X18.083 Y5.081 A18.01087
G1 X18.083 Y5.861 A18.05463
G1 X15.205 Y2.984 A18.28271
G1 X15.080 Y3.640 A18.32013
G1 X18.083 Y6.642 A18.55811
G1 X18.083 Y7.423 A18.60188
G1 X14.903 Y4.243 A18.85393
G1 X14.711 Y4.833 A18.88866
G1 X18.083 Y8.204 A19.15590
G1 X18.083 Y8.985 A19.19966
G1 X14.520 Y5.422 A19.48207
G1 X14.292 Y5.975 A19.51561
G1 X18.083 Y9.766 A19.81604
G1 X18.083 Y10.547 A19.85980
G1 X14.043 Y6.506 A20.18004
G1 X13.793 Y7.038 A20.21293
G1 X18.083 Y11.328 A20.55297
G1 X18.083 Y12.109 A20.59674
G1 X13.529 Y7.554 A20.95770
G1 X13.226 Y8.032 A20.98941
G1 X18.083 Y12.890 A21.37440
G1 X18.083 Y13.671 A21.41816
G1 X12.922 Y8.510 A21.82718
G1 X12.619 Y8.988 A21.85889
G1 X18.083 Y14.452 A22.29194
G1 X18.053 Y15.202 A22.33405
G1 X12.276 Y9.426 A22.79187
G1 X11.923 Y9.853 A22.82296
G1 X17.936 Y15.866 A23.29954
G1 X17.713 Y16.424 A23.33321
G1 X11.569 Y10.281 A23.82015
G1 X11.216 Y10.708 A23.85123
G1 X17.409 Y16.901 A24.34210
G1 X17.024 Y17.297 A24.37305
G1 X11.395 Y11.668 A24.81913
G1 X10.993 Y12.047 A24.85009
G1 X16.582 Y17.636 A25.29308
G1 X16.049 Y17.884 A25.32602
G1 X10.590 Y12.425 A25.75868
G1 X9.559 Y12.175 A25.81811
G1 X15.422 Y18.037 A26.28275
G1 X14.659 Y18.056 A26.32550
G1 X9.107 Y12.504 A26.76553
G1 X8.655 Y12.832 A26.79687
G1 X13.878 Y18.056 A27.21085
G1 X13.097 Y18.056 A27.25461
G1 X8.194 Y13.153 A27.64322
G1 X7.690 Y13.430 A27.67545
G1 X12.316 Y18.056 A28.04209
G1 X11.535 Y18.056 A28.08586
G1 X7.186 Y13.707 A28.43055
G1 X6.682 Y13.984 A28.46277
G1 X10.754 Y18.056 A28.78551
G1 X9.973 Y18.056 A28.82927
G1 X6.137 Y14.219 A29.13333
G1 X5.577 Y14.441 A29.16705
G1 X9.193 Y18.056 A29.45357
G1 X8.412 Y18.056 A29.49734
G1 X5.018 Y14.662 A29.76632
G1 X4.430 Y14.855 A29.80100
G1 X7.631 Y18.056 A30.05470
G1 X6.850 Y18.056 A30.09847
G1 X3.808 Y15.014 A30.33952
G1 X3.187 Y15.174 A30.37547
G1 X6.145 Y18.132 A30.60993
G1 X5.388 Y18.156 A30.65238
G1 X2.536 Y15.304 A30.87839
G1 X1.843 Y15.392 A30.91756
G1 X4.607 Y18.156 A31.13663
G1 X3.826 Y18.156 A31.18039
G1 X1.150 Y15.479 A31.39252
G1 X0.456 Y15.567 A31.43168
G1 X3.045 Y18.156 A31.63687
G1 X2.264 Y18.156 A31.68063
G1 X0.323 Y16.214 A31.83450
G1 X0.375 Y17.048 A31.88130
G1 X1.483 Y18.156 A31.96912
G1 X0.702 Y18.156 A32.01288
G1 X0.428 Y17.881 A32.03466
M106 P168.3
G1 X-0.285 Y15.841 F7800.000
M106 P255
G1 X-0.540 Y15.586 A32.05492 F3600.000
G1 X-1.434 Y15.473 A32.10542
G1 X-0.331 Y16.576 A32.19286
G1 X-0.377 Y17.311 A32.23412
G1 X-2.328 Y15.360 A32.38874
G1 X-3.252 Y15.217 A32.44112
G1 X-0.423 Y18.045 A32.66529
G1 X-1.094 Y18.156 A32.70339
G1 X-4.302 Y14.947 A32.95767
G1 X-5.445 Y14.586 A33.02480
G1 X-1.875 Y18.156 A33.30771
G1 X-2.656 Y18.156 A33.35148
G1 X-6.737 Y14.074 A33.67495
M106 P168.3
G1 X-8.458 Y13.135 F7800.000
M106 P255
G1 X-3.437 Y18.156 A34.07288 F3600.000
G1 X-4.218 Y18.156 A34.11665
G1 X-10.326 Y12.048 A34.60075
G1 X-10.576 Y12.579 A34.63364
G1 X-4.999 Y18.156 A35.07566
G1 X-5.780 Y18.156 A35.11942
G1 X-18.083 Y5.852 A36.09455
G1 X-18.083 Y5.071 A36.13832
G1 X-11.836 Y11.319 A36.63346
G1 X-11.332 Y11.042 A36.66569
G1 X-18.083 Y4.290 A37.20076
G1 X-18.083 Y3.509 A37.24453
G1 X-13.049 Y8.543 A37.64347
M106 P168.3
G1 X-14.017 Y6.795 F7800.000
M106 P255
G1 X-18.083 Y2.729 A37.96577 F3600.000
G1 X-18.183 Y1.848 A38.01546
G1 X-14.589 Y5.441 A38.30028
G1 X-14.965 Y4.285 A38.36845
G1 X-18.183 Y1.067 A38.62349
G1 X-18.183 Y0.286 A38.66725
G1 X-15.194 Y3.274 A38.90412
G1 X-15.379 Y2.309 A38.95917
G1 X-18.183 Y-0.495 A39.18145
G1 X-18.183 Y-1.276 A39.22521
G1 X-15.462 Y1.445 A39.44085
G1 X-15.515 Y0.611 A39.48765
G1 X-18.183 Y-2.057 A39.69913
G1 X-18.083 Y-2.738 A39.73770
G1 X-15.527 Y-0.182 A39.94027
G1 X-15.481 Y-0.917 A39.98153
G1 X-18.083 Y-3.519 A40.18777
G1 X-18.083 Y-4.300 A40.23153
G1 X-15.435 Y-1.651 A40.44144
G1 X-15.330 Y-2.328 A40.47981
G1 X-18.083 Y-5.081 A40.69797
G1 X-18.083 Y-5.861 A40.74174
G1 X-15.205 Y-2.984 A40.96981
G1 X-15.080 Y-3.640 A41.00723
G1 X-18.083 Y-6.642 A41.24522
G1 X-18.083 Y-7.423 A41.28898
G1 X-14.903 Y-4.243 A41.54103
G1 X-14.711 Y-4.833 A41.57577
G1 X-18.083 Y-8.204 A41.84300
G1 X-18.083 Y-8.985 A41.88676
G1 X-14.520 Y-5.422 A42.16917
G1 X-14.292 Y-5.975 A42.20271
G1 X-18.083 Y-9.766 A42.50314
G1 X-18.083 Y-10.547 A42.54690
G1 X-14.043 Y-6.506 A42.86714
G1 X-13.793 Y-7.038 A42.90003
G1 X-18.083 Y-11.328 A43.24007
G1 X-18.083 Y-12.109 A43.28384
G1 X-13.529 Y-7.555 A43.64480
G1 X-13.226 Y-8.032 A43.67651
G1 X-18.083 Y-12.890 A44.06150
G1 X-18.083 Y-13.671 A44.10526
G1 X-12.922 Y-8.510 A44.51428
G1 X-12.619 Y-8.988 A44.54599
G1 X-18.083 Y-14.452 A44.97904
G1 X-18.053 Y-15.202 A45.02115
G1 X-12.276 Y-9.426 A45.47897
G1 X-11.923 Y-9.853 A45.51006
G1 X-17.936 Y-15.866 A45.98664
G1 X-17.713 Y-16.424 A46.02032
G1 X-11.569 Y-10.281 A46.50725
G1 X-11.216 Y-10.708 A46.53833
G1 X-17.409 Y-16.901 A47.02920
G1 X-17.024 Y-17.297 A47.06015
G1 X-11.395 Y-11.668 A47.50623
G1 X-10.993 Y-12.047 A47.53720
G1 X-16.582 Y-17.636 A47.98018
G1 X-16.049 Y-17.884 A48.01313
G1 X-10.590 Y-12.425 A48.44579
G1 X-9.559 Y-12.175 A48.50522
G1 X-15.422 Y-18.037 A48.96985
G1 X-14.659 Y-18.056 A49.01261
G1 X-9.107 Y-12.504 A49.45264
G1 X-8.655 Y-12.832 A49.48397
G1 X-13.878 Y-18.056 A49.89795
G1 X-13.097 Y-18.056 A49.94172
G1 X-8.194 Y-13.153 A50.33032
G1 X-7.690 Y-13.430 A50.36255
G1 X-12.316 Y-18.056 A50.72920
G1 X-11.535 Y-18.056 A50.77296
G1 X-7.186 Y-13.707 A51.11765
G1 X-6.682 Y-13.984 A51.14988
G1 X-10.754 Y-18.056 A51.47261
G1 X-9.973 Y-18.056 A51.51637
G1 X-6.137 Y-14.219 A51.82042
G1 X-5.578 Y-14.441 A51.85414
G1 X-9.193 Y-18.056 A52.14062
G1 X-8.412 Y-18.056 A52.18439
G1 X-5.018 Y-14.662 A52.45332
G1 X-4.430 Y-14.855 A52.48803
G1 X-7.631 Y-18.056 A52.74173
G1 X-6.850 Y-18.056 A52.78549
G1 X-3.808 Y-15.014 A53.02654
G1 X-3.187 Y-15.174 A53.06250
G1 X-6.145 Y-18.132 A53.29695
G1 X-5.388 Y-18.156 A53.33941
G1 X-2.536 Y-15.304 A53.56542
G1 X-1.843 Y-15.392 A53.60458
G1 X-4.607 Y-18.156 A53.82365
G1 X-3.826 Y-18.156 A53.86741
G1 X-1.150 Y-15.479 A54.07954
G1 X-0.456 Y-15.567 A54.11871
G1 X-3.045 Y-18.156 A54.32389
G1 X-2.264 Y-18.156 A54.36765
G1 X-0.323 Y-16.214 A54.52153
G1 X-0.375 Y-17.048 A54.56832
G1 X-1.483 Y-18.156 A54.65614
G1 X-0.702 Y-18.156 A54.69991
G1 X-0.428 Y-17.881 A54.72168
M106 P168.3
G1 A52.72168 F2400.00000
G92 A0
G1 X-6.661 Y18.056 F7800.000
G1 A2.00000 F2400.00000
M106 P255
G1 X-18.083 Y6.633 A2.90531 F3600.000
G1 X-18.083 Y7.414 A2.94908
G1 X-7.441 Y18.056 A3.79250
G1 X-8.222 Y18.056 A3.83627
G1 X-18.083 Y8.195 A4.61779
G1 X-18.083 Y8.976 A4.66156
G1 X-9.003 Y18.056 A5.38119
G1 X-9.784 Y18.056 A5.42496
G1 X-18.083 Y9.757 A6.08270
G1 X-18.083 Y10.538 A6.12647
G1 X-10.565 Y18.056 A6.72232
G1 X-11.346 Y18.056 A6.76608
G1 X-18.083 Y11.319 A7.30004
G1 X-18.083 Y12.100 A7.34380
G1 X-12.127 Y18.056 A7.81587
G1 X-12.908 Y18.056 A7.85963
G1 X-18.083 Y12.880 A8.26980
G1 X-18.083 Y13.661 A8.31357
G1 X-13.689 Y18.056 A8.66185
G1 X-14.470 Y18.056 A8.70561
G1 X-18.083 Y14.442 A8.99200
G1 X-18.019 Y15.287 A9.03946
G1 X-15.290 Y18.016 A9.25575
M106 P168.3
G1 X-16.724 Y17.363 F7800.000
M106 P255
G1 X-17.318 Y16.769 A9.30281 F3600.000

G1 Z1.850 F7800.000
G1 A7.30281 F2400.00000
G92 A0
G1 X14.930 Y1.745 F7800.000
G1 A2.00000 F2400.00000
G1 X14.921 Y1.885 A2.00781 F3600.000
G1 X14.568 Y3.740 A2.11273
G1 X13.984 Y5.537 A2.21765
G1 X13.180 Y7.245 A2.32257
G1 X12.168 Y8.841 A2.42753
G1 X10.964 Y10.296 A2.53245
G1 X9.587 Y11.589 A2.63738
G1 X8.335 Y12.498 A2.72336
G1 X8.059 Y12.699 A2.74231
G1 X6.404 Y13.609 A2.84722
G1 X4.647 Y14.304 A2.95218
G1 X2.818 Y14.774 A3.05710
G1 X0.944 Y15.010 A3.16203
G1 X-0.944 Y15.010 A3.26696
G1 X-2.818 Y14.774 A3.37189
G1 X-4.647 Y14.304 A3.47680
G1 X-6.393 Y13.613 A3.58112
G1 X-8.068 Y12.692 A3.68730
G1 X-9.587 Y11.589 A3.79160
G1 X-10.964 Y10.296 A3.89653
G1 X-12.168 Y8.840 A4.00145
G1 X-13.003 Y7.524 A4.08806
G1 X-13.180 Y7.245 A4.10640
G1 X-13.984 Y5.537 A4.21132
G1 X-14.568 Y3.740 A4.31625
G1 X-14.921 Y1.885 A4.42117
G1 X-15.040 Y-0.000 A4.52611
G1 X-14.921 Y-1.885 A4.63106
G1 X-14.568 Y-3.740 A4.73598
G1 X-13.984 Y-5.537 A4.84091
G1 X-13.180 Y-7.245 A4.94582
G1 X-12.168 Y-8.840 A5.05078
G1 X-10.964 Y-10.296 A5.15570
G1 X-9.587 Y-11.589 A5.26063
G1 X-8.335 Y-12.498 A5.34661
G1 X-8.059 Y-12.699 A5.36556
G1 X-6.404 Y-13.609 A5.47048
G1 X-4.647 Y-14.304 A5.57544
G1 X-2.818 Y-14.774 A5.68035
G1 X-0.944 Y-15.010 A5.78528
G1 X0.944 Y-15.010 A5.89021 F3600.000
G1 X2.818 Y-14.774 A5.99514
G1 X4.647 Y-14.304 A6.10006
G1 X6.393 Y-13.613 A6.20438
G1 X8.068 Y-12.692 A6.31055
G1 X9.587 Y-11.589 A6.41485
G1 X10.964 Y-10.296 A6.51978
G1 X12.168 Y-8.841 A6.62470
G1 X13.003 Y-7.524 A6.71131
G1 X13.180 Y-7.245 A6.72966
G1 X13.984 Y-5.537 A6.83457
G1 X14.568 Y-3.740 A6.93950
G1 X14.921 Y-1.885 A7.04442
G1 X15.040 Y-0.000 A7.14937
G1 X14.935 Y1.670 A7.24234
G1 X14.277 Y1.704 F7800.000
G1 X13.932 Y3.577 A7.34816 F3600.000
G1 X13.374 Y5.295 A7.44851
G1 X12.605 Y6.929 A7.54885
G1 X11.637 Y8.455 A7.64924
G1 X10.486 Y9.847 A7.74958
G1 X9.169 Y11.083 A7.84993
G1 X7.950 Y11.969 A7.93362
G1 X7.707 Y12.145 A7.95029
G1 X6.125 Y13.015 A8.05063
G1 X4.445 Y13.680 A8.15101
G1 X2.695 Y14.129 A8.25135
G1 X0.903 Y14.356 A8.35171
G1 X-0.903 Y14.356 A8.45206
G1 X-2.695 Y14.129 A8.55242
G1 X-4.445 Y13.680 A8.65276
G1 X-6.114 Y13.019 A8.75250
G1 X-7.717 Y12.138 A8.85410
G1 X-9.169 Y11.083 A8.95383
G1 X-10.486 Y9.847 A9.05419
G1 X-11.637 Y8.455 A9.15453
G1 X-12.450 Y7.173 A9.23885
G1 X-12.605 Y6.929 A9.25491
G1 X-13.374 Y5.295 A9.35525
G1 X-13.932 Y3.577 A9.45560
G1 X-14.271 Y1.803 A9.55595
G1 X-14.384 Y-0.000 A9.65632
G1 X-14.271 Y-1.803 A9.75669
G1 X-13.932 Y-3.577 A9.85703
G1 X-13.374 Y-5.295 A9.95738
G1 X-12.605 Y-6.929 A10.05773
G1 X-11.637 Y-8.455 A10.15810
G1 X-10.486 Y-9.847 A10.25845
G1 X-9.169 Y-11.083 A10.35880
G1 X-7.950 Y-11.969 A10.44249
G1 X-7.707 Y-12.145 A10.45916
G1 X-6.125 Y-13.015 A10.55950
G1 X-4.445 Y-13.680 A10.65988
G1 X-2.695 Y-14.129 A10.76022
G1 X-0.903 Y-14.356 A10.86058
G1 X0.903 Y-14.356 A10.96093 F3600.000
G1 X2.695 Y-14.129 A11.06129
G1 X4.445 Y-13.680 A11.16163
G1 X6.114 Y-13.019 A11.26137
G1 X7.717 Y-12.138 A11.36297
G1 X9.169 Y-11.083 A11.46270
G1 X10.486 Y-9.847 A11.56305
G1 X11.637 Y-8.455 A11.66340
G1 X12.450 Y-7.173 A11.74772
G1 X12.605 Y-6.929 A11.76378
G1 X13.374 Y-5.295 A11.86412
G1 X13.932 Y-3.577 A11.96447
G1 X14.271 Y-1.803 A12.06482
G1 X14.384 Y-0.000 A12.16518
G1 X14.282 Y1.629 A12.25587
G1 X13.733 Y1.670 F7800.000
G1 X13.403 Y3.441 A12.32251 F1800.000
G1 X12.866 Y5.094 A12.38676
G1 X12.127 Y6.666 A12.45101
G1 X11.195 Y8.134 A12.51529
G1 X10.088 Y9.473 A12.57954
G1 X8.821 Y10.662 A12.64379
G1 X7.630 Y11.528 A12.69823
G1 X7.415 Y11.684 A12.70805
G1 X5.892 Y12.521 A12.77230
G1 X4.276 Y13.161 A12.83658
G1 X2.593 Y13.593 A12.90083
G1 X0.869 Y13.811 A12.96509
G1 X-0.869 Y13.811 A13.02934
G1 X-2.593 Y13.593 A13.09360
G1 X-4.276 Y13.161 A13.15785
G1 X-5.882 Y12.525 A13.22170
G1 X-7.424 Y11.677 A13.28679
G1 X-8.821 Y10.662 A13.35063
G1 X-10.088 Y9.473 A13.41489
G1 X-11.195 Y8.134 A13.47914
G1 X-11.990 Y6.881 A13.53399
G1 X-12.127 Y6.666 A13.54341
G1 X-12.866 Y5.094 A13.60766
G1 X-13.403 Y3.442 A13.67191
G1 X-13.729 Y1.735 A13.73617
G1 X-13.838 Y-0.000 A13.80043
G1 X-13.729 Y-1.735 A13.86470
G1 X-13.403 Y-3.442 A13.92895
G1 X-12.866 Y-5.094 A13.99321
G1 X-12.127 Y-6.666 A14.05746
G1 X-11.195 Y-8.134 A14.12173
G1 X-10.088 Y-9.473 A14.18598
G1 X-8.821 Y-10.662 A14.25024
G1 X-7.630 Y-11.528 A14.30467
G1 X-7.415 Y-11.684 A14.31450
G1 X-5.892 Y-12.521 A14.37875
G1 X-4.276 Y-13.161 A14.44303
G1 X-2.593 Y-13.593 A14.50727
G1 X-0.869 Y-13.811 A14.57153
G1 X0.869 Y-13.811 A14.63579 F1800.000
G1 X2.593 Y-13.593 A14.70005
G1 X4.276 Y-13.161 A14.76430
G1 X5.882 Y-12.525 A14.82815
G1 X7.424 Y-11.677 A14.89323
G1 X8.821 Y-10.662 A14.95708
G1 X10.088 Y-9.473 A15.02133
G1 X11.195 Y-8.134 A15.08558
G1 X11.990 Y-6.881 A15.14044
G1 X12.127 Y-6.666 A15.14986
G1 X12.866 Y-5.094 A15.21411
G1 X13.403 Y-3.441 A15.27836
G1 X13.729 Y-1.735 A15.34261
G1 X13.838 Y-0.000 A15.40688
G1 X13.738 Y1.595 A15.46597
G1 X14.126 Y1.979 F7800.000
G1 X18.450 Y1.670 F7800.000
G1 X18.450 Y14.824 A16.19677 F3600.000
G1 X18.365 Y15.637 A16.24215
G1 X18.136 Y16.341 A16.28330
G1 X17.766 Y16.982 A16.32444
G1 X17.270 Y17.533 A16.36558
G1 X16.671 Y17.968 A16.40673
G1 X15.995 Y18.269 A16.44787
G1 X15.270 Y18.423 A16.48901
G1 X-15.270 Y18.423 A18.18571
G1 X-15.995 Y18.269 A18.22685
G1 X-16.671 Y17.968 A18.26800
G1 X-17.270 Y17.533 A18.30914
G1 X-17.766 Y16.982 A18.35028
G1 X-18.136 Y16.341 A18.39142
G1 X-18.365 Y15.637 A18.43257
G1 X-18.450 Y14.824 A18.47796
G1 X-18.450 Y-14.824 A20.12507
G1 X-18.365 Y-15.637 A20.17046
G1 X-18.136 Y-16.341 A20.21160
G1 X-17.766 Y-16.982 A20.25274
G1 X-17.270 Y-17.533 A20.29388
G1 X-16.671 Y-17.968 A20.33503
G1 X-15.995 Y-18.269 A20.37617
G1 X-15.270 Y-18.423 A20.41731
G1 X15.270 Y-18.423 A22.11401
G1 X15.530 Y-18.368 A22.12878
G1 X15.995 Y-18.269 A22.15516 F3600.000
G1 X16.671 Y-17.968 A22.19630
G1 X17.270 Y-17.533 A22.23744
G1 X17.766 Y-16.982 A22.27858
G1 X18.136 Y-16.341 A22.31973
G1 X18.365 Y-15.637 A22.36087
G1 X18.450 Y-14.824 A22.40626
G1 X18.450 Y1.595 A23.31841
G1 X19.105 Y1.670 F7800.000
G1 X19.105 Y14.858 A24.05111 F3600.000
G1 X19.009 Y15.773 A24.10223
G1 X18.737 Y16.609 A24.15101
G1 X18.298 Y17.369 A24.19980
G1 X17.711 Y18.022 A24.24858
G1 X17.000 Y18.538 A24.29737
G1 X16.198 Y18.895 A24.34616
G1 X15.339 Y19.078 A24.39494
G1 X-15.339 Y19.078 A26.09928
G1 X-16.198 Y18.895 A26.14807
G1 X-17.000 Y18.538 A26.19686
G1 X-17.711 Y18.022 A26.24565
G1 X-18.298 Y17.369 A26.29443
G1 X-18.737 Y16.609 A26.34322
G1 X-19.009 Y15.773 A26.39200
G1 X-19.105 Y14.858 A26.44312
G1 X-19.105 Y-14.858 A28.09404
G1 X-19.009 Y-15.773 A28.14516
G1 X-18.737 Y-16.609 A28.19395
G1 X-18.298 Y-17.369 A28.24273
G1 X-17.711 Y-18.022 A28.29151
G1 X-17.000 Y-18.538 A28.34030
G1 X-16.198 Y-18.895 A28.38909
G1 X-15.339 Y-19.078 A28.43788
G1 X15.339 Y-19.078 A30.14222
G1 X15.666 Y-19.008 A30.16080
G1 X16.198 Y-18.895 A30.19100 F3600.000
G1 X17.000 Y-18.538 A30.23979
G1 X17.711 Y-18.022 A30.28858
G1 X18.298 Y-17.369 A30.33736
G1 X18.737 Y-16.609 A30.38615
G1 X19.009 Y-15.773 A30.43493
G1 X19.105 Y-14.858 A30.48605
G1 X19.105 Y1.595 A31.40011
G1 X19.650 Y1.670 F7800.000
G1 X19.650 Y14.887 A31.88883 F1800.000
G1 X19.545 Y15.887 A31.92603
G1 X19.238 Y16.831 A31.96274
G1 X18.742 Y17.691 A31.99944
G1 X18.077 Y18.429 A32.03615
G1 X17.274 Y19.012 A32.07286
G1 X16.367 Y19.416 A32.10957
G1 X15.396 Y19.623 A32.14628
G1 X-15.396 Y19.623 A33.28488
G1 X-16.367 Y19.416 A33.32159
G1 X-17.274 Y19.012 A33.35830
G1 X-18.077 Y18.429 A33.39501
G1 X-18.742 Y17.691 A33.43171
G1 X-19.238 Y16.831 A33.46842
G1 X-19.545 Y15.887 A33.50513
G1 X-19.650 Y14.887 A33.54232
G1 X-19.650 Y-14.887 A34.64326
G1 X-19.545 Y-15.887 A34.68045
G1 X-19.238 Y-16.831 A34.71716
G1 X-18.742 Y-17.691 A34.75386
G1 X-18.077 Y-18.429 A34.79057
G1 X-17.274 Y-19.012 A34.82728
G1 X-16.367 Y-19.416 A34.86399
G1 X-15.396 Y-19.623 A34.90070
G1 X15.396 Y-19.623 A36.03930
G1 X15.780 Y-19.541 A36.05379
G1 X16.367 Y-19.416 A36.07601 F1800.000
G1 X17.274 Y-19.012 A36.11272
G1 X18.077 Y-18.429 A36.14943
G1 X18.742 Y-17.691 A36.18614
G1 X19.238 Y-16.831 A36.22284
G1 X19.545 Y-15.887 A36.25955
G1 X19.650 Y-14.887 A36.29675
G1 X19.650 Y1.595 A36.90618
G1 X19.217 Y1.920 F7800.000
G1 X13.679 Y7.288 F7800.000
G1 X18.053 Y2.914 A37.25215 F1200.000
G1 X18.053 Y1.982 A37.30427
G1 X14.433 Y5.602 A37.59062
G1 X14.881 Y4.222 A37.67180
G1 X18.053 Y1.050 A37.92268
G1 X18.053 Y0.118 A37.97480
G1 X15.136 Y3.036 A38.20556
G1 X15.327 Y1.912 A38.26929
G1 X18.053 Y-0.814 A38.48491
G1 X18.053 Y-1.745 A38.53703
G1 X15.390 Y0.918 A38.74770
G1 X15.427 Y-0.051 A38.80194
G1 X18.053 Y-2.677 A39.00967
G1 X18.053 Y-3.609 A39.06179
G1 X15.372 Y-0.928 A39.27390
G1 X15.316 Y-1.804 A39.32303
G1 X18.053 Y-4.541 A39.53949
G1 X18.053 Y-5.473 A39.59161
G1 X15.168 Y-2.588 A39.81981
G1 X15.019 Y-3.371 A39.86437
G1 X18.053 Y-6.405 A40.10437
G1 X18.053 Y-7.337 A40.15649
G1 X14.827 Y-4.111 A40.41165
G1 X14.599 Y-4.814 A40.45301
G1 X18.053 Y-8.268 A40.72625
G1 X18.053 Y-9.200 A40.77837
G1 X14.370 Y-5.517 A41.06968
G1 X14.080 Y-6.159 A41.10906
G1 X18.053 Y-10.132 A41.42334
G1 X18.053 Y-11.064 A41.47546
G1 X13.781 Y-6.793 A41.81334
G1 X13.477 Y-7.420 A41.85235
G1 X18.053 Y-11.996 A42.21429
G1 X18.053 Y-12.928 A42.26641
G1 X13.115 Y-7.990 A42.65696
G1 X12.754 Y-8.560 A42.69473
G1 X18.053 Y-13.860 A43.11390
G1 X18.053 Y-14.791 A43.16602
G1 X13.074 Y-9.812 A43.55986
G1 X12.652 Y-10.322 A43.59688
G1 X17.978 Y-15.648 A44.01815
G1 X17.737 Y-16.339 A44.05908
G1 X12.230 Y-10.832 A44.49465
G1 X11.791 Y-11.325 A44.53157
G1 X17.374 Y-16.909 A44.97319
G1 X16.907 Y-17.373 A45.01005
G1 X11.311 Y-11.777 A45.45273
G1 X10.830 Y-12.228 A45.48960
G1 X16.334 Y-17.732 A45.92494
G1 X15.636 Y-17.965 A45.96612
G1 X10.342 Y-12.671 A46.38489
G1 X9.802 Y-13.063 A46.42220
G1 X14.764 Y-18.026 A46.81471
G1 X13.832 Y-18.026 A46.86683
G1 X9.262 Y-13.455 A47.22832
G1 X8.001 Y-13.126 F7800.000
G1 X12.900 Y-18.026 A47.61587 F1200.000
G1 X11.968 Y-18.026 A47.66799
G1 X7.399 Y-13.457 A48.02940
G1 X6.798 Y-13.787 A48.06778
G1 X11.037 Y-18.026 A48.40303
G1 X10.105 Y-18.026 A48.45515
G1 X6.165 Y-14.086 A48.76676
G1 X5.498 Y-14.350 A48.80692
G1 X9.173 Y-18.026 A49.09762
G1 X8.241 Y-18.026 A49.14974
G1 X4.830 Y-14.615 A49.41954
G1 X4.106 Y-14.822 A49.46168
G1 X7.309 Y-18.026 A49.71505
G1 X6.377 Y-18.026 A49.76717
G1 X3.364 Y-15.013 A50.00549
G1 X2.605 Y-15.185 A50.04906
G1 X5.445 Y-18.026 A50.27376
G1 X4.514 Y-18.026 A50.32588
G1 X1.777 Y-15.289 A50.54231
G1 X0.950 Y-15.394 A50.58896
G1 X3.582 Y-18.026 A50.79712
G1 X2.650 Y-18.026 A50.84924
G1 X0.032 Y-15.408 A51.05630
G1 X-0.900 Y-15.408 A51.10842
G1 X1.718 Y-18.026 A51.31548
G1 X0.786 Y-18.026 A51.36760
G1 X-1.935 Y-15.305 A51.58283
G1 X-3.002 Y-15.170 A51.64296
G1 X-0.146 Y-18.026 A51.86886
G1 X-1.078 Y-18.026 A51.92098
G1 X-4.245 Y-14.858 A52.17155
G1 X-5.625 Y-14.410 A52.25268
G1 X-2.009 Y-18.026 A52.53868
G1 X-2.941 Y-18.026 A52.59080
G1 X-7.303 Y-13.664 A52.93582
G1 X-8.536 Y-13.363 A53.00679
G1 X-3.873 Y-18.026 A53.37561
G1 X-4.805 Y-18.026 A53.42773
G1 X-8.938 Y-13.893 A53.75462
G1 X-15.056 Y-18.026 F7800.000
G1 X-18.009 Y-15.072 A53.98826 F1200.000
G1 X-18.053 Y-14.096 A54.04288
G1 X-14.124 Y-18.026 A54.35368
G1 X-13.192 Y-18.026 A54.40580
G1 X-18.053 Y-13.164 A54.79031
G1 X-18.053 Y-12.233 A54.84243
G1 X-12.260 Y-18.026 A55.30065
G1 X-11.328 Y-18.026 A55.35277
G1 X-18.053 Y-11.301 A55.88470
G1 X-18.053 Y-10.369 A55.93682
G1 X-10.396 Y-18.026 A56.54246
G1 X-9.464 Y-18.026 A56.59458
G1 X-18.053 Y-9.437 A57.27393
G1 X-18.053 Y-8.505 A57.32605
G1 X-8.533 Y-18.026 A58.07911
G1 X-7.601 Y-18.026 A58.13123
G1 X-18.053 Y-7.573 A58.95799
G1 X-18.053 Y-6.641 A59.01011
G1 X-6.669 Y-18.026 A59.91059
G1 X-5.737 Y-18.026 A59.96271
G1 X-18.053 Y-5.710 A60.93690
G1 X-18.053 Y-4.778 A60.98902
G1 X-13.231 Y-9.599 A61.37041
G1 X-12.630 Y-9.269 A61.40879
G1 X-18.053 Y-3.846 A61.83775
G1 X-18.053 Y-2.914 A61.88987
G1 X-13.679 Y-7.288 A62.23584
G1 X-14.433 Y-5.602 F7800.000
G1 X-18.053 Y-1.982 A62.52220 F1200.000
G1 X-18.053 Y-1.050 A62.57432
G1 X-14.881 Y-4.222 A62.82519
G1 X-15.136 Y-3.036 A62.89305
G1 X-18.053 Y-0.118 A63.12381
G1 X-18.053 Y0.813 A63.17593
G1 X-15.327 Y-1.912 A63.39155
G1 X-15.390 Y-0.918 A63.44728
G1 X-18.053 Y1.745 A63.65795
G1 X-18.053 Y2.677 A63.71007
G1 X-15.427 Y0.051 A63.91781
G1 X-15.372 Y0.928 A63.96694
G1 X-18.053 Y3.609 A64.17904
G1 X-18.053 Y4.541 A64.23116
G1 X-15.316 Y1.804 A64.44763
G1 X-15.168 Y2.588 A64.49224
G1 X-18.053 Y5.473 A64.72043
G1 X-18.053 Y6.405 A64.77255
G1 X-15.019 Y3.370 A65.01255
G1 X-14.827 Y4.111 A65.05532
G1 X-18.053 Y7.337 A65.31048
G1 X-18.053 Y8.268 A65.36260
G1 X-14.599 Y4.814 A65.63583
G1 X-14.370 Y5.517 A65.67719
G1 X-18.053 Y9.200 A65.96850
G1 X-18.053 Y10.132 A66.02062
G1 X-14.080 Y6.159 A66.33491
G1 X-13.781 Y6.792 A66.37408
G1 X-18.053 Y11.064 A66.71195
G1 X-18.053 Y11.996 A66.76407
G1 X-13.477 Y7.420 A67.12601
G1 X-13.115 Y7.990 A67.16377
G1 X-18.053 Y12.928 A67.55432
G1 X-18.053 Y13.860 A67.60644
G1 X-12.754 Y8.560 A68.02562
G1 X-13.074 Y9.812 F7800.000
G1 X-18.053 Y14.791 A68.41945 F1200.000
G1 X-17.978 Y15.648 A68.46756
G1 X-12.652 Y10.322 A68.88883
G1 X-12.230 Y10.832 A68.92585
G1 X-17.737 Y16.339 A69.36143
G1 X-17.374 Y16.908 A69.39918
G1 X-11.791 Y11.325 A69.84080
G1 X-11.311 Y11.777 A69.87768
G1 X-16.907 Y17.373 A70.32036
G1 X-16.334 Y17.732 A70.35818
G1 X-10.830 Y12.228 A70.79352
G1 X-10.342 Y12.671 A70.83042
G1 X-15.636 Y17.965 A71.24919
G1 X-14.764 Y18.026 A71.29806
G1 X-9.802 Y13.063 A71.69057
G1 X-9.262 Y13.455 A71.72788
G1 X-13.832 Y18.026 A72.08938
G1 X-12.900 Y18.026 A72.14150
G1 X-8.001 Y13.126 A72.52905
G1 X-7.399 Y13.457 A72.56743
G1 X-11.968 Y18.026 A72.92884
G1 X-11.037 Y18.026 A72.98096
G1 X-6.798 Y13.787 A73.31622
G1 X-6.165 Y14.086 A73.35536
G1 X-10.105 Y18.026 A73.66697
G1 X-9.173 Y18.026 A73.71909
G1 X-5.498 Y14.350 A74.00980
G1 X-4.830 Y14.615 A74.04995
G1 X-8.241 Y18.026 A74.31975
G1 X-7.309 Y18.026 A74.37187
G1 X-4.106 Y14.822 A74.62525
G1 X-3.364 Y15.013 A74.66807
G1 X-6.377 Y18.026 A74.90639
G1 X-5.445 Y18.026 A74.95851
G1 X-2.605 Y15.185 A75.18321
G1 X-1.777 Y15.289 A75.22985
G1 X-4.514 Y18.026 A75.44628
G1 X-3.582 Y18.026 A75.49840
G1 X-0.950 Y15.394 A75.70657
G1 X-0.032 Y15.408 A75.75791
G1 X-2.650 Y18.026 A75.96497
G1 X-1.718 Y18.026 A76.01709
G1 X0.900 Y15.408 A76.22415
G1 X1.935 Y15.305 A76.28234
G1 X-0.786 Y18.026 A76.49757
G1 X0.146 Y18.026 A76.54969
G1 X3.002 Y15.170 A76.77558
G1 X4.245 Y14.858 A76.84731
G1 X1.078 Y18.026 A77.09788
G1 X2.009 Y18.026 A77.15000
G1 X5.625 Y14.410 A77.43599
G1 X7.303 Y13.664 F7800.000
G1 X2.941 Y18.026 A77.78101 F1200.000
G1 X3.873 Y18.026 A77.83313
G1 X8.536 Y13.363 A78.20195
G1 X8.938 Y13.893 A78.23915
G1 X4.805 Y18.026 A78.56603
G1 X5.737 Y18.026 A78.61815
G1 X18.053 Y5.709 A79.59234
G1 X18.053 Y6.641 A79.64446
G1 X6.669 Y18.026 A80.54494
G1 X7.601 Y18.026 A80.59706
G1 X18.053 Y7.573 A81.42383
G1 X18.053 Y8.505 A81.47595
G1 X8.532 Y18.026 A82.22902
G1 X9.464 Y18.026 A82.28114
G1 X18.053 Y9.437 A82.96049
G1 X18.053 Y10.369 A83.01261
G1 X10.396 Y18.026 A83.61825
G1 X11.328 Y18.026 A83.67037
G1 X18.053 Y11.301 A84.20231
G1 X18.053 Y12.233 A84.25443
G1 X12.260 Y18.026 A84.71265
G1 X13.192 Y18.026 A84.76477
G1 X18.053 Y13.164 A85.14929
G1 X18.053 Y14.096 A85.20141
G1 X14.124 Y18.026 A85.51221
G1 X15.056 Y18.026 A85.56433
G1 X18.009 Y15.072 A85.79798
G1 X17.305 Y16.708 F7800.000
G1 X16.667 Y17.346 A85.84846 F1200.000
G1 X13.231 Y9.599 F7800.000
G1 X18.053 Y4.778 A86.22985 F1200.000
G1 X18.053 Y3.846 A86.28198
G1 X12.630 Y9.269 A86.71093
G1 A84.71093 F2400.00000
G92 A0
G1 X-16.667 Y-17.346 F7800.000
G1 A2.00000 F2400.00000
G1 X-17.305 Y-16.708 A2.05043 F1200.000
G1 A0.05043 F2400.00000
G92 A0
G1 X12.563 Y9.741 F7800.000
G1 A2.00000 F2400.00000
G1 X11.606 Y10.898 A2.08345 F4800.000
G1 X10.148 Y12.267 A2.19453
G1 X8.933 Y13.150 A2.27799
G1 X8.793 Y12.853 A2.29623
G1 X9.942 Y12.018 A2.37515
G1 X11.370 Y10.677 A2.48396
G1 X12.275 Y9.583 A2.56287
G1 X12.563 Y9.741 A2.58111
G1 A0.58111 F2400.00000
G92 A0
G1 X-11.370 Y10.677 F7800.000
G1 A2.00000 F2400.00000
G1 X-9.942 Y12.018 A2.10882 F4800.000
G1 X-8.793 Y12.853 A2.18772
G1 X-8.933 Y13.150 A2.20597
G1 X-10.148 Y12.267 A2.28942
G1 X-11.324 Y11.163 A2.37902
G1 X-11.606 Y10.898 A2.40049
G1 X-12.563 Y9.741 A2.48394
G1 X-12.275 Y9.583 A2.50219
G1 X-11.370 Y10.677 A2.58109
G1 A0.58109 F2400.00000
G92 A0
G1 X-8.793 Y-12.853 F7800.000
G1 A2.00000 F2400.00000
G1 X-9.014 Y-12.693 A2.01514 F4800.000
G1 X-9.103 Y-13.027 A2.03433
G1 X-8.933 Y-13.150 A2.04601
G1 X-8.793 Y-12.853 A2.06426
M106 P117.3
G1 Z2.150 F7800.000
G1 A0.06426 F2400.00000
G92 A0
G1 X16.192 Y1.452 F7800.000
G1 A2.00000 F2400.00000
G1 X16.154 Y2.041 A2.03279 F3600.000
G1 X15.771 Y4.049 A2.14638
G1 X15.140 Y5.994 A2.25998
G1 X14.269 Y7.844 A2.37357
G1 X13.173 Y9.571 A2.48719
G1 X11.870 Y11.146 A2.60078
G1 X10.379 Y12.546 A2.71438
G1 X9.103 Y13.473 A2.80202
G1 X8.725 Y13.748 A2.82799
G1 X6.933 Y14.733 A2.94157
G1 X5.031 Y15.486 A3.05520
G1 X3.051 Y15.995 A3.16879
G1 X1.022 Y16.251 A3.28239
G1 X-1.022 Y16.251 A3.39599
G1 X-3.051 Y15.995 A3.50959
G1 X-5.031 Y15.486 A3.62318
G1 X-6.921 Y14.738 A3.73607
G1 X-8.735 Y13.740 A3.85112
G1 X-10.379 Y12.546 A3.96399
G1 X-11.870 Y11.146 A4.07759
G1 X-13.173 Y9.571 A4.19118
G1 X-14.025 Y8.228 A4.27955
G1 X-14.269 Y7.844 A4.30481
G1 X-15.140 Y5.994 A4.41839
G1 X-15.771 Y4.049 A4.53199
G1 X-16.154 Y2.041 A4.64558
G1 X-16.283 Y-0.000 A4.75920
G1 X-16.154 Y-2.041 A4.87282
G1 X-15.771 Y-4.050 A4.98641
G1 X-15.140 Y-5.994 A5.10000
G1 X-14.269 Y-7.844 A5.21359
G1 X-13.173 Y-9.571 A5.32722
G1 X-11.870 Y-11.146 A5.44081
G1 X-10.379 Y-12.546 A5.55441
G1 X-9.103 Y-13.473 A5.64205
G1 X-8.725 Y-13.748 A5.66802
G1 X-6.933 Y-14.733 A5.78160
G1 X-5.031 Y-15.486 A5.89523
G1 X-3.051 Y-15.995 A6.00882
G1 X-1.022 Y-16.251 A6.12242
G1 X1.022 Y-16.251 A6.23602 F3600.000
G1 X3.051 Y-15.995 A6.34962
G1 X5.031 Y-15.486 A6.46321
G1 X6.921 Y-14.738 A6.57609
G1 X8.735 Y-13.740 A6.69115
G1 X10.379 Y-12.546 A6.80402
G1 X11.870 Y-11.146 A6.91762
G1 X13.173 Y-9.571 A7.03121
G1 X14.025 Y-8.228 A7.11957
G1 X14.269 Y-7.844 A7.14483
G1 X15.140 Y-5.994 A7.25842
G1 X15.771 Y-4.050 A7.37202
G1 X16.154 Y-2.041 A7.48561
G1 X16.283 Y-0.000 A7.59923
G1 X16.196 Y1.377 A7.67589
G1 X15.538 Y1.411 F7800.000
G1 X15.504 Y1.959 A7.70639 F3600.000
G1 X15.136 Y3.886 A7.81541
G1 X14.530 Y5.753 A7.92443
G1 X13.694 Y7.528 A8.03344
G1 X12.642 Y9.186 A8.14249
G1 X11.392 Y10.698 A8.25151
G1 X9.961 Y12.041 A8.36053
G1 X8.718 Y12.944 A8.44588
G1 X8.373 Y13.194 A8.46956
G1 X6.654 Y14.140 A8.57857
G1 X4.829 Y14.862 A8.68763
G1 X2.928 Y15.350 A8.79664
G1 X0.981 Y15.596 A8.90566
G1 X-0.981 Y15.596 A9.01469
G1 X-2.928 Y15.350 A9.12371
G1 X-4.829 Y14.862 A9.23273
G1 X-6.641 Y14.145 A9.34104
G1 X-8.384 Y13.187 A9.45151
G1 X-9.961 Y12.041 A9.55981
G1 X-11.392 Y10.698 A9.66884
G1 X-12.642 Y9.186 A9.77785
G1 X-13.473 Y7.877 A9.86393
G1 X-13.694 Y7.528 A9.88690
G1 X-14.530 Y5.753 A9.99591
G1 X-15.136 Y3.886 A10.10493
G1 X-15.504 Y1.959 A10.21395
G1 X-15.627 Y-0.000 A10.32299
G1 X-15.504 Y-1.959 A10.43203
G1 X-15.136 Y-3.886 A10.54105
G1 X-14.530 Y-5.753 A10.65007
G1 X-13.694 Y-7.528 A10.75909
G1 X-12.642 Y-9.186 A10.86813
G1 X-11.392 Y-10.698 A10.97715
G1 X-9.961 Y-12.041 A11.08618
G1 X-8.718 Y-12.944 A11.17152
G1 X-8.373 Y-13.194 A11.19521
G1 X-6.654 Y-14.140 A11.30422
G1 X-4.829 Y-14.862 A11.41327
G1 X-2.928 Y-15.350 A11.52228
G1 X-0.981 Y-15.596 A11.63131
G1 X0.981 Y-15.596 A11.74033 F3600.000
G1 X2.928 Y-15.350 A11.84936
G1 X4.829 Y-14.862 A11.95837
G1 X6.641 Y-14.145 A12.06668
G1 X8.384 Y-13.187 A12.17716
G1 X9.961 Y-12.041 A12.28545
G1 X11.392 Y-10.698 A12.39448
G1 X12.642 Y-9.186 A12.50349
G1 X13.473 Y-7.877 A12.58957
G1 X13.694 Y-7.528 A12.61254
G1 X14.530 Y-5.753 A12.72156
G1 X15.136 Y-3.886 A12.83058
G1 X15.504 Y-1.959 A12.93960
G1 X15.627 Y-0.000 A13.04864
G1 X15.543 Y1.336 A13.12301
G1 X14.885 Y1.370 F7800.000
G1 X14.853 Y1.877 A13.15122 F3600.000
G1 X14.501 Y3.723 A13.25567
G1 X13.920 Y5.511 A13.36011
G1 X13.120 Y7.212 A13.46455
G1 X12.112 Y8.800 A13.56903
G1 X10.914 Y10.249 A13.67346
G1 X9.543 Y11.536 A13.77791
G1 X8.334 Y12.414 A13.86097
G1 X8.022 Y12.641 A13.88237
G1 X6.375 Y13.546 A13.98681
G1 X4.626 Y14.239 A14.09128
G1 X2.805 Y14.706 A14.19572
G1 X0.940 Y14.942 A14.30017
G1 X-0.940 Y14.942 A14.40462
G1 X-2.805 Y14.706 A14.50907
G1 X-4.626 Y14.239 A14.61351
G1 X-6.362 Y13.551 A14.71724
G1 X-8.033 Y12.633 A14.82314
G1 X-9.543 Y11.536 A14.92687
G1 X-10.914 Y10.249 A15.03132
G1 X-12.112 Y8.800 A15.13576
G1 X-12.920 Y7.527 A15.21955
G1 X-13.120 Y7.212 A15.24023
G1 X-13.920 Y5.511 A15.34467
G1 X-14.501 Y3.723 A15.44911
G1 X-14.853 Y1.877 A15.55356
G1 X-14.971 Y-0.000 A15.65802
G1 X-14.853 Y-1.877 A15.76249
G1 X-14.501 Y-3.723 A15.86693
G1 X-13.920 Y-5.511 A15.97137
G1 X-13.120 Y-7.212 A16.07581
G1 X-12.112 Y-8.800 A16.18029
G1 X-10.914 Y-10.249 A16.28473
G1 X-9.543 Y-11.536 A16.38918
G1 X-8.334 Y-12.414 A16.47223
G1 X-8.022 Y-12.641 A16.49363
G1 X-6.375 Y-13.546 A16.59807
G1 X-4.626 Y-14.239 A16.70255
G1 X-2.805 Y-14.706 A16.80698
G1 X-0.940 Y-14.942 A16.91143
G1 X0.940 Y-14.942 A17.01588 F3600.000
G1 X2.805 Y-14.706 A17.12033
G1 X4.626 Y-14.239 A17.22477
G1 X6.362 Y-13.551 A17.32851
G1 X8.033 Y-12.633 A17.43441
G1 X9.543 Y-11.536 A17.53813
G1 X10.914 Y-10.249 A17.64258
G1 X12.112 Y-8.800 A17.74702
G1 X12.920 Y-7.527 A17.83081
G1 X13.120 Y-7.212 A17.85149
G1 X13.920 Y-5.511 A17.95593
