; generated by Slic3r 1.2.9 on 2016-05-31 at 13:22:58

; external perimeters extrusion width = 0.50mm
; perimeters extrusion width = 0.72mm
; infill extrusion width = 0.72mm
; solid infill extrusion width = 0.72mm
; top infill extrusion width = 0.72mm

M107
M104 P200 ; set temperature
G28 ; home all axes
G1 Z5 F5000 ; lift nozzle

M109 P200 ; wait for temperature to be reached
G21 ; set units to millimeters
G90 ; use absolute coordinates
G1 Z0.350 F7800.000
G1 A-2.00000 F2400.00000
G92 A0
G1 X76.893 Y77.014 F7800.000
G1 A2.00000 F2400.00000
G1 X77.923 Y76.087 A2.08573 F1800.000
G1 X78.769 Y75.473 A2.15041
G1 X79.968 Y74.780 A2.23609
G1 X80.923 Y74.355 A2.30078
G1 X82.240 Y73.927 A2.38652
G1 X83.263 Y73.710 A2.45120
G1 X84.640 Y73.565 A2.53689
G1 X115.360 Y73.565 A4.43794
G1 X116.737 Y73.710 A4.52363
G1 X117.760 Y73.927 A4.58832 F1800.000
G1 X119.077 Y74.355 A4.67406
G1 X120.032 Y74.780 A4.73874
G1 X121.231 Y75.473 A4.82442
G1 X122.077 Y76.087 A4.88911
G1 X123.107 Y77.014 A4.97484
G1 X123.806 Y77.791 A5.03952
G1 X124.620 Y78.911 A5.12522
G1 X125.143 Y79.816 A5.18990
G1 X125.706 Y81.082 A5.27560
G1 X126.029 Y82.076 A5.34029
G1 X126.317 Y83.430 A5.42598
G1 X126.426 Y84.470 A5.49067
G1 X126.462 Y85.162 A5.53359
G1 X126.462 Y114.838 A7.36996
G1 X126.426 Y115.530 A7.41288
G1 X126.317 Y116.570 A7.47757
G1 X126.029 Y117.924 A7.56326
G1 X125.706 Y118.918 A7.62795
G1 X125.143 Y120.184 A7.71365
G1 X124.620 Y121.089 A7.77833
G1 X123.806 Y122.209 A7.86403
G1 X123.107 Y122.986 A7.92872
G1 X122.077 Y123.913 A8.01444
G1 X121.231 Y124.527 A8.07913
G1 X120.032 Y125.220 A8.16481
G1 X119.077 Y125.645 A8.22949
G1 X117.760 Y126.073 A8.31523
G1 X116.737 Y126.290 A8.37992
G1 X115.360 Y126.435 A8.46561
G1 X84.640 Y126.435 A10.36666
G1 X83.263 Y126.290 A10.45235
G1 X82.240 Y126.073 A10.51704
G1 X80.923 Y125.645 A10.60278
G1 X79.968 Y125.220 A10.66746
G1 X78.769 Y124.527 A10.75314
G1 X77.923 Y123.913 A10.81783
G1 X76.893 Y122.986 A10.90355
G1 X76.194 Y122.209 A10.96824
G1 X75.380 Y121.089 A11.05394
G1 X74.857 Y120.184 A11.11862
G1 X74.294 Y118.918 A11.20432
G1 X73.971 Y117.924 A11.26900
G1 X73.683 Y116.570 A11.35470
G1 X73.574 Y115.530 A11.41938
G1 X73.538 Y114.838 A11.46231
G1 X73.538 Y85.162 A13.29868
G1 X73.574 Y84.470 A13.34160
G1 X73.683 Y83.430 A13.40629
G1 X73.971 Y82.076 A13.49198
G1 X74.294 Y81.082 A13.55666
G1 X74.857 Y79.816 A13.64237
G1 X75.380 Y78.911 A13.70705
G1 X76.194 Y77.791 A13.79275
G1 X76.843 Y77.070 A13.85279
G1 A11.85279 F2400.00000
G92 A0
G1 X111.328 Y110.638 F7800.000
G1 A2.00000 F2400.00000
G1 X109.906 Y111.974 A2.12075 F1800.000
G1 X108.328 Y113.120 A2.24142
G1 X106.616 Y114.061 A2.36232
G1 X104.802 Y114.779 A2.48308
G1 X102.912 Y115.265 A2.60383
G1 X100.976 Y115.509 A2.72460
G1 X99.024 Y115.509 A2.84535
G1 X97.088 Y115.265 A2.96612
G1 X95.198 Y114.779 A3.08687
G1 X93.382 Y114.061 A3.20771
G1 X91.651 Y113.104 A3.33013
G1 X90.094 Y111.974 A3.44919
G1 X88.672 Y110.638 A3.56994
G1 X87.428 Y109.134 A3.69069
G1 X86.396 Y107.508 A3.80986
G1 X85.552 Y105.722 A3.93213
G1 X84.948 Y103.865 A4.05298
G1 X84.583 Y101.948 A4.17373
G1 X84.460 Y99.999 A4.29460
G1 X84.587 Y98.027 A4.41688
G1 X84.948 Y96.135 A4.53604
G1 X85.552 Y94.278 A4.65689
G1 X86.396 Y92.492 A4.77916
G1 X87.428 Y90.866 A4.89833
G1 X88.672 Y89.362 A5.01908
G1 X90.094 Y88.026 A5.13984
G1 X91.672 Y86.880 A5.26051
G1 X93.437 Y85.909 A5.38518
G1 X95.202 Y85.220 A5.50241
G1 X97.088 Y84.735 A5.62294
G1 X99.024 Y84.491 A5.74372
G1 X100.976 Y84.491 A5.86446 F1800.000
G1 X102.912 Y84.735 A5.98524
G1 X104.802 Y85.221 A6.10598
G1 X106.616 Y85.939 A6.22674
G1 X108.328 Y86.880 A6.34764
G1 X109.906 Y88.026 A6.46831
G1 X111.328 Y89.362 A6.58906
G1 X112.572 Y90.866 A6.70981
G1 X113.604 Y92.492 A6.82898
G1 X114.448 Y94.278 A6.95126
G1 X115.052 Y96.135 A7.07211
G1 X115.417 Y98.052 A7.19286
G1 X115.540 Y100.000 A7.31364
G1 X115.417 Y101.948 A7.43443
G1 X115.052 Y103.865 A7.55518
G1 X114.448 Y105.722 A7.67603
G1 X113.604 Y107.508 A7.79830
G1 X112.572 Y109.134 A7.91747
G1 X111.376 Y110.580 A8.03358
G1 X110.872 Y110.209 F7800.000
G1 X109.507 Y111.491 A8.14947 F1800.000
G1 X107.993 Y112.591 A8.26527
G1 X106.350 Y113.495 A8.38131
G1 X104.608 Y114.184 A8.49720
G1 X102.795 Y114.650 A8.61308
G1 X100.936 Y114.884 A8.72899
G1 X99.064 Y114.884 A8.84487
G1 X97.205 Y114.650 A8.96078
G1 X95.392 Y114.184 A9.07666
G1 X93.650 Y113.494 A9.19260
G1 X91.987 Y112.576 A9.31015
G1 X90.493 Y111.491 A9.42438
G1 X89.128 Y110.209 A9.54026
G1 X87.935 Y108.766 A9.65615
G1 X86.945 Y107.206 A9.77049
G1 X86.134 Y105.491 A9.88790
G1 X85.555 Y103.709 A10.00384
G1 X85.204 Y101.870 A10.11973
G1 X85.086 Y99.999 A10.23570
G1 X85.209 Y98.106 A10.35311
G1 X85.555 Y96.291 A10.46744
G1 X86.134 Y94.509 A10.58339
G1 X86.945 Y92.794 A10.70080
G1 X87.935 Y91.234 A10.81514
G1 X89.128 Y89.791 A10.93102
G1 X90.493 Y88.509 A11.04691
G1 X92.007 Y87.409 A11.16271
G1 X93.703 Y86.477 A11.28244
G1 X95.394 Y85.815 A11.39480
G1 X97.205 Y85.350 A11.51055
G1 X99.064 Y85.116 A11.62646
G1 X100.936 Y85.116 A11.74234 F1800.000
G1 X102.795 Y85.350 A11.85825
G1 X104.608 Y85.816 A11.97412
G1 X106.350 Y86.505 A12.09002
G1 X107.993 Y87.409 A12.20605
G1 X109.507 Y88.509 A12.32186
G1 X110.872 Y89.791 A12.43774
G1 X112.065 Y91.234 A12.55363
G1 X113.055 Y92.794 A12.66797
G1 X113.866 Y94.509 A12.78538
G1 X114.445 Y96.291 A12.90132
G1 X114.796 Y98.130 A13.01721
G1 X114.914 Y100.000 A13.13313
G1 X114.796 Y101.870 A13.24905
G1 X114.445 Y103.709 A13.36493
G1 X113.866 Y105.491 A13.48088
G1 X113.055 Y107.206 A13.59829
G1 X112.065 Y108.766 A13.71263
G1 X110.920 Y110.151 A13.82387
G1 X110.415 Y109.781 F7800.000
G1 X109.107 Y111.009 A13.93489 F1800.000
G1 X107.657 Y112.062 A14.04583
G1 X106.083 Y112.928 A14.15700
G1 X104.415 Y113.589 A14.26803
G1 X102.677 Y114.035 A14.37904
G1 X100.897 Y114.259 A14.49008
G1 X99.103 Y114.259 A14.60110
G1 X97.323 Y114.035 A14.71214
G1 X95.585 Y113.589 A14.82316
G1 X93.917 Y112.928 A14.93420
G1 X92.323 Y112.048 A15.04688
G1 X90.893 Y111.009 A15.15628
G1 X89.585 Y109.781 A15.26730
G1 X88.441 Y108.398 A15.37832
G1 X87.493 Y106.904 A15.48782
G1 X86.716 Y105.260 A15.60037
G1 X86.161 Y103.553 A15.71141
G1 X85.825 Y101.791 A15.82244
G1 X85.712 Y100.000 A15.93351
G1 X85.830 Y98.185 A16.04605
G1 X86.161 Y96.447 A16.15555
G1 X86.716 Y94.740 A16.26660
G1 X87.493 Y93.096 A16.37914
G1 X88.441 Y91.602 A16.48865
G1 X89.585 Y90.219 A16.59967
G1 X90.893 Y88.991 A16.71069
G1 X92.343 Y87.938 A16.82163
G1 X93.968 Y87.044 A16.93641
G1 X95.586 Y86.411 A17.04390
G1 X97.323 Y85.965 A17.15486
G1 X99.103 Y85.741 A17.26591
G1 X100.897 Y85.741 A17.37692 F1800.000
G1 X102.677 Y85.965 A17.48797
G1 X104.415 Y86.411 A17.59898
G1 X106.083 Y87.072 A17.71000
G1 X107.657 Y87.938 A17.82117
G1 X109.107 Y88.991 A17.93211
G1 X110.415 Y90.219 A18.04313
G1 X111.559 Y91.602 A18.15415
G1 X112.507 Y93.096 A18.26366
G1 X113.284 Y94.740 A18.37620
G1 X113.839 Y96.447 A18.48725
G1 X114.175 Y98.209 A18.59827
G1 X114.288 Y100.000 A18.70932
G1 X114.175 Y101.791 A18.82038
G1 X113.839 Y103.553 A18.93140
G1 X113.284 Y105.260 A19.04244
G1 X112.507 Y106.904 A19.15499
G1 X111.559 Y108.398 A19.26450
G1 X110.463 Y109.723 A19.37087
G1 X110.550 Y110.262 F7800.000
G1 X118.238 Y109.781 F7800.000
G1 X118.238 Y114.754 A19.67862 F1800.000
G1 X118.155 Y115.543 A19.72771
G1 X117.936 Y116.217 A19.77159
G1 X117.581 Y116.831 A19.81546
G1 X117.107 Y117.358 A19.85933
G1 X116.533 Y117.775 A19.90321
G1 X115.886 Y118.063 A19.94708
G1 X115.192 Y118.210 A19.99096
G1 X84.808 Y118.210 A21.87120
G1 X84.114 Y118.063 A21.91507
G1 X83.467 Y117.775 A21.95895
G1 X82.893 Y117.358 A22.00283
G1 X82.419 Y116.831 A22.04670
G1 X82.064 Y116.217 A22.09057
G1 X81.845 Y115.543 A22.13444
G1 X81.762 Y114.754 A22.18354
G1 X81.762 Y85.246 A24.00953
G1 X81.845 Y84.457 A24.05862
G1 X82.064 Y83.783 A24.10250
G1 X82.419 Y83.169 A24.14637
G1 X82.893 Y82.642 A24.19024
G1 X83.467 Y82.225 A24.23412
G1 X84.114 Y81.937 A24.27799
G1 X84.808 Y81.790 A24.32187
G1 X115.192 Y81.790 A26.20211
G1 X115.692 Y81.896 A26.23375
G1 X115.886 Y81.937 A26.24598 F1800.000
G1 X116.533 Y82.225 A26.28986
G1 X117.107 Y82.642 A26.33373
G1 X117.581 Y83.169 A26.37761
G1 X117.936 Y83.783 A26.42148
G1 X118.155 Y84.457 A26.46535
G1 X118.238 Y85.246 A26.51445
G1 X118.238 Y109.706 A28.02805
G1 X118.863 Y109.781 F7800.000
G1 X118.863 Y114.786 A28.33782 F1800.000
G1 X118.769 Y115.673 A28.39301
G1 X118.510 Y116.472 A28.44501
G1 X118.090 Y117.200 A28.49701
G1 X117.527 Y117.825 A28.54901
G1 X116.847 Y118.319 A28.60102
G1 X116.080 Y118.661 A28.65302
G1 X115.258 Y118.835 A28.70503
G1 X84.742 Y118.835 A30.59339
G1 X83.920 Y118.661 A30.64540
G1 X83.153 Y118.319 A30.69740
G1 X82.473 Y117.825 A30.74941
G1 X81.910 Y117.200 A30.80141
G1 X81.490 Y116.472 A30.85341
G1 X81.231 Y115.673 A30.90541
G1 X81.137 Y114.786 A30.96060
G1 X81.137 Y85.214 A32.79064
G1 X81.231 Y84.327 A32.84582
G1 X81.490 Y83.527 A32.89783
G1 X81.910 Y82.800 A32.94983
G1 X82.473 Y82.175 A33.00183
G1 X83.153 Y81.681 A33.05384
G1 X83.920 Y81.339 A33.10584
G1 X84.742 Y81.165 A33.15784
G1 X115.258 Y81.165 A35.04621
G1 X115.822 Y81.285 A35.08192
G1 X116.080 Y81.339 A35.09822 F1800.000
G1 X116.847 Y81.681 A35.15022
G1 X117.527 Y82.175 A35.20223
G1 X118.090 Y82.800 A35.25423
G1 X118.510 Y83.527 A35.30623
G1 X118.769 Y84.327 A35.35823
G1 X118.863 Y85.214 A35.41342
G1 X118.863 Y109.706 A36.92904
G1 X119.487 Y109.781 F7800.000
G1 X119.487 Y114.819 A37.24084 F1800.000
G1 X119.384 Y115.804 A37.30212
G1 X119.084 Y116.728 A37.36225
G1 X118.598 Y117.570 A37.42238
G1 X117.948 Y118.292 A37.48251
G1 X117.162 Y118.863 A37.54264
G1 X116.274 Y119.258 A37.60278
G1 X115.323 Y119.460 A37.66291
G1 X84.677 Y119.460 A39.55941
G1 X83.726 Y119.258 A39.61954
G1 X82.838 Y118.863 A39.67967
G1 X82.052 Y118.292 A39.73981
G1 X81.402 Y117.570 A39.79994
G1 X80.916 Y116.728 A39.86007
G1 X80.616 Y115.804 A39.92020
G1 X80.512 Y114.819 A39.98147
G1 X80.512 Y85.181 A41.81557
G1 X80.616 Y84.196 A41.87685
G1 X80.916 Y83.272 A41.93698
G1 X81.402 Y82.430 A41.99711
G1 X82.052 Y81.708 A42.05724
G1 X82.838 Y81.137 A42.11737
G1 X83.726 Y80.742 A42.17750
G1 X84.677 Y80.540 A42.23764
G1 X115.323 Y80.540 A44.13413
G1 X115.952 Y80.673 A44.17390
G1 X116.274 Y80.742 A44.19427 F1800.000
G1 X117.162 Y81.137 A44.25440
G1 X117.948 Y81.708 A44.31453
G1 X118.598 Y82.430 A44.37466
G1 X119.084 Y83.272 A44.43479
G1 X119.384 Y84.196 A44.49492
G1 X119.487 Y85.181 A44.55620
G1 X119.487 Y109.706 A46.07386
G1 X119.054 Y110.031 F7800.000
G1 X114.999 Y94.596 F7800.000
G1 X117.859 Y97.456 A46.32508 F1800.000
G1 X117.859 Y98.343 A46.38019
G1 X115.421 Y95.904 A46.59441
G1 X115.630 Y97.000 A46.66373
G1 X117.859 Y99.230 A46.85958
G1 X117.859 Y100.117 A46.91469
G1 X115.806 Y98.064 A47.09505
G1 X115.866 Y99.010 A47.15398
G1 X117.859 Y101.004 A47.32911
G1 X117.859 Y101.891 A47.38422
G1 X115.915 Y99.946 A47.55505
G1 X115.862 Y100.781 A47.60700
G1 X117.859 Y102.778 A47.78245
G1 X117.859 Y103.665 A47.83755
G1 X115.810 Y101.616 A48.01762
G1 X115.696 Y102.389 A48.06617
G1 X117.859 Y104.552 A48.25623
G1 X117.859 Y105.440 A48.31134
G1 X115.554 Y103.134 A48.51388
G1 X115.410 Y103.877 A48.56090
G1 X117.859 Y106.327 A48.77610
G1 X117.859 Y107.214 A48.83120
G1 X115.192 Y104.547 A49.06552
G1 X114.974 Y105.216 A49.10925
G1 X117.859 Y108.101 A49.36268
G1 X117.859 Y108.988 A49.41778
G1 X114.746 Y105.875 A49.69127
G1 X114.461 Y106.477 A49.73266
G1 X117.859 Y109.875 A50.03116
G1 X117.859 Y110.762 A50.08626
G1 X114.177 Y107.080 A50.40978
G1 X113.886 Y107.676 A50.45100
G1 X117.859 Y111.649 A50.80004
G1 X117.859 Y112.536 A50.85515
G1 X113.542 Y108.219 A51.23445
G1 X113.197 Y108.762 A51.27438
G1 X117.859 Y113.424 A51.68394
G1 X117.859 Y114.311 A51.73905
G1 X112.853 Y109.304 A52.17888
G1 X112.451 Y109.790 A52.21802
G1 X117.827 Y115.166 A52.69030
G1 X117.676 Y115.902 A52.73700
G1 X112.049 Y110.275 A53.23132
G1 X111.648 Y110.761 A53.27046
G1 X117.390 Y116.503 A53.77489
G1 X116.988 Y116.988 A53.81403
G1 X111.201 Y111.201 A54.32239
G1 X110.744 Y111.631 A54.36137
G1 X116.505 Y117.392 A54.86751
G1 X115.910 Y117.684 A54.90869
G1 X110.286 Y112.060 A55.40273
G1 X109.795 Y112.457 A55.44192
G1 X115.170 Y117.832 A55.91412
G1 X114.283 Y117.832 A55.96923
G1 X109.282 Y112.830 A56.40864
G1 X108.768 Y113.203 A56.44809
G1 X113.396 Y117.832 A56.85470
G1 X112.509 Y117.832 A56.90981
G1 X108.229 Y113.552 A57.28579
G1 X107.657 Y113.867 A57.32636
G1 X111.622 Y117.832 A57.67469
G1 X110.735 Y117.832 A57.72980
G1 X107.085 Y114.181 A58.05048
G1 X106.491 Y114.475 A58.09161
G1 X109.848 Y117.832 A58.38647
G1 X108.961 Y117.832 A58.44158
G1 X105.856 Y114.727 A58.71434
G1 X105.220 Y114.979 A58.75680
G1 X108.073 Y117.832 A59.00746
G1 X107.186 Y117.832 A59.06257
G1 X104.558 Y115.203 A59.29348
G1 X103.852 Y115.384 A59.33876
G1 X106.299 Y117.832 A59.55375
G1 X105.412 Y117.832 A59.60886
G1 X103.146 Y115.566 A59.80794
G1 X102.390 Y115.697 A59.85561
G1 X104.525 Y117.832 A60.04319
G1 X103.638 Y117.832 A60.09830
G1 X101.602 Y115.796 A60.27714
G1 X100.807 Y115.888 A60.32687
G1 X102.751 Y117.832 A60.49765
G1 X101.864 Y117.832 A60.55276
G1 X99.920 Y115.888 A60.72353
G1 X99.033 Y115.888 A60.77864
G1 X100.977 Y117.832 A60.94941
G1 X100.089 Y117.832 A61.00452
G1 X98.042 Y115.785 A61.18436
G1 X97.027 Y115.656 A61.24794
G1 X99.202 Y117.832 A61.43905
G1 X98.315 Y117.832 A61.49416
G1 X95.863 Y115.379 A61.70961
G1 X94.614 Y115.018 A61.79035
G1 X97.428 Y117.832 A62.03754
G1 X96.541 Y117.832 A62.09265
G1 X93.146 Y114.437 A62.39092
G1 X91.180 Y113.358 F7800.000
G1 X95.654 Y117.832 A62.78392 F1800.000
G1 X94.767 Y117.832 A62.83903
G1 X82.141 Y105.206 A63.94822
G1 X82.141 Y106.093 A64.00333
G1 X93.880 Y117.832 A65.03459
G1 X92.992 Y117.832 A65.08970
G1 X82.141 Y106.980 A66.04302
G1 X82.141 Y107.867 A66.09813
G1 X92.105 Y117.832 A66.97352
G1 X91.218 Y117.832 A67.02863
G1 X82.141 Y108.754 A67.82608
G1 X85.617 Y106.907 F7800.000
G1 X82.141 Y103.432 A68.13143 F1800.000
G1 X82.141 Y104.319 A68.18654
G1 X86.723 Y108.901 A68.58909
G1 X85.001 Y105.404 F7800.000
G1 X82.141 Y102.545 A68.84031 F1800.000
G1 X82.141 Y101.657 A68.89542
G1 X84.579 Y104.096 A69.10964
G1 X84.370 Y103.000 A69.17896
G1 X82.141 Y100.770 A69.37481
G1 X82.141 Y99.883 A69.42992
G1 X84.194 Y101.936 A69.61029
G1 X84.134 Y100.990 A69.66921
G1 X82.141 Y98.996 A69.84434
G1 X82.141 Y98.109 A69.89945
G1 X84.085 Y100.053 A70.07028
G1 X84.139 Y99.220 A70.12215
G1 X82.141 Y97.222 A70.29770
G1 X82.141 Y96.335 A70.35281
G1 X84.193 Y98.387 A70.53310
G1 X84.304 Y97.611 A70.58179
G1 X82.141 Y95.448 A70.77185
G1 X82.141 Y94.560 A70.82696
G1 X84.446 Y96.866 A71.02950
G1 X84.590 Y96.123 A71.07652
G1 X82.141 Y93.673 A71.29172
G1 X82.141 Y92.786 A71.34682
G1 X84.808 Y95.453 A71.58114
G1 X85.026 Y94.784 A71.62487
G1 X82.141 Y91.899 A71.87829
G1 X82.141 Y91.012 A71.93340
G1 X85.254 Y94.125 A72.20689
G1 X85.539 Y93.523 A72.24827
G1 X82.141 Y90.125 A72.54677
G1 X82.141 Y89.238 A72.60188
G1 X85.823 Y92.920 A72.92539
G1 X86.114 Y92.324 A72.96661
G1 X82.141 Y88.351 A73.31566
G1 X82.141 Y87.464 A73.37076
G1 X86.458 Y91.781 A73.75006
G1 X86.803 Y91.238 A73.78999
G1 X82.141 Y86.576 A74.19955
G1 X82.141 Y85.689 A74.25466
G1 X87.147 Y90.696 A74.69449
G1 X87.549 Y90.210 A74.73363
G1 X82.173 Y84.834 A75.20591
G1 X82.324 Y84.098 A75.25260
G1 X87.951 Y89.725 A75.74692
G1 X88.352 Y89.239 A75.78607
G1 X82.610 Y83.497 A76.29050
G1 X83.012 Y83.012 A76.32964
G1 X88.799 Y88.799 A76.83799
G1 X89.256 Y88.369 A76.87698
G1 X83.495 Y82.608 A77.38311
G1 X84.090 Y82.316 A77.42429
G1 X89.714 Y87.940 A77.91834
G1 X90.205 Y87.543 A77.95753
G1 X84.830 Y82.168 A78.42973
G1 X85.717 Y82.168 A78.48484
G1 X90.718 Y87.170 A78.92425
G1 X91.232 Y86.797 A78.96370
G1 X86.604 Y82.168 A79.37031
G1 X87.491 Y82.168 A79.42542
G1 X91.771 Y86.448 A79.80140
G1 X92.343 Y86.133 A79.84197
G1 X88.378 Y82.168 A80.19030
G1 X89.265 Y82.168 A80.24541
G1 X92.915 Y85.819 A80.56609
G1 X93.503 Y85.519 A80.60707
G1 X90.152 Y82.168 A80.90146
G1 X91.039 Y82.168 A80.95656
G1 X94.141 Y85.270 A81.22904
G1 X94.779 Y85.021 A81.27158
G1 X91.927 Y82.168 A81.52216
G1 X92.814 Y82.168 A81.57726
G1 X95.442 Y84.797 A81.80818
G1 X96.148 Y84.616 A81.85345
